ncols 351
nrows 226
xllcorner 4500.0
yllcorner -18500.0
cellsize 20.0
NODATA_value -9999
2000.060 2019.825 2047.699 2115.384 2147.288 2149.312 2142.422 2136.287 2113.433 2087.975 2072.064 2060.832 2059.440 2064.724 2047.474 2037.692 2026.433 2013.364 1997.337 1982.748 1978.105 1968.257 1959.971 1943.972 1939.114 1933.131 1922.066 1915.860 1908.169 1903.782 1898.190 1894.979 1891.098 1887.513 1880.124 1868.115 1855.298 1848.779 1841.669 1833.120 1825.668 1819.861 1814.182 1804.231 1784.650 1767.458 1753.715 1740.983 1721.597 1708.347 1698.464 1682.380 1666.768 1652.622 1642.326 1632.895 1623.551 1614.445 1599.648 1592.892 1587.902 1581.703 1575.031 1565.388 1556.374 1537.362 1526.213 1514.976 1502.337 1493.104 1485.025 1475.154 1466.966 1460.046 1450.713 1441.229 1430.327 1422.881 1414.487 1406.437 1401.214 1396.695 1381.844 1371.898 1371.265 1359.690 1357.368 1349.384 1340.672 1335.623 1336.291 1325.832 1327.811 1325.550 1321.585 1312.352 1307.419 1306.125 1304.412 1303.726 1298.036 1291.635 1286.418 1283.739 1280.885 1277.914 1277.584 1272.652 1264.268 1245.918 1235.170 1227.830 1223.577 1218.724 1212.147 1204.133 1196.100 1185.875 1176.184 1167.871 1163.141 1153.462 1134.064 1112.103 1099.045 1086.090 1076.130 1062.438 1047.186 1035.868 1026.844 1019.695 1012.390 1000.849 987.061 976.764 962.925 950.316 943.599 942.072 940.640 937.369 934.494 927.592 916.732 899.652 885.754 868.154 850.369 833.312 818.755 802.661 794.597 791.318 788.185 782.493 775.601 768.821 763.420 758.894 751.471 743.492 735.164 730.627 725.608 721.265 714.277 705.698 695.833 687.276 677.423 667.894 660.076 652.333 643.760 636.477 629.799 622.658 607.897 596.059 588.791 575.696 563.348 552.501 547.831 551.287 552.299 545.208 539.965 534.806 530.719 533.555 531.019 529.637 529.731 528.263 525.433 522.432 518.818 514.982 514.010 509.677 504.340 499.234 495.231 488.730 482.653 476.814 472.644 467.685 460.694 453.211 447.382 442.865 444.303 447.092 444.972 446.397 450.414 452.174 450.719 448.436 444.695 437.933 433.535 430.249 426.444 420.216 414.703 405.769 395.249 385.679 378.447 378.402 374.914 370.958 369.661 366.812 362.711 363.658 363.742 364.317 364.897 366.086 372.341 374.100 375.935 377.587 379.056 380.538 382.963 385.679 387.944 389.765 391.919 394.171 400.820 405.670 407.823 406.262 407.156 410.819 415.821 420.927 421.680 422.528 422.796 423.256 426.890 435.273 442.709 450.917 455.762 464.892 474.800 480.049 484.214 487.010 488.611 492.041 497.167 498.720 499.609 502.433 504.973 506.913 509.050 514.971 518.309 518.050 518.742 519.959 518.312 514.213 512.336 508.553 501.772 498.191 522.633 536.125 545.436 556.212 564.195 572.688 575.305 589.426 607.357 628.068 641.319 654.219 661.197 667.102 673.311 671.576 679.711 685.203 683.572 675.374 681.478 676.178 674.114 678.441 685.159 689.918 693.314 704.869 717.548 729.856 734.408 736.147 741.052 746.804 745.453 740.722 736.151 739.258 752.832 763.859 775.370 782.428 782.901 785.306 785.147 784.931 787.757 787.673 791.696 796.120 806.442 818.800 827.066
1993.876 2013.482 2044.548 2102.377 2121.271 2129.253 2127.551 2123.237 2118.663 2115.552 2113.270 2082.510 2089.464 2074.032 2062.787 2057.487 2045.522 2024.395 2004.582 2006.163 1991.779 1982.014 1968.504 1962.482 1952.834 1940.934 1937.520 1932.622 1922.328 1918.184 1910.597 1907.823 1901.294 1896.645 1884.367 1875.377 1868.479 1859.561 1852.588 1846.031 1836.957 1829.426 1817.937 1802.636 1782.319 1770.062 1759.861 1743.268 1729.567 1714.442 1698.370 1680.479 1668.039 1656.737 1647.455 1636.726 1628.105 1613.106 1610.034 1598.627 1596.962 1592.364 1586.839 1576.376 1565.558 1555.718 1547.126 1533.084 1510.112 1500.065 1488.998 1478.626 1472.376 1460.202 1456.546 1448.087 1441.519 1433.759 1425.464 1416.883 1407.777 1399.693 1392.419 1383.841 1375.579 1366.250 1357.400 1345.050 1336.584 1320.954 1316.697 1310.175 1306.542 1298.536 1302.458 1297.284 1292.193 1295.108 1290.835 1287.106 1285.346 1278.457 1271.977 1271.870 1270.227 1268.847 1269.413 1267.161 1263.025 1254.718 1237.249 1224.311 1215.807 1212.694 1206.411 1198.565 1192.012 1181.337 1171.981 1164.619 1161.256 1154.491 1142.173 1117.304 1101.153 1087.606 1076.764 1061.857 1049.568 1037.995 1026.630 1018.181 1010.651 1001.389 987.141 974.654 960.456 945.401 938.610 935.035 934.528 932.042 928.543 923.892 917.356 904.433 886.767 867.532 850.293 835.078 821.180 806.750 795.607 790.015 783.558 777.465 771.736 765.031 759.365 755.366 750.714 741.745 733.486 727.191 722.470 717.793 710.931 702.552 695.008 687.017 678.894 670.006 663.045 654.866 647.509 639.549 631.431 618.837 607.072 595.147 583.895 570.118 561.147 551.103 557.363 560.833 557.125 549.623 543.293 539.736 538.353 540.346 538.749 538.052 534.267 531.969 530.559 529.794 525.476 521.225 518.636 514.769 510.311 508.048 503.494 495.079 486.655 479.747 476.616 471.278 462.917 456.553 455.134 454.290 453.836 454.642 451.229 453.986 457.684 459.380 456.612 453.940 449.300 444.722 439.614 435.928 431.854 426.404 420.708 410.818 399.616 390.199 382.504 378.785 376.905 372.105 370.049 368.310 362.937 364.755 363.202 364.221 364.704 365.625 368.054 372.709 374.771 376.056 377.699 379.431 381.370 383.664 386.626 387.840 388.942 391.281 392.647 399.473 401.896 400.945 399.818 402.463 407.390 411.817 411.918 413.766 414.591 425.174 433.752 440.999 447.145 456.046 460.701 464.751 471.488 477.342 483.042 485.962 486.926 488.784 490.269 494.676 495.595 500.125 502.262 501.616 503.966 508.614 511.460 512.632 514.040 514.383 511.695 507.936 505.903 502.213 494.427 510.722 526.043 533.806 536.342 544.343 554.236 566.430 578.176 595.713 612.289 625.864 635.756 646.317 655.171 655.891 659.193 666.572 673.892 680.618 670.753 663.648 664.274 662.957 665.470 667.792 675.983 679.553 688.530 699.291 713.196 725.630 734.549 734.831 736.029 738.827 736.321 733.531 730.669 733.728 739.963 748.976 753.834 774.491 774.199 775.482 775.870 777.157 778.047 780.237 779.968 789.407 800.677 813.338 819.245
1985.810 2011.692 2039.179 2086.565 2105.800 2110.556 2112.797 2110.323 2106.623 2105.097 2104.310 2107.063 2123.203 2098.507 2082.298 2061.371 2043.527 2035.485 2029.348 2016.788 2014.243 1996.652 1996.965 1984.246 1964.451 1973.054 1962.778 1951.050 1939.293 1931.500 1924.668 1918.578 1912.333 1899.436 1893.875 1887.240 1878.343 1869.100 1862.266 1854.169 1838.888 1824.272 1813.629 1798.610 1781.331 1767.221 1754.841 1741.646 1728.366 1714.257 1696.662 1684.124 1672.125 1658.880 1646.564 1642.735 1632.999 1624.227 1615.055 1609.924 1604.999 1600.037 1592.445 1580.522 1568.193 1560.493 1550.824 1542.949 1522.554 1510.113 1495.418 1485.284 1476.588 1470.521 1462.130 1454.460 1446.798 1438.991 1430.972 1422.016 1415.245 1405.770 1398.117 1389.414 1381.267 1373.000 1365.370 1357.723 1347.757 1336.242 1321.509 1310.929 1298.252 1282.848 1279.069 1276.524 1272.347 1274.231 1272.695 1267.068 1270.573 1265.124 1259.425 1258.105 1260.489 1259.598 1259.732 1256.193 1256.672 1251.335 1244.019 1228.381 1214.139 1205.826 1199.878 1193.202 1186.633 1177.026 1168.407 1162.375 1158.388 1151.108 1142.855 1129.592 1110.007 1090.982 1079.402 1069.284 1054.847 1041.155 1028.632 1018.039 1007.136 999.855 989.684 975.509 961.506 944.645 935.797 926.577 926.111 925.653 924.728 920.919 914.657 903.824 885.088 868.678 852.996 833.855 819.042 805.648 794.020 784.574 778.666 771.289 765.777 759.602 755.146 750.168 744.729 737.436 732.107 727.746 720.730 715.405 708.596 701.203 695.018 687.428 679.179 671.268 663.965 655.649 647.703 641.012 630.883 617.998 608.484 595.189 584.234 573.072 559.871 563.763 569.141 566.559 560.367 554.647 548.808 545.217 546.815 544.835 542.563 540.553 536.848 537.834 537.492 534.265 530.775 526.209 523.037 519.479 516.890 512.628 507.090 498.951 487.982 483.668 479.295 473.950 469.535 465.170 463.486 461.273 462.752 460.733 460.431 464.105 465.878 464.446 461.238 457.804 453.909 450.181 447.093 442.963 438.638 431.975 426.167 417.461 406.115 396.595 389.138 383.546 378.701 372.275 370.220 368.894 364.581 364.609 363.706 364.460 364.497 365.040 366.020 371.519 374.346 377.633 380.020 382.285 383.382 383.983 385.953 388.143 390.880 392.698 393.014 392.889 394.032 394.555 395.863 398.127 399.832 402.863 404.274 411.308 419.966 429.863 438.368 443.312 448.261 455.989 462.083 463.633 466.141 474.424 479.625 482.430 482.525 483.760 483.839 491.837 493.448 497.562 498.747 496.881 499.348 503.007 506.024 506.222 507.749 507.590 504.919 502.193 500.390 495.812 487.383 508.112 518.283 523.814 529.071 535.992 545.750 565.364 576.994 579.444 609.988 618.282 627.676 638.489 645.098 644.528 651.721 661.540 665.299 665.867 658.261 653.127 652.530 658.996 660.834 664.130 671.101 677.140 683.135 693.258 702.487 718.037 723.131 725.513 729.856 728.976 726.665 725.036 725.394 726.171 730.005 738.936 748.752 766.702 765.629 768.135 770.983 774.466 770.680 776.173 786.167 797.187 807.284 820.492 833.627
1981.044 2008.150 2047.718 2082.758 2094.300 2099.705 2100.725 2099.006 2097.267 2097.409 2095.736 2101.038 2119.037 2106.677 2086.479 2078.054 2064.148 2063.819 2047.482 2047.210 2027.764 2010.641 2022.645 1991.112 1979.850 1993.509 1983.749 1971.722 1958.204 1954.499 1939.841 1932.625 1921.458 1912.827 1908.970 1899.168 1889.672 1879.873 1867.156 1854.774 1837.369 1826.514 1813.619 1799.135 1780.353 1767.160 1752.786 1739.652 1724.888 1710.671 1698.222 1686.030 1667.946 1663.167 1658.203 1644.120 1632.870 1630.720 1627.865 1621.413 1615.743 1608.435 1598.777 1582.030 1571.994 1564.319 1556.135 1541.826 1529.322 1515.639 1503.151 1492.565 1486.330 1477.137 1470.088 1461.242 1453.353 1446.199 1437.469 1428.546 1420.080 1412.325 1404.290 1395.167 1385.554 1375.004 1365.933 1356.831 1349.216 1341.108 1335.035 1324.634 1311.451 1297.260 1287.577 1277.942 1266.774 1257.444 1252.539 1249.305 1251.666 1251.837 1245.677 1242.074 1245.198 1247.802 1249.056 1248.261 1247.608 1244.933 1239.019 1230.448 1213.018 1201.016 1193.116 1187.022 1179.280 1171.518 1165.543 1159.529 1154.895 1146.597 1136.172 1124.895 1112.272 1099.683 1086.755 1075.645 1061.692 1047.154 1033.027 1017.371 1005.502 997.338 990.492 978.901 966.747 950.864 935.158 926.281 921.660 919.269 918.571 917.164 914.303 906.379 887.881 873.063 858.994 847.482 815.751 802.304 792.439 781.308 773.309 767.682 760.150 754.218 748.811 744.995 738.780 732.036 728.792 724.185 719.258 714.116 706.327 698.867 692.258 685.914 678.027 670.830 662.195 656.832 650.457 643.779 634.694 623.332 611.673 593.580 579.799 568.591 571.233 574.837 574.778 569.772 563.649 557.962 551.934 550.927 549.027 548.923 547.836 545.103 543.695 541.699 542.285 539.605 535.305 532.231 527.610 525.173 522.127 517.794 510.613 499.140 492.012 487.034 483.630 481.224 479.044 475.911 474.666 476.110 470.026 471.285 475.320 475.866 472.834 468.768 464.982 462.612 458.358 455.376 453.121 449.093 445.187 438.112 430.551 421.953 410.680 400.210 391.974 383.653 380.219 372.239 370.227 369.040 365.783 363.411 363.826 364.771 364.817 364.683 365.492 368.426 375.947 377.813 381.081 381.574 383.782 386.460 387.903 388.864 389.863 390.789 391.390 390.960 391.068 392.530 394.528 396.885 399.275 401.501 405.853 412.964 419.975 427.771 438.911 443.969 445.884 451.771 458.122 460.267 461.542 467.688 475.573 478.988 479.385 480.326 481.014 487.613 492.737 494.794 493.790 494.682 497.108 499.177 500.392 499.039 498.782 499.335 499.119 496.916 493.558 488.511 488.014 500.730 509.295 518.109 524.882 528.741 537.029 547.091 559.486 565.303 604.412 608.386 617.795 628.481 640.070 644.417 651.771 657.400 659.173 655.761 645.863 644.672 649.120 654.497 655.711 660.035 665.723 666.587 673.017 681.543 693.798 704.243 710.941 715.523 718.465 718.107 720.086 720.748 721.634 723.786 728.636 735.108 751.213 756.697 758.251 764.624 768.883 765.268 769.414 779.197 790.327 801.193 811.291 825.330 841.681
1977.181 2008.274 2054.829 2072.456 2084.279 2091.367 2090.952 2089.702 2089.547 2092.079 2092.219 2098.052 2110.016 2134.755 2131.430 2103.376 2106.150 2105.585 2098.617 2054.134 2039.295 2046.404 2025.828 2002.952 2005.365 2042.323 2032.288 1993.394 1976.797 1963.949 1956.969 1943.094 1941.671 1934.304 1923.688 1911.553 1898.488 1880.018 1865.089 1852.749 1836.403 1820.784 1808.572 1795.866 1782.871 1765.774 1751.704 1739.047 1725.435 1709.028 1695.874 1687.759 1682.040 1670.291 1656.564 1653.405 1647.550 1642.113 1638.505 1631.816 1626.740 1617.644 1601.345 1586.523 1577.640 1566.689 1554.482 1543.044 1530.846 1523.842 1512.281 1503.294 1493.834 1484.812 1475.792 1465.942 1460.302 1453.071 1443.372 1434.503 1426.825 1418.516 1405.141 1398.569 1390.663 1383.313 1374.701 1363.170 1357.494 1348.533 1340.518 1330.191 1321.550 1313.945 1304.140 1292.305 1282.019 1269.491 1257.349 1246.618 1234.716 1229.655 1229.481 1224.518 1229.510 1229.754 1235.291 1236.621 1238.477 1236.593 1232.606 1228.173 1217.428 1201.443 1190.852 1183.083 1176.100 1167.760 1162.041 1155.630 1149.449 1140.663 1130.304 1120.168 1108.726 1098.727 1084.933 1071.042 1059.093 1044.237 1033.328 1016.653 1006.480 997.557 985.521 977.030 966.107 957.403 940.782 926.880 920.570 917.521 915.521 912.409 910.670 903.142 887.899 873.397 861.625 845.697 830.966 800.928 787.654 778.539 770.205 760.854 754.872 748.565 744.441 739.826 734.335 727.659 724.647 721.327 715.974 712.257 706.106 697.471 690.079 682.301 675.177 667.229 658.359 650.393 647.352 643.202 633.310 620.382 604.417 589.814 577.253 578.266 587.448 581.937 577.086 570.130 565.944 559.682 556.201 558.150 560.711 558.859 555.352 554.812 551.261 550.272 549.278 546.680 540.197 534.309 533.055 529.880 526.702 518.098 512.068 500.872 496.705 496.510 492.380 491.672 488.889 489.254 487.780 485.216 481.945 484.988 485.807 486.410 478.355 473.098 469.638 466.863 463.223 460.885 459.309 455.199 451.292 445.840 436.865 427.040 414.511 403.015 394.035 387.387 381.311 375.646 370.256 369.226 368.203 363.499 364.980 364.900 365.031 364.727 365.097 366.043 376.391 378.356 379.981 380.599 382.859 385.009 386.596 387.884 388.410 389.175 388.841 388.731 390.411 391.617 393.662 395.087 398.211 398.831 404.651 413.957 422.907 430.930 437.301 442.031 444.106 448.006 454.010 455.937 459.966 463.616 472.068 476.719 476.193 477.609 477.387 484.500 488.800 491.483 490.932 491.913 493.236 494.899 494.630 493.547 494.326 495.618 496.557 492.958 489.119 480.793 490.982 508.629 511.465 516.612 522.758 528.682 534.100 542.139 551.459 560.050 572.780 598.708 616.470 629.881 645.388 656.090 661.749 656.889 654.616 644.298 638.544 639.166 644.534 649.821 651.964 653.635 657.834 661.944 668.994 677.399 686.722 697.190 704.451 709.695 712.885 713.815 715.738 718.282 720.025 724.676 729.452 742.589 750.848 751.451 757.380 761.311 761.459 761.410 769.144 778.714 787.768 802.760 814.871 830.500 840.748
1971.595 2003.562 2048.687 2060.469 2068.411 2080.833 2079.662 2078.858 2080.077 2081.677 2085.387 2094.083 2109.683 2131.436 2150.386 2132.101 2136.661 2112.817 2094.158 2090.523 2065.452 2043.745 2034.793 2025.084 2031.928 2056.542 2032.469 2015.091 2009.069 1989.138 1969.385 1965.735 1956.218 1944.973 1931.497 1916.645 1904.617 1884.756 1865.417 1851.001 1837.127 1823.106 1804.024 1790.333 1774.570 1761.267 1751.998 1734.864 1723.814 1717.446 1702.766 1696.560 1688.100 1680.576 1671.131 1662.629 1656.898 1652.043 1644.248 1636.883 1627.999 1613.927 1601.333 1591.238 1581.260 1568.949 1559.287 1549.887 1537.032 1528.303 1518.792 1510.449 1501.278 1491.798 1483.196 1473.853 1467.899 1461.501 1456.614 1445.565 1435.539 1426.995 1419.101 1410.646 1403.962 1391.889 1381.180 1373.183 1363.983 1354.877 1347.958 1341.152 1331.636 1323.482 1312.831 1302.058 1288.817 1277.586 1266.636 1254.594 1240.620 1229.540 1221.325 1211.734 1209.322 1215.537 1216.459 1223.085 1222.727 1223.269 1222.116 1219.029 1214.880 1203.546 1186.774 1178.834 1172.423 1166.384 1160.957 1153.533 1144.602 1133.232 1123.369 1114.037 1104.145 1092.774 1079.143 1068.493 1058.156 1047.435 1037.856 1029.649 1016.522 1004.439 992.411 981.855 967.851 949.183 937.171 928.131 921.968 918.284 915.358 913.206 906.656 892.547 883.014 869.753 859.890 851.068 837.338 805.566 786.672 776.346 767.027 754.655 747.556 741.733 738.292 733.873 728.010 722.776 718.979 716.047 709.849 708.336 704.543 696.367 690.436 680.799 671.990 664.621 656.579 645.634 639.469 635.640 626.378 616.153 602.864 590.822 584.523 593.609 587.978 583.405 577.434 571.583 566.536 561.962 566.136 569.895 570.999 569.959 566.943 564.524 560.369 560.208 557.487 553.594 547.202 539.667 536.611 533.737 526.982 523.599 515.834 509.736 506.333 502.293 498.637 501.183 500.972 500.083 497.390 492.996 489.876 492.076 491.521 494.277 485.638 477.228 473.355 470.515 467.805 466.949 464.561 460.558 457.042 451.293 441.624 429.147 416.623 405.697 397.033 388.240 382.178 375.518 370.538 369.501 368.495 364.010 366.178 365.035 365.294 365.015 365.078 365.219 376.627 377.354 378.679 379.660 381.744 384.005 385.240 385.987 386.580 387.445 386.351 387.227 389.067 390.819 392.119 393.465 395.269 397.527 403.984 412.209 422.417 431.938 436.859 441.050 444.765 448.131 453.796 456.935 458.714 460.691 462.774 466.174 467.836 473.475 474.747 481.154 484.957 485.722 486.372 488.186 489.805 490.834 488.508 488.269 492.860 494.896 491.947 488.912 480.675 478.583 509.444 517.394 525.384 526.028 526.389 529.309 536.459 543.589 555.715 563.758 575.647 590.748 616.183 633.345 648.560 659.528 657.165 646.319 642.745 635.932 634.979 635.939 638.935 646.197 649.195 651.137 656.961 661.123 666.755 672.603 682.317 690.095 698.263 707.441 710.420 713.152 714.715 714.104 718.836 724.706 733.510 742.094 743.530 749.719 754.310 753.660 755.936 763.823 771.433 779.819 791.029 805.219 817.921 833.423 845.322
1968.534 2002.554 2040.929 2049.088 2053.469 2059.350 2066.810 2067.221 2070.556 2071.842 2075.771 2084.113 2109.296 2129.021 2146.325 2169.988 2139.739 2124.244 2104.039 2088.307 2071.816 2063.758 2045.582 2045.954 2059.935 2058.122 2039.025 2021.830 2004.885 1989.518 1986.448 1982.321 1966.835 1952.633 1938.396 1924.256 1910.754 1881.939 1869.939 1861.854 1843.798 1826.013 1810.517 1796.920 1781.210 1765.179 1753.989 1745.641 1734.964 1718.949 1714.008 1703.516 1690.703 1688.633 1678.566 1672.035 1663.361 1659.793 1650.050 1641.335 1632.027 1618.640 1608.940 1597.500 1587.137 1577.261 1566.694 1556.106 1543.825 1534.508 1524.445 1517.786 1509.901 1500.351 1492.471 1482.428 1479.000 1471.269 1462.277 1453.060 1443.597 1438.471 1430.941 1420.764 1414.615 1403.830 1390.201 1381.085 1375.114 1365.242 1358.539 1350.750 1339.109 1328.766 1320.905 1311.303 1298.907 1287.427 1275.366 1263.571 1253.400 1239.728 1227.957 1216.125 1204.886 1193.833 1198.871 1199.893 1199.809 1206.008 1203.574 1204.300 1204.940 1202.079 1187.306 1173.247 1168.498 1163.007 1157.237 1146.170 1135.119 1127.515 1118.401 1108.778 1100.068 1088.222 1076.385 1066.640 1059.240 1052.831 1046.620 1035.485 1021.793 1008.417 996.515 988.102 968.609 952.499 938.056 927.800 922.652 918.479 915.071 912.999 907.935 895.222 878.777 869.850 859.563 850.883 840.137 821.205 799.861 780.483 768.014 757.775 748.445 740.665 735.825 728.816 722.202 718.262 715.146 710.983 704.712 701.300 698.619 693.079 687.626 679.998 671.031 660.309 655.007 645.482 640.019 631.656 620.161 610.585 601.585 596.260 601.713 594.679 587.965 582.851 576.588 570.885 568.283 573.737 576.403 577.391 579.661 578.995 574.695 571.612 570.738 566.316 563.441 558.886 553.064 546.507 539.448 535.182 532.166 526.037 518.330 515.264 511.831 507.160 504.417 507.863 508.354 508.885 504.618 498.434 496.009 496.505 497.806 499.657 493.946 482.360 478.622 475.074 472.395 470.897 468.762 464.655 460.398 453.234 444.200 430.163 419.715 407.487 399.261 391.800 383.088 377.735 370.779 369.735 368.769 365.670 363.837 365.422 365.401 365.363 365.661 365.500 372.405 376.930 377.836 379.719 381.689 383.059 383.754 384.241 384.784 384.057 383.917 385.090 386.421 388.779 390.711 391.764 393.359 395.681 402.753 414.640 421.766 429.417 436.930 441.142 444.626 447.483 451.872 455.403 457.610 458.734 458.225 458.338 462.900 469.710 473.484 475.346 480.723 483.236 482.844 484.233 484.246 485.356 484.097 485.202 491.701 489.672 486.460 483.543 472.343 496.619 509.398 517.721 525.790 531.879 543.304 544.495 543.837 560.910 562.836 569.879 581.085 596.460 614.927 632.791 647.640 649.575 647.948 641.412 636.406 633.886 633.071 634.337 635.457 641.436 646.626 649.244 654.525 659.204 665.501 670.323 678.740 686.988 694.991 705.667 706.407 708.306 710.414 709.847 715.494 720.164 731.108 733.879 739.783 745.099 748.693 746.828 755.801 763.936 773.440 782.713 794.398 805.771 821.318 837.802 847.442
1961.617 1989.973 2034.328 2037.745 2041.119 2046.476 2055.742 2065.134 2067.085 2066.470 2072.616 2080.594 2101.271 2120.925 2139.033 2165.179 2155.698 2127.590 2111.409 2098.724 2093.235 2075.071 2063.952 2076.870 2075.077 2058.427 2046.585 2031.678 2021.361 2016.718 2002.211 1987.045 1972.379 1956.727 1940.621 1928.940 1917.308 1902.361 1882.432 1864.463 1847.471 1831.499 1815.606 1801.225 1786.069 1772.673 1761.257 1747.302 1739.315 1730.483 1720.662 1709.564 1705.507 1697.145 1688.571 1681.705 1674.537 1668.314 1660.102 1651.292 1642.222 1631.566 1620.978 1611.117 1599.915 1587.267 1577.547 1566.216 1556.106 1546.677 1537.431 1528.729 1521.556 1513.145 1504.307 1493.989 1485.812 1477.874 1466.047 1462.114 1454.548 1450.329 1440.965 1429.115 1418.491 1408.153 1404.190 1396.460 1388.502 1377.523 1370.070 1366.015 1347.243 1337.063 1327.353 1317.543 1305.893 1294.835 1283.487 1271.868 1260.287 1248.832 1237.269 1225.111 1210.714 1192.848 1180.373 1179.752 1182.369 1189.032 1188.955 1187.065 1191.074 1188.467 1184.416 1169.977 1161.792 1155.885 1149.555 1140.025 1130.034 1121.271 1113.475 1105.739 1093.021 1087.874 1074.352 1065.672 1059.790 1054.103 1048.437 1042.042 1023.983 1009.913 996.998 988.373 971.217 952.662 937.589 926.238 922.965 921.126 915.486 911.444 906.540 895.246 885.357 877.341 863.669 850.034 840.018 830.241 805.629 791.009 776.891 766.499 754.680 741.164 733.342 724.314 719.115 714.349 709.433 706.594 700.223 696.515 690.912 686.294 680.958 672.050 659.805 646.847 640.951 632.996 625.646 621.696 612.306 603.637 605.618 605.982 603.407 594.109 587.494 584.931 577.776 574.847 577.525 582.003 583.972 584.175 584.991 583.343 581.724 578.973 574.274 570.849 568.309 564.575 558.514 552.190 542.477 539.783 536.118 527.443 524.820 521.864 516.567 511.668 509.494 513.518 515.979 513.048 508.106 503.359 503.533 505.957 504.192 503.602 498.821 489.519 483.411 478.448 475.127 473.654 470.828 465.720 461.203 453.866 445.165 433.119 419.958 408.404 400.612 391.595 383.912 377.453 371.710 370.803 370.238 368.489 364.008 366.027 365.487 365.553 365.855 365.603 365.501 376.585 377.821 379.405 380.628 381.557 381.981 382.863 383.319 382.498 382.815 383.246 385.208 387.249 388.601 391.467 391.410 394.856 403.633 415.085 422.248 426.968 435.656 440.330 444.263 447.061 450.026 451.032 454.641 456.981 456.645 453.487 458.587 467.328 470.705 472.510 472.126 470.032 474.021 479.650 479.527 484.238 479.724 482.796 485.013 483.262 480.326 477.932 469.683 495.703 505.395 513.839 524.183 535.177 547.268 557.373 556.028 565.627 579.910 588.582 599.551 607.950 620.719 633.965 634.382 636.673 639.217 636.577 633.198 632.439 631.559 631.827 634.095 639.673 642.492 647.657 654.875 659.575 663.360 667.500 674.008 684.239 694.239 700.393 702.418 704.899 702.793 705.667 709.553 717.955 724.412 731.657 738.328 743.476 743.044 746.955 756.288 763.575 774.953 788.903 798.489 810.225 819.429 834.880 846.032
1961.894 1984.284 2025.484 2025.215 2029.249 2033.869 2039.205 2053.353 2055.465 2062.312 2069.410 2078.353 2103.752 2116.604 2133.655 2154.939 2164.169 2138.509 2128.315 2126.109 2115.981 2087.652 2082.240 2104.163 2088.558 2070.893 2052.497 2049.024 2038.978 2024.564 2008.590 1990.201 1980.138 1967.387 1954.960 1940.803 1925.791 1907.622 1889.615 1871.220 1851.350 1837.353 1822.634 1807.125 1792.733 1775.667 1764.825 1756.067 1746.138 1733.189 1728.983 1724.027 1715.875 1708.906 1699.455 1692.733 1684.541 1677.580 1668.770 1660.048 1651.758 1640.468 1635.441 1620.265 1611.514 1601.264 1589.808 1580.384 1564.535 1555.046 1544.560 1536.050 1530.051 1521.912 1512.852 1500.526 1492.496 1481.711 1478.473 1473.778 1467.345 1462.928 1454.941 1440.823 1433.490 1429.523 1420.841 1409.350 1400.315 1390.355 1383.664 1374.284 1358.395 1346.116 1333.962 1321.933 1310.588 1302.885 1293.376 1282.266 1270.310 1257.249 1245.092 1231.716 1218.391 1202.724 1186.214 1167.328 1166.854 1171.896 1175.323 1169.831 1176.754 1174.590 1169.832 1163.789 1149.797 1145.431 1141.101 1129.653 1123.791 1114.043 1106.269 1099.042 1093.831 1083.202 1071.824 1064.935 1057.910 1052.617 1044.777 1033.695 1021.670 1008.042 995.949 987.223 970.719 954.059 938.821 925.917 920.905 919.092 917.711 912.984 905.859 899.036 891.240 878.786 867.390 855.722 840.788 827.976 819.894 807.703 789.271 785.532 766.170 752.676 745.277 730.568 716.182 709.687 705.641 698.735 695.695 691.485 684.580 678.536 671.998 659.223 648.161 635.375 630.869 627.301 622.027 614.213 617.277 616.460 613.476 611.429 603.620 593.554 589.850 584.113 578.779 582.226 589.050 590.201 591.997 591.861 590.101 587.827 587.020 584.924 580.588 575.993 572.568 567.780 562.092 553.987 549.062 545.680 541.197 537.255 534.499 527.811 519.401 514.388 513.719 518.265 521.407 517.997 513.494 509.564 509.585 510.112 507.814 508.215 504.661 499.047 489.834 482.574 477.325 476.352 472.751 468.073 462.344 453.866 445.806 435.779 419.413 407.263 400.580 392.268 384.607 377.340 372.628 372.271 370.671 366.878 364.255 366.030 365.788 365.616 365.885 366.016 366.074 374.453 377.287 378.854 379.815 380.130 380.518 381.325 381.356 381.068 381.189 381.845 383.691 385.483 388.246 389.689 389.735 393.041 401.627 416.944 423.373 425.396 431.077 436.894 442.183 445.656 449.137 448.731 448.623 450.445 449.458 447.462 454.029 463.966 467.096 467.994 462.272 461.432 463.609 467.149 472.956 474.927 475.340 477.635 479.028 477.661 474.927 470.567 480.373 493.664 503.366 514.090 526.746 543.052 555.853 568.130 571.355 578.626 591.764 599.115 607.962 619.344 631.223 624.401 627.444 630.025 630.485 631.792 631.119 628.844 629.044 630.098 632.815 636.780 640.692 648.086 654.740 658.743 662.506 665.499 673.067 679.509 688.542 694.826 701.649 700.271 698.240 702.072 706.977 713.630 723.756 733.135 739.145 735.040 741.847 748.224 757.299 764.705 777.852 790.066 799.645 811.681 827.120 842.555 852.101
1962.164 1977.229 1991.067 2010.890 2016.246 2021.846 2028.038 2036.697 2050.973 2059.596 2067.426 2080.290 2099.592 2113.120 2129.814 2153.114 2169.483 2155.575 2152.288 2135.522 2117.751 2102.458 2134.415 2110.372 2092.674 2084.458 2076.898 2059.873 2043.071 2027.739 2015.738 2002.378 1989.351 1976.586 1962.127 1946.224 1928.241 1911.045 1897.960 1879.792 1859.256 1842.041 1824.748 1809.226 1795.568 1788.373 1774.772 1764.084 1752.733 1744.765 1741.704 1734.718 1727.106 1719.631 1711.049 1704.067 1695.921 1688.017 1679.333 1670.373 1660.989 1652.249 1639.919 1635.801 1625.773 1612.312 1601.509 1588.797 1579.187 1570.188 1555.940 1545.159 1536.690 1526.586 1516.285 1504.460 1497.373 1494.520 1490.250 1486.524 1480.611 1475.810 1466.130 1456.897 1451.992 1442.440 1434.760 1424.333 1413.667 1404.728 1394.110 1380.792 1367.072 1355.556 1340.007 1329.607 1320.267 1310.311 1299.368 1289.961 1280.114 1268.282 1254.994 1239.097 1224.911 1210.187 1194.047 1176.117 1154.819 1147.915 1151.822 1153.430 1162.427 1159.876 1159.779 1163.062 1146.763 1131.214 1129.850 1123.589 1110.062 1101.509 1094.763 1092.929 1092.037 1083.860 1068.535 1062.976 1055.091 1049.011 1040.967 1029.207 1016.773 1003.856 994.283 984.703 969.980 953.258 938.247 926.487 919.007 917.115 914.982 912.496 909.066 896.756 884.337 874.237 863.240 852.295 841.796 830.206 818.749 807.512 801.021 787.390 775.648 767.544 761.257 749.864 720.138 708.677 690.596 684.484 682.891 675.369 672.568 663.603 657.172 654.834 649.392 650.515 646.895 640.079 637.562 633.722 628.706 625.934 619.821 615.355 605.292 597.944 593.061 585.931 584.804 591.427 595.494 597.305 598.474 597.802 593.600 592.858 594.442 591.968 587.168 580.758 575.932 569.707 563.120 559.053 557.465 552.925 550.779 547.561 541.848 531.355 520.237 515.729 515.696 523.726 521.954 518.254 515.735 514.493 514.688 513.476 511.980 512.095 511.771 506.616 498.869 488.747 481.042 478.539 474.950 468.604 460.815 452.697 439.250 429.410 417.609 406.776 398.299 391.172 385.379 379.495 374.394 373.407 371.859 366.555 364.477 367.046 365.986 365.841 365.962 366.303 366.831 373.598 376.784 377.952 378.204 378.805 379.271 379.922 379.015 379.323 379.862 381.236 383.037 384.210 387.009 387.180 388.668 392.380 402.921 413.880 421.233 425.629 428.084 432.938 438.955 442.907 445.738 447.022 447.331 445.623 443.544 444.335 449.060 456.813 462.819 464.085 458.968 456.073 458.282 459.023 466.840 466.719 467.324 473.043 474.324 470.201 469.046 468.086 473.417 491.323 501.708 514.820 529.464 543.042 552.295 561.864 573.666 584.738 590.871 595.409 602.404 612.706 620.308 615.916 619.533 623.268 624.774 629.405 629.591 627.356 627.902 628.865 631.563 635.691 641.446 648.788 654.781 658.418 663.140 665.801 669.098 674.960 681.345 693.092 698.323 696.722 695.257 699.965 706.276 715.020 724.123 732.402 729.841 735.261 742.540 751.282 758.784 769.046 781.889 792.826 805.489 818.953 829.747 845.154 859.765
1957.837 1968.884 1978.711 1993.878 1997.762 2013.743 2021.104 2024.721 2033.950 2055.475 2066.707 2086.658 2097.791 2110.883 2126.244 2140.288 2163.069 2172.719 2159.362 2143.939 2128.743 2119.405 2142.875 2147.194 2158.573 2147.420 2101.921 2070.701 2055.218 2042.286 2026.114 2013.521 2000.159 1984.964 1968.709 1953.596 1938.165 1920.527 1903.076 1883.567 1862.016 1844.345 1832.396 1823.003 1808.172 1796.202 1783.675 1772.270 1766.026 1759.715 1753.155 1741.344 1736.776 1727.712 1720.551 1713.034 1703.895 1694.282 1683.486 1672.056 1663.180 1652.547 1652.516 1647.396 1636.337 1623.421 1610.473 1600.058 1590.669 1581.111 1565.949 1554.311 1542.331 1527.774 1520.461 1516.028 1512.122 1506.719 1502.078 1498.996 1493.280 1485.378 1479.254 1473.222 1464.151 1455.244 1448.538 1438.574 1429.875 1418.447 1408.604 1393.876 1379.610 1368.237 1356.646 1342.249 1329.284 1318.767 1307.000 1296.273 1285.248 1275.120 1263.478 1248.073 1232.061 1216.151 1199.680 1184.330 1166.629 1147.258 1128.876 1138.322 1144.090 1147.658 1147.865 1146.818 1144.043 1126.409 1116.556 1108.896 1100.862 1090.168 1087.034 1084.685 1082.086 1076.445 1067.670 1058.887 1051.226 1045.131 1038.043 1026.485 1014.703 1002.718 992.854 984.262 968.930 953.959 939.238 927.330 919.309 916.460 911.965 912.532 907.937 895.121 886.847 874.695 862.489 850.770 840.842 833.717 822.367 814.106 807.275 799.070 790.669 784.871 773.706 759.337 737.591 695.025 691.562 693.725 690.290 687.813 685.053 671.458 666.763 664.718 662.947 659.603 655.323 652.878 648.974 646.298 641.028 633.310 626.927 617.353 608.144 602.679 596.160 589.249 591.183 597.187 601.019 603.129 603.817 602.504 599.130 602.108 603.599 599.866 592.705 587.694 582.589 576.550 573.051 569.256 563.051 561.172 559.683 555.726 547.120 533.203 523.607 518.710 522.375 526.590 523.240 520.573 518.048 517.100 518.411 517.398 514.936 514.413 514.246 508.272 501.422 490.628 485.819 480.048 470.593 462.819 455.938 447.586 439.636 428.529 412.769 403.714 397.393 392.163 387.033 379.694 376.156 373.474 371.160 366.728 364.898 366.571 366.344 366.237 366.348 367.167 367.479 371.548 376.006 376.370 376.754 377.518 378.276 378.199 377.276 378.015 379.110 380.350 381.562 383.104 385.183 385.739 387.950 390.533 398.074 407.575 415.944 423.681 426.368 427.594 432.865 438.304 441.830 442.753 443.603 441.599 438.893 440.108 445.689 450.819 453.752 455.649 452.584 452.843 452.013 452.575 458.834 460.129 461.547 466.839 468.061 467.179 464.194 463.531 474.618 489.449 505.187 519.623 528.423 539.511 549.271 557.571 569.036 580.604 584.710 593.708 599.882 610.323 610.196 610.983 614.989 619.634 624.619 626.854 627.442 626.062 626.546 627.509 631.969 639.941 644.961 648.932 654.493 658.866 662.325 663.766 666.584 671.192 681.227 689.446 693.151 692.465 694.955 701.912 711.626 721.784 727.332 723.380 728.448 737.832 745.529 754.749 762.854 775.119 786.005 794.333 806.838 821.473 836.655 853.619 865.858
1948.251 1960.328 1965.914 1975.604 1981.544 2005.168 2012.805 2014.714 2024.351 2045.189 2064.829 2092.268 2100.277 2111.665 2125.684 2142.515 2163.777 2174.703 2167.590 2153.973 2140.915 2160.323 2161.949 2163.988 2149.638 2120.987 2093.227 2080.389 2070.389 2054.324 2039.875 2026.925 2009.521 1990.477 1978.207 1961.239 1947.769 1930.356 1908.590 1893.194 1876.752 1865.483 1848.979 1834.880 1819.816 1806.878 1789.672 1787.467 1782.349 1773.896 1764.404 1755.025 1748.324 1740.572 1730.967 1722.609 1712.631 1699.800 1683.698 1675.000 1665.739 1660.837 1658.707 1654.553 1645.698 1631.408 1615.176 1605.698 1593.575 1580.819 1568.126 1554.391 1543.240 1537.954 1531.927 1526.660 1522.483 1514.823 1511.543 1507.134 1498.840 1492.476 1486.535 1479.912 1470.183 1464.265 1451.317 1446.318 1436.222 1426.119 1413.415 1399.807 1389.809 1380.264 1368.675 1357.147 1344.524 1330.579 1318.401 1306.269 1295.636 1282.612 1269.984 1256.651 1239.703 1224.174 1206.860 1190.858 1175.689 1159.565 1143.285 1122.067 1126.763 1132.659 1134.220 1132.515 1135.060 1121.949 1109.511 1099.351 1091.547 1085.867 1080.456 1076.508 1073.796 1070.312 1062.027 1054.626 1047.505 1040.340 1031.672 1020.612 1010.816 1001.696 992.070 980.659 963.264 948.979 935.356 923.475 917.696 908.856 904.490 902.758 899.859 891.247 876.599 867.434 861.957 851.358 842.930 837.190 823.414 815.488 810.855 809.444 797.820 785.045 774.560 758.965 746.704 724.460 711.193 709.489 705.872 700.611 691.559 683.734 677.523 675.046 672.023 669.779 665.735 662.289 659.669 655.602 648.809 641.198 633.194 620.890 612.866 607.241 599.412 598.477 601.039 604.384 605.991 608.714 608.249 606.682 607.882 608.281 606.413 603.382 598.284 594.024 591.146 587.932 582.461 578.998 572.098 568.034 563.200 560.701 554.856 539.582 529.485 527.224 529.270 526.877 523.652 521.031 518.693 518.443 519.878 520.591 516.489 514.464 510.602 505.276 499.679 491.677 485.668 477.260 471.880 465.114 454.408 443.122 432.597 424.388 411.393 403.436 396.553 393.664 390.710 385.609 376.116 373.784 371.656 366.989 365.131 367.424 366.571 366.806 367.034 367.402 368.082 368.542 374.557 375.130 375.969 376.620 376.870 375.788 375.918 377.296 378.553 379.950 381.189 382.631 383.967 385.352 386.658 388.084 394.519 403.672 408.995 418.082 422.847 423.953 428.231 434.339 436.938 438.658 439.365 435.618 437.058 439.838 444.036 445.962 440.982 442.570 442.026 441.458 442.028 447.997 451.644 455.456 458.673 461.106 461.775 457.582 459.843 467.365 475.329 488.778 506.549 517.310 527.475 536.379 545.759 557.272 567.824 575.716 580.307 591.679 602.751 604.009 604.378 606.633 612.253 619.407 623.190 625.078 624.633 624.411 624.749 628.171 637.966 645.055 649.761 651.575 654.221 658.525 660.331 663.188 666.093 672.307 677.374 683.580 687.360 689.643 690.399 697.103 707.653 716.023 715.722 726.967 732.948 743.362 755.902 765.541 776.094 782.311 792.075 800.893 811.478 825.705 838.814 854.377 869.687
1939.180 1949.781 1956.718 1964.600 1972.010 1990.461 1999.153 2003.676 2015.217 2044.828 2054.443 2089.988 2101.363 2109.585 2121.103 2132.044 2154.778 2168.713 2174.998 2165.147 2163.486 2184.549 2175.313 2158.103 2138.688 2136.800 2122.758 2129.644 2111.315 2100.285 2071.177 2035.636 2014.629 2002.434 1985.172 1971.500 1955.240 1938.210 1924.677 1902.291 1889.635 1874.120 1856.440 1839.635 1822.886 1806.945 1815.835 1805.410 1793.801 1784.640 1775.510 1767.183 1758.850 1751.002 1740.468 1724.521 1710.871 1699.356 1687.610 1677.657 1672.153 1666.068 1661.177 1658.181 1651.652 1638.240 1626.787 1614.954 1599.601 1583.464 1573.285 1561.510 1557.880 1551.336 1545.455 1538.611 1532.437 1525.496 1521.436 1513.929 1505.762 1499.667 1494.330 1487.690 1477.683 1462.589 1447.951 1436.957 1428.569 1420.516 1409.296 1395.996 1386.384 1383.358 1376.036 1366.806 1355.194 1341.569 1327.166 1313.985 1305.368 1298.263 1274.173 1258.351 1241.912 1227.773 1213.323 1194.622 1178.429 1164.396 1149.427 1133.131 1113.669 1111.464 1120.862 1119.440 1121.399 1120.447 1104.980 1096.300 1087.670 1083.458 1078.678 1075.088 1072.732 1068.490 1057.982 1047.686 1042.437 1037.138 1026.522 1018.813 1009.380 998.055 988.719 978.159 962.089 946.131 931.993 922.769 913.443 905.388 898.904 893.043 891.339 892.107 879.510 867.307 858.137 851.703 844.312 832.598 824.269 817.854 807.286 801.067 794.092 780.837 768.182 752.766 747.994 751.637 736.089 720.659 715.098 705.360 697.752 691.724 684.771 681.991 677.708 673.858 670.218 668.923 666.059 660.461 654.558 646.020 635.536 625.416 618.216 609.010 607.901 607.674 609.110 609.565 610.610 610.816 613.673 612.242 612.460 611.368 609.621 605.180 601.530 600.596 600.310 596.992 592.849 589.505 580.814 574.516 568.379 562.279 556.921 545.753 538.301 534.003 530.400 526.764 523.798 520.762 518.510 518.055 517.586 517.472 514.774 510.772 508.190 503.795 497.854 493.168 489.183 482.864 475.345 467.228 455.643 442.025 431.244 420.502 413.938 412.592 406.827 402.364 394.530 390.001 383.858 376.445 371.859 367.309 365.589 367.709 366.720 367.076 367.276 367.890 368.515 369.200 369.779 374.537 374.955 375.158 375.007 374.416 375.575 377.025 378.107 379.042 380.311 381.820 383.876 384.786 385.867 387.365 389.989 397.648 405.523 409.278 415.166 421.684 426.620 432.744 434.881 438.827 438.402 433.123 436.262 437.453 432.079 430.992 427.310 427.890 432.438 430.383 435.349 439.745 446.064 452.408 457.250 458.695 454.391 454.409 464.215 466.626 476.661 494.670 508.682 518.455 526.787 536.998 547.624 558.879 567.203 574.828 586.488 589.532 591.444 596.361 602.167 607.166 613.101 618.157 621.920 623.445 623.036 623.603 623.938 627.420 636.932 642.623 648.991 653.558 656.200 658.165 657.061 662.104 665.969 671.645 675.060 678.300 675.651 677.986 689.044 697.365 700.724 707.826 716.645 729.221 742.212 752.905 765.970 775.789 788.106 795.518 805.484 813.549 825.913 834.399 847.174 862.049 864.004
1930.115 1939.618 1946.960 1955.091 1966.878 1978.082 1988.413 1998.141 2008.292 2025.975 2043.921 2081.174 2096.264 2104.135 2113.857 2122.211 2144.780 2156.990 2167.663 2171.398 2178.753 2187.321 2182.679 2171.055 2156.906 2147.225 2139.355 2137.871 2126.895 2113.489 2099.701 2052.761 2027.323 2009.555 1995.523 1980.670 1965.612 1949.187 1931.237 1917.460 1901.706 1883.854 1865.261 1851.142 1840.143 1839.629 1828.435 1816.234 1807.029 1796.898 1788.408 1778.485 1768.590 1758.214 1745.814 1727.751 1716.251 1703.274 1690.499 1682.181 1676.825 1670.545 1665.501 1659.051 1649.338 1635.715 1625.775 1615.969 1604.742 1593.162 1577.173 1572.974 1568.088 1562.525 1554.571 1547.424 1539.092 1534.258 1526.495 1522.055 1518.160 1515.394 1508.577 1483.079 1472.678 1456.699 1448.552 1440.371 1429.730 1420.617 1410.399 1398.432 1386.098 1382.501 1375.869 1368.232 1360.789 1346.882 1331.629 1313.906 1299.921 1291.183 1274.446 1258.924 1243.839 1228.574 1213.033 1197.329 1180.888 1164.394 1148.643 1137.030 1123.413 1102.197 1099.677 1105.533 1109.655 1117.082 1108.259 1090.131 1082.771 1078.886 1075.945 1074.353 1071.609 1065.734 1057.405 1046.684 1033.906 1028.366 1020.629 1008.780 1004.259 996.169 987.205 973.900 958.260 943.149 927.066 915.898 908.528 898.749 890.650 887.234 886.297 891.085 883.737 872.815 859.847 854.443 848.021 839.502 823.900 813.942 802.222 792.131 784.572 773.014 760.913 754.528 758.780 755.255 743.071 731.778 721.494 712.288 705.870 700.972 693.746 689.922 684.016 679.774 674.052 672.304 667.987 662.444 654.536 648.602 636.281 627.638 622.730 614.346 614.085 616.107 616.364 615.015 613.530 614.951 617.172 618.114 617.267 615.372 612.276 608.034 607.851 608.678 607.699 605.311 602.775 597.037 586.608 576.029 571.112 564.814 559.195 555.049 544.657 537.162 533.021 528.257 523.819 520.878 518.796 516.740 515.711 515.306 513.854 511.181 508.636 506.824 500.994 494.873 491.361 484.199 477.489 469.275 455.967 443.522 432.802 428.393 430.733 425.126 417.113 410.172 402.047 394.467 389.115 381.173 374.848 368.761 366.550 367.253 367.088 367.056 367.333 368.311 368.723 369.600 370.219 371.248 373.600 373.254 373.480 375.016 375.348 376.310 377.767 379.291 380.418 381.753 383.158 384.480 385.979 388.093 389.665 392.541 398.528 404.673 406.268 415.454 423.243 428.055 432.011 436.534 437.248 430.763 426.922 426.137 421.037 420.814 426.143 430.998 434.637 439.394 446.720 446.227 445.530 443.341 449.937 448.878 455.014 462.587 466.568 469.489 485.410 499.760 509.199 517.111 526.837 538.203 549.859 560.440 569.321 574.079 576.737 584.229 589.263 596.805 601.775 607.049 612.636 617.558 620.835 620.966 621.629 622.450 622.891 626.049 635.879 642.436 647.219 655.755 658.782 659.989 658.657 659.581 663.397 666.124 666.047 671.642 675.655 682.060 690.346 702.344 709.981 714.901 722.266 735.876 749.297 763.049 774.947 786.381 797.188 810.404 821.320 830.539 830.328 834.352 838.425 845.213 852.765
1920.485 1932.820 1938.483 1947.552 1960.894 1972.200 1981.339 1990.906 2000.617 2017.757 2032.160 2059.923 2079.826 2095.157 2101.271 2110.146 2117.724 2134.793 2155.177 2167.063 2170.889 2167.972 2164.047 2161.899 2159.265 2157.537 2155.920 2145.219 2131.837 2120.492 2108.744 2069.868 2035.341 2023.119 2002.227 1988.982 1973.254 1958.165 1938.062 1922.908 1905.873 1891.959 1877.652 1870.171 1862.282 1852.323 1838.688 1829.174 1819.503 1808.937 1799.448 1788.575 1776.496 1760.408 1748.903 1738.491 1726.750 1709.223 1695.966 1688.446 1682.986 1677.063 1670.680 1662.107 1649.981 1637.374 1628.546 1620.458 1607.169 1594.001 1589.619 1585.956 1579.716 1573.453 1564.388 1555.394 1548.156 1539.973 1535.954 1530.715 1525.382 1515.216 1496.452 1476.903 1467.229 1456.044 1454.510 1440.774 1431.036 1417.151 1412.449 1399.985 1388.842 1388.351 1376.864 1368.536 1358.377 1344.268 1329.108 1314.571 1298.604 1283.940 1270.625 1255.864 1241.891 1225.936 1211.674 1198.031 1181.631 1167.956 1154.470 1141.780 1126.809 1113.444 1093.059 1089.281 1092.943 1101.849 1105.556 1093.537 1079.045 1076.334 1074.051 1071.464 1071.099 1065.237 1053.279 1040.667 1031.033 1023.764 1012.341 1001.153 995.293 987.087 975.880 968.671 956.214 941.417 926.459 912.735 901.483 894.894 884.645 880.095 880.240 880.698 884.114 871.603 861.397 849.727 836.777 825.772 816.878 804.644 792.765 785.743 776.141 765.711 764.551 768.884 766.445 758.534 749.643 739.709 727.604 721.545 715.323 708.431 704.151 698.240 690.389 684.741 677.659 673.049 668.282 660.312 654.974 650.152 643.407 632.103 624.911 621.264 621.203 621.712 621.446 620.141 621.584 621.815 624.705 623.040 623.278 618.674 613.252 610.789 613.390 615.224 614.072 613.117 606.563 598.221 585.806 576.750 571.684 567.024 562.057 558.490 550.310 539.732 535.457 533.203 527.953 521.324 518.014 516.495 516.136 515.612 514.025 512.509 511.919 509.147 505.230 494.925 490.622 485.868 480.111 470.688 460.821 451.161 445.929 442.561 442.330 433.789 424.761 416.843 408.185 398.831 390.921 385.708 379.404 372.825 366.559 366.579 367.062 367.079 368.081 368.422 369.287 370.115 370.705 371.504 372.140 373.089 373.716 374.682 375.291 376.198 377.882 379.104 380.353 381.605 382.970 384.553 386.214 387.820 390.273 392.510 394.407 397.871 400.323 407.957 415.006 419.647 426.575 430.781 427.122 418.364 414.419 415.624 421.430 430.505 437.412 440.628 443.401 446.508 450.214 454.137 455.433 453.962 452.471 456.589 460.402 465.143 470.207 478.678 489.377 501.152 505.760 514.996 525.540 538.512 550.672 554.647 557.262 565.351 573.832 587.298 590.671 594.780 598.492 606.042 611.563 615.113 618.764 619.351 620.158 620.953 622.111 626.888 635.110 642.743 646.656 654.161 658.334 659.522 657.203 657.865 658.485 660.085 665.415 670.643 678.224 685.716 696.949 704.330 713.178 722.913 732.698 746.215 758.880 768.757 781.531 795.892 811.084 823.022 816.892 813.135 816.111 818.568 823.054 831.656 845.802
1913.009 1924.460 1932.453 1939.451 1957.728 1963.886 1973.530 1983.286 1994.709 2011.539 2020.898 2031.369 2066.495 2077.539 2084.892 2096.488 2104.975 2124.411 2153.141 2161.837 2159.446 2152.468 2147.229 2147.174 2145.250 2143.230 2138.190 2137.226 2131.618 2119.189 2105.382 2088.747 2057.821 2037.109 2014.560 1997.859 1981.111 1963.677 1947.885 1932.792 1917.867 1902.453 1892.890 1884.691 1873.158 1860.645 1849.571 1839.858 1829.541 1818.623 1808.135 1793.218 1773.804 1761.554 1752.919 1743.348 1730.754 1708.955 1702.082 1697.353 1690.547 1682.436 1672.494 1660.435 1650.696 1639.075 1628.331 1616.324 1608.618 1603.450 1597.292 1591.889 1587.193 1581.278 1573.341 1561.640 1549.092 1546.895 1543.302 1533.422 1518.649 1503.264 1490.195 1477.650 1466.557 1460.851 1447.072 1434.759 1426.943 1416.031 1408.250 1402.204 1392.887 1385.028 1382.053 1370.707 1356.558 1343.475 1327.674 1314.458 1302.163 1286.003 1269.091 1253.988 1235.784 1218.153 1207.075 1193.606 1177.465 1163.910 1149.092 1134.826 1121.288 1113.509 1099.077 1081.401 1079.369 1084.357 1089.269 1094.811 1077.586 1072.479 1071.393 1069.271 1064.708 1059.508 1050.111 1037.581 1029.963 1021.318 1015.788 1009.474 999.672 987.156 973.731 961.659 947.583 935.024 922.362 907.829 895.868 887.911 880.266 874.651 871.815 872.154 874.274 860.178 849.784 840.849 824.976 813.754 804.579 792.763 781.841 776.718 769.595 770.655 773.350 776.265 771.488 764.646 754.373 739.754 734.596 727.517 719.911 712.792 705.900 699.740 694.943 688.163 678.399 671.668 664.891 658.429 655.588 652.198 644.479 632.960 628.543 628.004 627.980 628.646 627.914 627.772 627.196 627.399 627.724 627.568 626.457 621.251 615.857 613.449 614.626 616.451 618.440 614.867 609.129 599.735 585.927 576.314 572.432 570.045 565.968 561.137 556.331 546.374 538.896 535.024 527.814 521.825 519.228 517.052 516.947 516.329 515.130 514.371 513.208 510.023 504.389 498.349 491.312 487.958 483.083 475.422 466.708 459.946 459.492 455.971 450.506 441.506 431.907 422.859 414.614 403.210 395.368 391.343 383.452 375.166 367.297 366.919 367.673 368.052 368.113 368.751 369.582 370.373 370.909 371.626 372.226 372.884 374.207 374.913 376.034 376.636 378.000 379.115 380.616 382.124 383.280 384.872 386.678 388.146 390.349 391.949 394.254 395.680 397.336 401.081 407.093 412.207 420.049 415.612 413.475 409.660 415.767 423.014 430.737 436.480 440.163 444.456 447.726 449.662 453.508 457.173 457.970 458.637 459.528 460.658 464.837 468.966 473.581 480.762 490.197 501.127 509.746 518.597 529.427 538.100 543.957 548.977 559.595 569.049 578.334 589.301 593.573 595.146 601.364 606.815 610.041 613.087 616.639 617.832 618.381 619.531 623.552 628.666 635.271 642.568 646.034 648.611 653.185 654.535 652.532 654.857 655.514 657.070 662.185 669.362 679.615 690.399 699.552 712.640 722.092 731.217 742.503 759.409 766.795 777.412 791.387 805.817 816.004 808.262 797.933 795.690 798.115 804.617 815.371 826.368 837.097
1897.052 1916.417 1922.411 1933.569 1951.079 1955.858 1967.314 1977.233 1988.188 2002.871 2011.028 2020.809 2045.735 2061.981 2070.186 2083.158 2093.415 2131.224 2143.301 2137.414 2143.226 2136.058 2132.657 2134.299 2132.142 2129.413 2125.405 2123.371 2121.763 2112.898 2095.826 2077.949 2054.588 2036.170 2017.812 2004.522 1987.542 1973.209 1958.882 1943.423 1923.894 1916.837 1906.530 1895.495 1882.537 1871.430 1860.900 1850.810 1840.010 1827.476 1810.592 1788.846 1775.583 1764.666 1756.154 1747.363 1734.347 1723.582 1711.195 1702.389 1688.516 1677.565 1668.425 1659.676 1649.312 1638.948 1633.339 1626.111 1618.115 1611.594 1605.884 1601.511 1594.955 1581.772 1566.286 1553.161 1544.595 1539.382 1531.831 1523.953 1510.489 1496.140 1485.045 1480.132 1469.454 1455.492 1442.389 1435.166 1430.523 1419.994 1412.438 1401.577 1394.766 1385.625 1379.141 1371.359 1356.146 1342.331 1325.859 1309.156 1293.985 1281.361 1265.888 1250.218 1234.210 1218.687 1205.236 1191.540 1174.740 1159.856 1145.330 1125.837 1113.109 1101.965 1089.388 1077.970 1066.460 1066.896 1072.590 1081.560 1077.209 1067.344 1068.909 1066.367 1060.224 1062.681 1053.370 1036.353 1020.812 1011.803 1004.572 996.994 989.859 980.446 967.365 954.075 936.880 920.812 912.881 899.515 893.014 883.730 873.003 867.618 864.051 864.609 861.733 851.768 838.807 829.225 818.475 806.386 794.449 799.249 792.541 781.643 778.874 777.481 782.016 780.324 775.404 764.157 756.883 748.618 739.732 734.520 725.403 716.299 708.618 700.660 695.161 687.307 678.193 670.473 664.453 660.179 657.830 654.695 644.952 637.913 633.965 634.215 635.122 634.278 632.739 633.814 633.151 632.312 632.158 631.416 629.263 623.327 618.506 617.736 617.253 618.876 618.976 614.005 608.599 598.690 587.677 575.531 572.911 571.588 567.026 561.359 555.719 550.538 541.930 533.898 529.281 525.032 522.280 519.892 518.552 517.474 516.800 515.781 514.351 509.391 504.275 498.931 493.064 489.917 485.702 482.135 477.152 470.897 467.730 464.363 460.445 450.443 440.793 430.669 419.382 406.069 398.193 392.247 387.819 377.933 369.772 366.366 368.703 368.079 368.463 369.112 369.820 370.540 371.002 371.893 372.729 373.711 374.430 375.507 376.747 377.767 378.776 380.766 380.879 382.559 384.330 385.657 387.150 388.566 390.788 392.365 394.111 395.753 399.674 402.462 403.757 405.341 406.029 403.864 408.875 415.325 421.809 428.732 434.118 438.465 442.250 445.648 450.213 452.574 456.123 460.042 462.074 462.509 463.355 464.906 466.240 472.860 479.450 485.885 494.530 501.850 510.522 514.301 523.390 532.795 539.819 548.168 559.545 570.322 578.854 590.869 592.703 596.441 602.227 604.558 608.359 611.592 614.587 616.288 617.562 622.169 625.852 630.969 637.039 642.853 645.577 647.280 648.024 647.352 645.065 649.560 652.121 655.478 658.714 669.309 682.610 693.745 706.685 718.752 728.490 745.248 768.194 775.030 781.248 793.449 802.056 796.669 795.231 791.196 789.286 791.622 794.106 800.779 811.758 822.306 835.024
1866.588 1904.630 1915.369 1928.597 1944.875 1947.021 1959.845 1969.692 1980.969 1993.076 2001.089 2011.001 2020.195 2049.582 2058.877 2068.262 2080.954 2100.277 2132.414 2123.317 2115.009 2104.837 2118.503 2120.684 2117.740 2116.384 2114.258 2111.485 2110.554 2106.428 2093.206 2075.000 2057.116 2040.626 2024.518 2009.632 1996.044 1978.847 1966.930 1955.552 1945.598 1929.438 1916.559 1904.253 1892.593 1881.806 1870.383 1859.452 1845.413 1830.684 1808.340 1791.655 1779.845 1768.639 1758.485 1748.422 1736.126 1723.957 1712.601 1702.322 1692.925 1684.242 1677.753 1668.843 1658.157 1649.811 1640.222 1632.180 1626.768 1623.474 1618.709 1609.244 1592.443 1576.487 1559.778 1544.662 1534.827 1529.354 1523.019 1517.454 1509.122 1498.613 1489.699 1483.252 1469.763 1461.364 1448.293 1442.785 1433.395 1424.665 1415.639 1405.872 1403.111 1387.277 1377.584 1365.503 1352.827 1341.277 1321.365 1303.636 1291.725 1277.304 1262.839 1246.789 1230.471 1215.621 1202.677 1188.902 1173.335 1157.105 1144.000 1129.718 1119.892 1106.620 1100.503 1085.072 1069.347 1057.750 1057.946 1067.649 1074.325 1062.825 1062.803 1056.208 1053.922 1050.972 1048.149 1034.628 1021.985 1013.199 1000.459 986.353 976.543 970.967 958.230 945.096 930.356 917.208 900.484 894.183 885.499 878.575 870.825 863.261 855.942 853.200 851.726 843.518 830.513 818.877 807.786 818.435 815.774 805.184 792.078 785.900 783.722 785.697 786.622 782.473 770.657 764.415 759.683 750.832 744.724 736.200 728.152 718.692 709.316 700.249 692.630 684.381 676.974 669.984 665.311 663.037 661.233 652.123 647.457 642.867 640.146 638.404 638.120 638.668 638.078 637.587 637.730 637.405 635.844 633.630 630.022 624.347 620.455 618.306 618.805 621.536 620.553 614.108 609.027 601.510 587.320 575.691 572.575 572.351 568.021 561.280 555.102 548.977 544.604 538.073 533.589 531.370 526.545 523.738 520.651 519.249 518.161 516.784 514.144 509.576 505.552 500.033 495.584 492.436 489.883 486.534 483.349 477.466 472.757 469.456 463.122 453.495 442.852 433.411 420.077 408.792 399.403 392.803 386.730 382.543 376.365 367.452 367.383 368.399 369.047 369.474 370.049 371.095 371.921 372.411 373.080 373.714 374.986 376.136 377.109 378.282 379.548 380.634 381.642 382.911 384.567 386.240 387.912 389.284 391.338 392.459 394.764 398.674 399.190 399.222 400.919 400.816 404.516 411.984 418.522 423.118 427.936 433.095 438.043 442.304 446.031 448.176 451.958 455.151 456.202 463.520 466.426 467.894 467.837 469.257 469.079 474.082 480.532 486.502 495.773 502.478 508.394 514.213 522.624 530.404 537.920 548.709 558.871 568.474 575.999 590.721 590.903 597.359 601.294 604.815 605.571 607.525 610.359 611.493 617.055 625.972 627.471 632.931 637.061 641.454 644.896 646.990 645.190 642.868 643.612 645.785 647.766 648.307 657.799 669.598 686.819 698.888 723.893 741.220 751.166 761.913 771.799 784.819 797.539 796.150 787.256 780.901 779.726 780.952 781.878 786.688 791.997 801.603 813.974 826.355 841.763
1853.158 1894.705 1910.905 1928.899 1938.372 1939.315 1952.481 1961.323 1972.829 1985.927 1992.567 2002.722 2011.088 2042.991 2048.799 2060.451 2072.080 2089.772 2122.185 2114.135 2095.362 2085.468 2092.656 2094.135 2094.589 2101.139 2099.782 2098.968 2095.772 2096.484 2089.859 2076.756 2061.295 2046.459 2031.625 2015.297 2006.915 1996.087 1991.039 1981.886 1961.915 1940.896 1928.619 1917.107 1904.345 1892.843 1879.933 1865.396 1841.436 1824.859 1809.771 1797.156 1784.637 1773.093 1761.544 1749.350 1736.944 1725.898 1717.735 1713.605 1704.591 1695.618 1682.702 1665.201 1654.104 1644.357 1635.632 1627.121 1620.272 1615.377 1613.237 1601.819 1589.109 1571.658 1553.925 1540.411 1531.042 1523.555 1518.949 1514.303 1508.740 1502.256 1495.491 1486.562 1475.590 1468.290 1454.332 1447.127 1438.465 1426.529 1418.409 1407.856 1400.934 1385.932 1376.269 1364.507 1353.601 1337.442 1320.966 1303.700 1289.589 1275.577 1261.445 1244.623 1226.394 1211.579 1198.382 1184.549 1171.881 1159.227 1146.642 1134.810 1126.058 1119.400 1104.756 1089.859 1074.859 1064.073 1053.253 1053.939 1059.523 1057.070 1050.409 1046.154 1045.784 1040.338 1041.961 1031.818 1017.209 1002.811 989.052 976.674 966.386 958.190 948.097 934.020 918.288 907.905 901.539 891.307 881.983 871.291 862.649 853.933 848.094 843.847 839.482 832.441 825.402 817.821 828.217 821.958 810.161 800.612 795.254 791.230 790.022 792.105 793.229 784.838 773.769 767.543 762.288 755.526 747.085 737.307 728.021 721.137 709.858 702.933 695.721 684.447 676.210 675.136 672.208 666.724 661.508 654.313 651.090 649.229 646.062 643.581 642.631 644.769 643.767 645.075 642.352 640.815 638.712 634.063 629.307 624.439 621.205 619.472 620.512 618.626 618.179 616.317 609.202 600.402 589.337 576.205 572.792 572.461 568.798 562.323 555.885 548.833 543.761 540.362 536.208 533.657 530.149 526.256 525.441 524.009 522.769 519.886 515.558 510.715 508.079 503.329 499.869 496.185 494.572 492.587 488.930 481.734 474.713 468.684 461.961 451.316 442.662 433.517 420.790 411.518 400.671 393.316 388.084 385.299 377.803 368.668 367.198 368.982 369.717 369.914 370.596 371.317 371.984 372.837 373.438 374.443 375.338 376.583 377.450 378.541 379.766 380.682 382.205 383.310 384.260 386.478 388.259 390.485 391.984 394.446 396.261 395.771 396.547 397.916 397.986 402.577 407.233 415.010 420.991 425.438 429.137 434.331 440.065 444.660 446.924 449.888 453.447 456.978 457.659 463.115 467.661 470.909 472.792 476.287 479.348 479.263 483.893 490.376 494.178 501.239 505.993 514.111 522.316 531.196 539.991 547.866 558.870 567.370 578.135 589.194 587.975 595.589 599.233 600.432 601.792 604.866 607.287 610.115 618.557 621.308 627.632 633.857 638.833 640.881 642.653 644.712 643.183 640.844 641.966 643.809 645.027 649.092 658.180 670.260 691.733 708.424 725.716 739.202 755.196 764.336 770.336 782.318 782.003 780.569 772.821 766.827 765.360 771.072 771.094 777.704 788.984 803.730 817.373 834.913 847.155
1848.528 1890.083 1903.055 1922.492 1931.534 1933.375 1943.783 1954.259 1964.159 1979.665 1984.947 1993.846 2001.389 2012.352 2044.383 2051.909 2059.885 2080.430 2102.498 2084.728 2076.255 2069.019 2071.920 2065.331 2077.568 2081.157 2087.354 2086.809 2082.922 2078.745 2083.705 2076.622 2063.094 2051.322 2039.971 2030.455 2027.061 2018.738 2010.922 1983.255 1971.632 1953.172 1939.547 1926.495 1912.612 1899.871 1884.707 1867.017 1849.279 1831.688 1817.428 1802.479 1789.955 1777.719 1765.619 1754.654 1744.320 1734.852 1728.552 1723.037 1714.426 1701.160 1679.132 1665.371 1654.958 1645.148 1638.562 1626.149 1616.872 1615.147 1613.139 1602.704 1585.915 1570.345 1555.578 1541.052 1531.858 1525.183 1521.421 1514.754 1514.146 1509.568 1502.340 1493.608 1483.412 1472.402 1462.813 1448.486 1441.561 1428.405 1418.040 1406.594 1398.305 1390.068 1378.206 1370.951 1355.864 1336.248 1319.620 1303.960 1289.849 1276.111 1259.970 1245.028 1224.650 1210.707 1195.475 1183.069 1168.078 1157.116 1145.630 1130.953 1117.506 1107.901 1101.367 1095.094 1082.091 1067.934 1052.468 1047.015 1049.605 1049.562 1041.425 1034.285 1038.189 1031.640 1027.647 1031.577 1025.817 1011.225 995.884 982.486 968.849 954.807 942.822 933.220 926.184 919.933 904.980 893.357 882.118 869.123 872.699 860.774 848.653 841.140 836.156 826.807 821.215 822.040 832.348 816.068 806.813 802.237 797.437 795.472 796.375 799.054 801.080 788.357 778.646 772.997 765.931 759.384 749.617 739.176 727.639 721.049 714.781 706.144 699.334 691.306 685.206 676.785 673.373 668.945 666.319 661.441 660.444 657.056 653.107 648.690 649.661 651.007 653.046 651.624 649.349 644.940 640.738 636.718 631.319 626.121 620.349 617.379 619.074 617.268 615.681 611.839 606.376 598.658 590.222 578.122 572.746 572.353 568.894 563.926 558.497 550.130 543.815 538.882 537.347 535.944 533.306 530.594 528.495 527.246 526.948 523.853 516.826 511.224 510.155 507.285 500.817 497.738 496.276 493.598 490.262 482.449 473.944 465.806 458.144 450.356 443.084 433.099 424.729 414.675 402.253 394.007 392.555 386.036 384.050 374.619 367.522 368.168 369.671 370.533 371.044 371.796 372.467 373.330 373.850 374.700 375.648 376.892 377.999 378.736 380.133 381.311 382.617 383.787 385.061 386.185 388.518 392.022 393.220 392.901 393.680 394.366 393.773 397.329 400.198 403.625 412.858 419.432 424.784 427.648 432.208 437.561 440.731 444.435 447.834 451.129 453.397 457.225 458.048 461.780 467.393 470.523 472.506 474.274 478.884 479.713 481.742 486.567 492.577 497.948 503.903 509.817 517.940 526.268 535.459 546.287 557.522 568.544 581.800 582.746 583.739 591.204 596.250 598.007 599.265 601.661 604.192 610.680 615.963 615.992 618.240 632.155 635.934 638.886 639.850 642.425 640.627 639.479 640.882 640.044 649.266 656.520 660.888 672.082 697.112 714.073 726.878 740.182 754.281 759.248 766.809 766.470 764.702 765.021 760.226 759.624 758.019 764.158 770.204 777.720 789.658 806.875 820.371 833.275 846.559
1842.648 1884.295 1899.455 1916.357 1925.980 1929.277 1940.144 1950.111 1958.988 1973.755 1979.072 1983.982 1992.714 2001.277 2036.674 2041.468 2047.604 2073.880 2084.286 2063.894 2058.469 2051.896 2050.258 2047.780 2041.488 2042.801 2051.624 2073.074 2067.294 2064.033 2065.529 2067.537 2070.794 2062.083 2056.432 2048.436 2041.826 2039.125 2018.292 2001.073 1993.454 1966.185 1949.761 1936.258 1922.408 1909.019 1893.325 1876.575 1856.909 1837.332 1821.105 1805.826 1791.444 1777.063 1762.246 1751.810 1744.298 1738.321 1732.444 1724.334 1714.037 1698.058 1675.733 1661.490 1652.657 1642.524 1632.385 1621.086 1617.961 1615.617 1612.039 1600.274 1585.677 1571.372 1558.863 1544.296 1534.138 1530.823 1528.956 1523.981 1518.832 1513.885 1508.975 1500.459 1489.021 1476.478 1467.062 1452.578 1441.027 1427.189 1417.776 1408.565 1398.796 1390.629 1378.856 1367.220 1355.291 1342.582 1323.828 1307.007 1292.569 1275.791 1260.112 1242.631 1226.758 1211.355 1197.074 1184.400 1170.759 1157.631 1142.657 1129.308 1120.507 1109.686 1098.426 1087.399 1078.014 1065.206 1052.531 1047.690 1034.279 1035.641 1037.538 1026.341 1025.707 1024.136 1017.374 1014.561 1015.775 1005.708 997.125 989.522 976.617 963.180 953.377 949.238 941.253 926.571 912.830 893.895 882.831 868.473 876.286 867.038 860.209 849.734 841.205 840.426 839.794 840.706 828.231 814.789 808.373 806.933 804.181 800.802 800.793 803.373 800.671 795.570 787.328 780.258 773.204 766.254 755.644 743.603 736.393 728.013 717.625 709.143 705.505 699.995 695.394 686.526 679.501 677.968 676.232 669.727 666.605 663.667 659.312 656.453 658.106 659.030 661.069 657.663 650.826 647.407 644.951 639.495 632.827 625.875 620.982 615.955 615.655 613.384 610.594 606.052 600.432 594.749 588.733 579.139 574.139 572.626 570.248 565.449 560.253 552.035 545.405 539.245 537.810 536.768 535.889 534.229 532.072 529.031 528.441 526.036 521.523 515.968 512.188 509.492 505.094 499.182 496.477 495.361 491.781 481.584 472.030 464.299 456.140 451.097 443.261 432.350 426.109 413.485 402.760 394.734 392.230 387.749 386.620 376.699 368.628 367.806 369.715 370.878 371.403 372.214 373.075 373.922 374.769 375.670 376.521 377.323 378.940 380.063 380.859 382.317 383.333 384.296 385.666 386.740 390.479 389.832 390.785 392.315 390.815 394.177 397.448 402.069 406.795 409.659 417.254 423.326 426.251 427.942 431.438 436.257 440.696 443.641 444.576 448.315 451.692 454.235 458.786 464.242 465.301 468.682 470.941 474.021 476.828 479.612 481.977 484.358 490.696 499.629 504.770 510.469 518.666 527.522 538.243 548.508 558.107 571.015 575.416 579.954 580.136 585.332 592.316 593.987 594.154 596.334 599.283 606.761 610.674 611.925 615.862 627.259 633.751 636.266 638.059 639.141 640.415 637.795 638.496 643.118 649.291 659.472 668.155 677.985 693.865 708.746 722.880 738.945 749.593 750.522 751.693 750.900 750.399 747.715 751.738 754.385 754.863 761.119 769.754 778.208 792.681 805.098 816.245 831.549 842.092
1836.549 1869.877 1893.336 1905.164 1912.908 1920.770 1933.959 1944.242 1953.248 1965.607 1973.231 1976.852 1982.145 1989.104 2014.889 2031.101 2040.082 2068.797 2057.719 2048.384 2043.292 2037.206 2033.085 2030.256 2028.251 2026.174 2025.292 2049.609 2046.863 2047.166 2046.095 2054.753 2064.843 2071.750 2078.800 2072.323 2055.007 2040.221 2024.929 2005.730 1988.598 1973.199 1959.390 1946.259 1930.160 1915.152 1898.849 1880.610 1860.621 1842.203 1824.331 1807.702 1787.365 1771.946 1757.185 1744.603 1736.352 1730.586 1725.045 1715.312 1705.646 1692.667 1672.706 1655.509 1647.971 1639.514 1629.250 1623.522 1620.858 1617.692 1609.087 1602.628 1588.241 1574.044 1563.674 1548.773 1535.696 1536.849 1537.057 1533.199 1525.894 1516.211 1511.576 1503.950 1493.026 1476.405 1466.855 1451.433 1438.615 1421.607 1409.687 1404.033 1396.428 1387.218 1376.202 1368.075 1349.582 1339.305 1326.475 1312.957 1295.841 1278.077 1259.344 1241.147 1225.173 1209.896 1195.787 1183.052 1170.730 1157.320 1143.288 1131.047 1118.645 1107.551 1095.738 1086.523 1079.225 1068.224 1055.050 1043.799 1035.732 1024.182 1021.876 1019.309 1016.934 1013.680 1010.837 1006.795 1000.111 997.792 983.816 975.537 968.924 971.033 964.495 950.414 936.990 924.716 908.477 894.641 882.908 882.370 884.149 875.633 866.895 860.627 854.122 855.802 852.555 837.392 822.348 815.869 815.457 813.435 807.484 803.633 803.666 804.222 803.564 801.097 795.771 790.955 780.037 771.247 762.102 754.050 744.904 735.584 725.936 719.424 714.474 711.327 703.549 697.414 691.801 691.764 687.076 681.291 676.338 669.500 668.081 665.251 665.972 666.053 665.499 661.991 656.570 654.422 649.446 642.052 635.202 627.032 618.818 613.885 614.472 608.104 602.780 598.358 593.281 588.705 583.052 576.233 571.143 570.371 569.366 565.557 560.446 552.406 545.054 541.167 539.051 538.434 538.200 538.887 536.269 532.109 528.220 526.975 524.788 520.976 514.840 512.941 506.026 500.643 496.674 494.135 489.003 479.660 470.734 463.505 455.847 451.365 441.930 432.782 425.441 412.542 403.048 398.435 392.574 390.285 388.640 379.232 368.394 368.097 368.695 370.252 371.938 372.325 373.200 373.953 374.779 375.937 377.030 377.977 379.054 379.988 381.372 381.513 382.436 384.231 385.274 385.528 385.933 387.350 389.843 392.422 394.202 398.687 407.538 410.827 414.538 416.853 417.803 423.228 425.424 428.344 433.513 440.159 440.348 442.256 444.502 448.484 450.206 452.052 459.649 464.100 467.298 470.820 473.638 476.901 483.856 482.664 482.254 484.646 491.548 498.557 505.464 515.110 521.273 528.646 537.694 548.303 559.840 567.041 574.223 580.705 580.325 582.580 587.962 589.662 589.705 591.033 594.438 600.160 606.201 608.252 611.477 618.675 628.676 630.621 634.919 637.522 637.393 635.216 635.502 639.650 650.446 660.215 666.881 683.485 699.772 713.417 727.000 736.029 736.422 733.873 737.574 736.219 735.383 737.573 745.817 748.861 756.728 764.491 771.907 781.463 793.637 804.209 813.322 824.636 834.024
1835.812 1860.075 1886.704 1895.428 1901.484 1909.390 1926.260 1937.913 1947.460 1957.766 1967.775 1969.606 1971.052 1979.736 1988.690 2017.938 2028.924 2055.235 2041.160 2034.400 2029.428 2024.037 2020.463 2016.162 2013.505 2010.972 2009.387 2008.222 2020.229 2025.263 2035.157 2044.013 2054.062 2060.352 2073.032 2076.230 2058.705 2045.124 2029.628 2015.283 1998.760 1983.621 1965.590 1948.705 1928.748 1913.052 1897.972 1879.960 1862.089 1841.506 1822.453 1800.494 1781.273 1765.865 1751.494 1739.660 1729.462 1723.264 1717.996 1707.771 1697.703 1685.782 1667.342 1650.662 1642.602 1633.506 1629.116 1624.503 1626.598 1616.835 1612.130 1603.528 1594.311 1576.066 1566.135 1549.850 1539.268 1540.192 1538.248 1536.923 1531.724 1521.667 1513.297 1504.930 1490.099 1472.763 1459.625 1447.668 1433.770 1416.006 1405.416 1401.420 1389.824 1385.374 1372.174 1365.312 1350.187 1337.201 1325.574 1311.028 1295.823 1278.973 1259.459 1241.370 1224.019 1209.521 1195.432 1183.187 1169.603 1154.693 1140.111 1128.176 1118.206 1107.467 1097.756 1089.542 1075.348 1063.272 1052.531 1041.551 1032.227 1027.742 1012.907 1006.709 1005.789 1005.435 1000.729 999.747 992.088 985.276 974.307 968.316 963.998 959.413 952.943 945.994 939.107 920.151 903.152 895.284 883.397 884.462 901.011 889.847 882.265 875.149 867.956 853.876 843.087 832.675 825.809 822.358 819.860 814.703 808.603 805.341 805.425 806.433 805.236 803.997 802.863 794.968 787.256 777.581 766.232 759.467 752.667 745.028 738.212 732.225 726.600 721.209 712.461 705.897 704.125 702.314 696.954 688.741 682.908 677.648 674.519 675.639 676.352 675.685 672.720 666.934 661.860 658.998 653.043 645.258 636.198 626.517 619.603 614.201 611.050 603.761 598.052 593.803 587.363 581.905 578.411 574.327 570.488 568.858 566.714 565.753 560.063 553.787 546.771 543.291 541.450 540.087 539.938 541.437 538.855 535.638 529.328 527.883 525.378 525.572 518.229 512.641 506.255 500.409 495.902 491.596 485.634 476.770 467.928 461.624 454.811 446.874 436.648 430.882 420.254 411.157 402.992 396.420 394.444 391.998 388.743 380.460 368.884 369.728 368.257 370.863 371.801 372.472 373.014 373.944 374.862 375.527 376.386 377.590 375.289 376.186 377.462 380.437 382.598 383.802 385.466 386.213 387.695 388.852 393.279 392.371 397.251 402.594 408.511 411.858 416.096 417.955 422.127 421.397 425.524 432.933 439.024 445.033 444.390 443.437 446.438 447.530 448.572 449.878 458.441 462.614 466.560 469.327 478.088 482.953 486.724 485.268 484.265 488.751 494.290 500.411 507.409 514.808 522.638 531.857 541.095 553.345 557.236 566.853 575.686 578.656 579.784 580.733 583.217 585.432 587.430 586.412 586.911 591.759 599.906 602.379 607.852 612.623 617.130 628.112 631.091 634.409 635.853 628.621 634.265 641.261 651.778 660.411 668.697 684.772 701.993 717.851 723.769 720.028 721.088 722.882 724.491 726.526 729.940 733.196 740.575 748.466 756.092 766.266 776.534 784.599 792.971 802.119 811.794 823.770 832.539
1826.614 1858.882 1876.577 1885.805 1891.056 1901.553 1920.109 1934.872 1941.705 1950.633 1962.421 1963.632 1964.402 1971.559 1979.430 2009.476 2031.845 2043.086 2029.085 2021.915 2015.945 2010.821 2007.467 2004.249 1999.165 1995.546 1995.224 1994.505 1994.539 2005.279 2023.985 2039.510 2043.999 2051.533 2059.470 2073.705 2062.129 2044.909 2030.474 2016.122 2001.639 1986.199 1970.415 1948.658 1927.231 1908.549 1890.680 1873.980 1857.498 1842.231 1820.206 1800.241 1781.679 1764.658 1752.819 1740.539 1729.885 1723.713 1716.405 1703.037 1694.308 1684.034 1670.212 1651.850 1640.968 1632.437 1624.277 1619.756 1619.503 1612.417 1609.480 1603.217 1590.766 1575.614 1565.216 1549.182 1540.662 1542.812 1541.007 1538.368 1536.134 1525.735 1512.496 1498.859 1483.075 1469.510 1456.141 1438.213 1422.076 1408.859 1400.511 1395.482 1385.083 1379.316 1369.484 1362.035 1346.184 1334.339 1323.950 1310.337 1293.287 1278.815 1262.420 1245.785 1226.734 1206.789 1191.894 1179.486 1167.020 1154.917 1144.968 1133.122 1121.819 1111.913 1098.343 1086.347 1077.120 1069.016 1058.526 1051.529 1043.392 1038.725 1022.558 1007.920 999.380 998.265 997.208 994.824 989.625 975.609 969.600 961.302 957.605 954.318 952.644 943.426 931.849 916.630 902.366 894.757 885.061 893.345 898.266 887.984 877.390 868.773 856.051 846.717 842.878 840.587 836.039 828.254 821.623 814.657 810.323 808.096 808.929 808.520 807.974 809.374 806.305 798.201 789.180 781.206 772.994 767.693 759.628 753.172 746.987 741.403 734.112 728.406 719.472 715.108 712.274 707.739 704.509 697.272 690.688 685.766 683.980 685.917 685.844 680.951 676.223 671.216 668.406 662.185 655.954 646.935 635.714 623.749 619.444 611.980 605.467 600.824 599.089 597.057 593.398 587.457 580.476 578.063 572.174 566.211 563.257 562.228 559.871 555.146 547.353 544.214 541.499 540.477 540.384 541.024 540.230 536.038 529.468 528.650 526.300 526.434 522.557 513.435 506.369 500.828 496.843 490.993 484.455 473.758 465.087 458.257 450.867 441.698 433.960 427.720 418.827 411.386 403.762 396.910 395.662 391.420 387.781 382.192 370.776 369.894 369.169 368.422 369.940 370.612 372.385 371.709 373.845 375.430 376.711 377.721 378.485 379.305 380.442 381.391 382.642 383.572 384.856 386.100 387.299 388.216 389.522 393.844 401.013 406.712 409.928 413.427 416.517 420.309 423.533 426.485 429.381 432.721 442.363 446.125 445.340 448.731 448.975 447.542 448.444 449.318 451.640 460.046 463.795 471.520 475.946 481.907 486.963 487.646 489.684 491.984 496.124 500.230 506.310 515.447 524.644 532.114 542.139 549.183 558.279 570.637 576.294 577.816 579.107 578.733 578.886 578.950 581.509 582.927 584.872 588.791 596.272 597.314 602.508 610.060 615.820 622.451 624.906 627.430 625.488 632.590 636.333 645.177 652.761 663.592 674.505 691.109 707.160 719.321 708.674 707.060 708.718 710.260 717.825 722.527 726.516 729.827 737.607 750.250 761.447 772.005 782.071 790.341 796.786 802.816 811.744 826.743 839.869
1818.239 1846.959 1868.448 1877.330 1882.412 1894.375 1911.484 1925.519 1935.420 1943.271 1953.529 1958.533 1958.605 1963.174 1969.227 1993.431 2019.194 2033.591 2018.281 2010.743 2004.655 1998.568 1995.944 1992.598 1987.138 1982.376 1981.712 1981.431 1981.727 1989.768 2016.963 2027.616 2034.450 2039.882 2049.645 2061.590 2063.181 2046.069 2032.372 2018.281 2004.274 1977.306 1958.385 1937.274 1922.471 1899.670 1886.813 1866.010 1848.059 1831.072 1816.244 1795.458 1778.229 1763.392 1751.681 1740.182 1728.394 1720.614 1713.020 1702.208 1693.612 1684.163 1671.791 1652.999 1641.826 1633.613 1626.941 1619.676 1616.854 1612.599 1606.521 1599.271 1586.106 1572.635 1561.690 1549.089 1544.577 1539.949 1538.095 1534.535 1529.021 1517.348 1502.970 1489.899 1477.625 1464.861 1451.555 1434.656 1418.093 1405.929 1395.996 1384.365 1376.417 1367.219 1359.601 1348.101 1335.976 1332.729 1324.152 1306.090 1290.662 1273.299 1254.475 1239.540 1223.834 1205.050 1189.297 1175.986 1163.432 1148.762 1135.402 1123.002 1112.094 1101.329 1091.372 1081.480 1072.318 1064.948 1055.623 1051.313 1047.049 1041.134 1034.427 1021.008 1004.031 992.007 988.998 989.818 981.600 972.730 956.482 953.026 947.858 941.792 939.905 932.143 922.599 912.480 896.903 894.412 893.675 892.211 883.076 875.290 868.771 863.718 857.036 850.110 847.199 845.002 840.565 830.767 822.587 816.953 813.251 812.897 813.535 812.190 812.265 810.122 805.679 799.285 795.373 786.711 781.181 775.521 769.226 760.437 754.750 747.754 740.811 734.390 729.828 725.691 719.365 715.149 709.234 702.070 696.596 694.569 697.089 694.570 690.316 686.464 680.384 676.930 672.652 665.422 657.272 647.965 634.941 626.091 620.255 611.603 607.292 605.047 604.719 602.832 601.544 597.776 589.951 583.112 575.349 569.682 565.369 563.868 559.579 553.040 550.051 548.707 542.679 540.488 540.585 541.275 540.006 533.786 529.401 528.099 527.208 526.280 524.282 513.638 507.202 498.853 494.747 489.910 481.463 469.530 459.916 451.298 442.675 436.425 431.441 425.405 418.221 410.918 403.738 398.971 395.465 391.006 387.814 383.299 378.389 369.787 370.370 368.934 370.313 372.683 373.354 373.842 374.930 375.693 376.700 377.721 378.431 379.288 380.182 381.253 382.360 383.605 384.534 385.215 386.747 387.756 389.756 393.640 403.232 407.096 412.904 415.043 418.528 421.713 423.404 427.977 430.710 433.730 443.354 445.393 445.359 452.005 451.785 453.776 452.138 450.392 451.461 458.642 464.239 469.832 474.669 480.854 487.007 488.964 492.800 492.546 497.942 504.129 510.116 519.735 528.481 536.519 544.587 551.322 561.317 568.904 574.584 576.540 578.511 577.596 576.466 576.013 580.496 581.233 583.496 587.789 593.710 597.735 602.086 606.818 610.133 613.450 620.047 617.434 623.788 632.810 638.726 646.626 654.126 664.239 675.888 695.541 706.200 704.978 701.977 703.772 705.865 710.629 716.557 721.388 725.326 731.036 739.649 750.955 761.815 770.255 778.872 788.551 801.203 809.253 816.362 829.209 842.732
1812.373 1838.851 1859.631 1871.168 1875.580 1889.231 1903.069 1923.893 1932.074 1937.767 1945.671 1954.707 1953.801 1956.440 1962.685 1975.373 2009.026 2012.087 2005.771 2000.178 1994.127 1986.907 1983.922 1981.422 1975.281 1970.437 1969.044 1969.294 1970.846 1977.877 2005.241 2010.492 2026.580 2029.999 2038.963 2049.836 2060.421 2052.856 2037.918 2021.233 2006.312 1979.037 1943.746 1926.356 1912.674 1897.137 1882.494 1863.124 1847.296 1828.479 1809.085 1793.374 1776.721 1764.865 1753.608 1741.664 1727.639 1719.328 1710.588 1702.518 1693.289 1683.827 1670.207 1650.590 1642.786 1635.957 1626.167 1619.869 1617.631 1612.761 1605.699 1595.477 1584.457 1574.541 1562.688 1552.033 1541.038 1534.214 1529.688 1524.361 1517.607 1507.779 1494.678 1484.467 1473.926 1460.627 1449.115 1434.774 1419.305 1406.163 1392.103 1379.989 1368.003 1358.441 1353.948 1345.523 1333.613 1322.416 1313.349 1302.916 1285.249 1266.903 1249.978 1234.718 1221.818 1205.471 1190.529 1175.202 1162.087 1146.450 1134.061 1122.683 1113.601 1101.327 1090.765 1077.015 1067.918 1059.824 1053.052 1048.141 1040.994 1034.350 1030.069 1026.948 1013.652 1000.645 984.787 976.802 971.047 963.564 952.896 947.633 944.056 937.009 929.074 917.076 908.358 906.133 904.265 902.587 892.874 884.711 880.859 878.112 872.511 865.628 858.947 852.370 848.711 845.129 839.756 833.581 825.187 820.289 818.007 819.095 817.990 817.613 814.710 812.029 809.066 804.581 800.195 793.976 791.084 784.735 779.062 770.614 762.305 754.523 748.092 743.120 739.307 735.010 727.203 721.917 716.297 708.585 702.793 699.811 701.405 700.768 693.859 691.014 687.678 682.710 674.287 666.685 657.208 645.727 633.543 630.248 623.986 618.895 613.510 609.165 608.875 609.202 606.733 601.786 597.377 593.427 580.581 574.778 570.910 566.277 562.838 555.267 554.758 552.673 547.235 540.520 541.020 541.128 538.702 532.613 531.604 529.824 527.862 526.616 526.535 517.293 508.488 500.815 494.729 486.855 476.312 465.268 452.688 445.225 437.579 432.753 427.637 425.554 418.043 411.695 405.073 400.325 395.544 391.406 386.746 384.365 384.258 375.829 371.206 371.643 368.936 372.910 373.380 374.181 374.746 375.601 376.063 377.107 377.928 378.841 379.685 380.843 382.000 383.094 383.554 384.770 385.914 386.824 389.360 396.990 402.860 406.102 412.845 416.940 419.967 422.239 425.251 428.419 430.446 433.200 440.255 444.461 446.466 451.229 454.332 458.318 458.051 456.102 456.333 458.014 461.271 464.221 471.148 477.991 486.748 489.512 492.912 494.714 498.841 505.080 513.631 521.950 530.729 540.663 545.246 551.927 558.875 566.670 573.637 576.557 575.319 574.901 572.959 572.271 575.890 579.302 580.777 587.413 594.825 598.939 602.823 603.303 609.455 610.127 616.041 619.217 626.850 634.567 639.848 648.105 656.764 666.721 679.144 695.547 692.894 691.705 695.645 701.926 704.060 709.479 713.719 718.509 726.400 736.757 743.906 752.803 762.183 773.483 783.657 795.334 808.642 821.264 829.171 835.654 838.702
1805.485 1823.259 1852.229 1861.810 1868.462 1882.280 1893.388 1909.400 1926.501 1928.219 1938.382 1941.817 1948.374 1955.893 1956.116 1966.273 1980.357 1988.619 1991.372 1990.579 1985.352 1977.508 1972.058 1969.426 1964.516 1960.136 1957.598 1958.404 1961.315 1968.830 1986.086 1999.675 2011.894 2020.174 2031.338 2042.524 2051.452 2050.260 2036.147 2005.460 1983.534 1964.884 1927.055 1917.696 1906.285 1891.997 1880.075 1866.769 1840.413 1823.690 1809.738 1793.710 1777.701 1762.990 1752.367 1741.883 1730.476 1719.297 1712.356 1703.186 1693.424 1682.207 1665.486 1652.875 1641.628 1634.658 1626.704 1619.568 1615.260 1610.208 1601.600 1593.598 1583.959 1576.578 1566.939 1557.016 1546.073 1530.903 1523.168 1518.022 1510.325 1503.085 1490.363 1481.480 1469.994 1459.104 1447.354 1434.705 1421.379 1407.114 1390.441 1374.919 1364.524 1353.291 1347.398 1337.582 1326.232 1313.186 1313.581 1295.453 1281.557 1266.068 1247.190 1230.606 1213.182 1201.632 1187.838 1175.544 1159.750 1143.934 1133.454 1122.245 1110.103 1097.817 1085.617 1075.327 1066.652 1059.029 1052.112 1045.509 1038.754 1032.873 1027.540 1022.357 1018.150 1008.557 998.147 989.601 983.710 977.030 968.435 961.364 957.107 948.385 938.380 929.588 921.583 912.575 907.408 902.138 890.268 887.218 881.160 876.720 873.497 865.498 858.473 852.719 848.399 842.665 839.277 831.817 825.614 822.814 822.943 821.993 821.173 820.281 817.972 814.019 813.056 808.550 803.955 801.865 797.479 792.166 787.030 779.186 772.301 764.703 759.647 751.744 745.097 739.524 731.461 726.491 720.107 714.062 709.722 705.126 703.056 701.929 697.605 695.082 689.767 684.347 675.440 669.879 658.126 645.246 636.652 631.006 628.355 622.957 620.600 615.164 612.811 613.202 611.492 605.605 603.285 599.622 587.986 580.465 575.201 570.177 565.960 557.105 556.859 554.002 547.408 541.334 542.032 542.979 538.762 535.568 534.306 531.818 528.671 528.023 529.494 519.641 510.157 501.112 495.659 482.569 470.291 462.163 450.004 441.984 437.585 430.968 428.018 425.052 419.213 413.932 408.413 403.131 395.963 393.827 387.254 385.328 383.613 383.582 370.742 370.934 369.607 369.566 373.355 374.050 374.854 375.404 375.828 376.844 377.502 378.392 379.338 380.326 381.270 382.196 382.982 383.759 385.144 388.786 391.573 398.250 402.720 405.624 411.708 415.785 419.504 424.642 427.793 430.087 434.108 434.732 440.601 443.882 447.096 451.140 456.648 460.177 461.314 462.555 465.051 466.626 465.463 469.400 474.384 479.526 485.919 490.206 492.705 495.204 502.675 507.470 517.096 525.167 531.357 538.377 543.041 548.595 555.607 565.972 573.558 577.913 573.630 572.570 570.024 569.315 572.375 577.405 579.010 585.246 593.330 597.474 594.749 596.659 602.026 605.162 617.015 621.608 630.661 637.226 649.852 654.837 664.852 679.966 686.599 684.208 682.224 687.920 691.855 698.007 700.798 701.127 706.761 720.274 731.225 737.640 748.455 760.891 768.099 779.668 790.587 803.597 816.655 829.622 827.682 823.212 828.757
1803.529 1821.690 1849.356 1857.905 1860.866 1874.891 1885.735 1895.223 1909.410 1913.972 1922.171 1925.463 1934.017 1944.969 1953.701 1961.070 1968.883 1973.272 1974.607 1971.568 1977.724 1968.064 1961.254 1956.233 1953.434 1949.799 1947.530 1948.483 1950.904 1959.202 1976.884 1992.799 2000.346 2010.249 2021.044 2032.061 2043.564 2039.105 2015.849 1989.700 1967.501 1942.854 1918.417 1906.135 1898.313 1887.022 1875.896 1853.061 1835.863 1820.351 1804.855 1792.122 1781.275 1763.277 1752.015 1744.234 1730.365 1718.789 1710.717 1703.415 1693.729 1680.211 1663.325 1648.613 1640.735 1634.458 1627.185 1617.283 1612.359 1604.835 1596.468 1589.546 1583.288 1576.512 1568.647 1557.394 1546.418 1531.896 1515.600 1508.420 1500.249 1493.125 1481.150 1472.984 1463.548 1457.200 1444.827 1430.378 1419.702 1407.119 1390.966 1375.482 1361.191 1346.157 1334.969 1324.803 1315.067 1309.374 1298.874 1288.032 1276.102 1263.263 1247.192 1230.524 1212.063 1198.422 1185.026 1172.414 1160.716 1147.692 1132.696 1121.673 1109.920 1093.563 1085.042 1077.582 1065.500 1057.893 1049.707 1042.347 1036.231 1031.914 1026.921 1023.609 1019.199 1015.829 1004.724 997.605 988.826 981.275 971.187 965.796 964.115 954.412 942.461 936.271 927.972 919.699 911.899 906.758 901.004 894.125 886.720 880.123 873.601 866.120 857.718 853.042 848.668 843.923 839.741 833.110 827.817 825.539 825.573 826.121 825.398 822.631 821.101 816.751 814.708 812.220 807.676 804.566 803.493 795.163 787.319 785.125 775.289 769.211 762.457 755.482 748.201 741.056 734.800 730.063 722.844 717.957 713.258 711.164 707.336 705.470 703.617 700.157 691.299 684.840 679.280 669.186 657.286 645.727 640.157 636.070 629.033 628.716 625.309 621.936 618.260 618.332 614.451 611.005 608.658 604.239 595.801 584.761 578.449 573.896 568.242 560.031 557.742 555.536 548.819 543.250 543.639 544.668 539.896 536.561 535.501 532.451 529.782 529.253 531.541 519.094 511.779 499.945 491.491 478.983 463.135 456.310 446.291 438.512 434.829 433.069 428.025 424.826 419.587 416.720 411.752 404.707 399.811 395.366 389.042 387.326 383.119 383.413 370.878 371.144 371.231 369.840 372.814 373.940 374.654 375.210 375.449 376.336 377.033 377.829 378.679 379.474 380.844 381.362 382.065 383.338 384.539 390.936 393.841 397.877 402.068 405.417 411.427 416.737 420.012 423.969 428.952 432.420 436.737 439.659 442.953 443.352 445.710 451.654 458.483 460.767 463.105 467.259 469.501 470.880 471.856 477.254 480.163 484.868 490.465 493.609 496.822 500.208 505.741 511.358 521.104 525.609 530.238 537.244 542.261 548.418 557.578 567.635 573.719 578.576 572.172 570.844 566.574 567.087 570.731 573.670 576.515 580.916 585.503 586.795 594.339 603.635 609.212 616.201 618.011 622.621 630.355 646.266 649.659 654.331 664.052 682.069 677.201 678.459 682.685 686.879 688.394 692.890 692.588 694.646 704.949 718.834 729.195 740.881 751.752 760.593 772.748 783.829 794.413 807.197 822.815 821.305 814.867 828.882 835.155
1795.673 1820.123 1841.781 1850.585 1851.444 1866.078 1874.062 1884.700 1892.164 1896.235 1906.096 1910.016 1915.095 1925.375 1929.674 1956.385 1957.664 1960.231 1960.014 1956.096 1956.583 1959.740 1950.436 1945.853 1941.958 1938.895 1938.286 1938.538 1941.781 1953.423 1971.283 1990.810 1997.521 2004.665 2013.137 2026.706 2034.748 2017.162 1998.448 1979.148 1958.922 1932.695 1910.670 1901.918 1891.804 1882.846 1869.347 1849.402 1834.689 1819.172 1804.775 1789.163 1780.603 1764.982 1751.433 1740.473 1729.358 1718.331 1709.610 1702.913 1692.936 1681.389 1664.473 1649.674 1642.231 1635.254 1626.467 1617.778 1610.568 1603.131 1595.521 1583.500 1579.979 1573.263 1566.824 1557.639 1544.250 1530.378 1513.984 1499.975 1491.749 1483.382 1474.206 1465.806 1458.614 1448.771 1433.512 1420.583 1411.502 1399.298 1384.115 1370.454 1355.278 1338.936 1327.427 1315.726 1304.025 1297.548 1293.018 1281.731 1271.138 1256.740 1245.952 1226.101 1211.016 1197.981 1181.413 1169.138 1156.006 1143.818 1131.862 1121.276 1109.589 1099.048 1087.764 1077.085 1064.271 1055.210 1047.453 1041.606 1038.226 1032.219 1028.003 1026.186 1023.986 1018.114 1009.632 1001.052 992.125 984.431 976.149 971.052 963.507 955.284 947.727 941.163 934.197 927.487 919.128 911.984 904.206 896.909 888.823 881.258 871.572 863.672 858.029 853.495 849.249 845.419 840.833 834.477 830.124 830.337 829.052 830.431 828.108 825.448 825.195 821.077 819.240 815.680 811.571 808.048 803.972 797.231 789.442 784.802 778.660 772.028 764.481 757.494 750.976 743.664 739.105 732.259 725.924 720.906 716.805 714.808 711.737 709.540 708.719 700.951 694.344 687.665 678.904 669.198 659.437 649.038 648.115 640.678 632.446 629.727 630.252 626.729 624.852 621.856 619.681 617.003 613.992 607.714 598.397 587.275 580.690 574.697 569.330 561.205 558.171 556.622 553.730 545.541 543.221 544.280 539.997 536.097 534.013 532.603 530.853 529.889 531.880 520.216 511.432 504.011 491.636 477.777 466.107 453.543 445.428 440.950 436.943 431.796 426.972 424.283 421.833 419.521 412.680 406.545 400.962 396.152 390.068 389.209 384.037 383.276 379.107 372.528 371.726 370.676 370.390 373.008 374.162 374.886 375.338 375.848 376.768 377.393 378.182 379.310 379.893 380.631 381.480 382.758 387.496 391.357 395.251 397.403 401.626 404.168 409.825 415.744 419.136 425.014 430.659 434.973 437.700 440.401 441.489 442.626 448.452 449.324 455.029 459.665 463.606 468.434 470.054 474.277 476.903 480.198 483.566 489.682 491.417 494.505 498.253 502.090 506.121 509.166 517.185 524.185 530.789 538.630 544.379 549.532 557.954 566.104 570.644 573.653 569.027 570.022 565.627 565.774 567.071 569.299 573.003 577.594 585.193 595.722 604.686 611.749 623.639 621.049 621.422 625.178 638.865 646.657 648.225 652.992 667.319 671.109 674.300 677.907 682.673 685.190 686.576 689.957 692.133 696.179 705.597 716.362 729.116 742.880 754.245 763.732 772.384 783.119 792.484 803.153 803.671 805.281 816.168 846.722 850.424
1789.554 1805.375 1833.925 1840.583 1843.949 1856.508 1863.927 1874.714 1880.961 1884.330 1895.893 1898.413 1903.281 1905.072 1913.622 1931.606 1945.726 1950.300 1947.316 1943.299 1940.368 1941.297 1940.215 1935.493 1931.858 1929.986 1927.772 1929.995 1934.328 1949.400 1964.490 1983.869 1989.598 1999.771 2009.306 2019.300 2025.679 2024.286 1985.663 1962.564 1934.449 1916.470 1905.930 1896.925 1886.783 1877.520 1864.644 1846.176 1833.389 1818.535 1799.606 1786.879 1778.344 1766.042 1751.152 1741.807 1729.263 1717.385 1708.346 1702.458 1692.607 1680.050 1661.557 1651.719 1639.578 1635.220 1627.423 1616.308 1610.033 1601.125 1592.042 1581.021 1574.562 1566.213 1559.508 1551.090 1539.916 1527.422 1510.328 1496.862 1490.776 1477.664 1470.179 1462.547 1454.957 1445.050 1427.610 1416.209 1406.982 1396.262 1383.217 1366.902 1350.683 1335.225 1323.078 1311.622 1302.588 1292.455 1281.589 1271.691 1262.225 1244.190 1231.733 1217.616 1205.993 1192.994 1179.876 1166.299 1153.487 1141.600 1131.995 1119.214 1107.509 1095.226 1079.486 1068.842 1058.722 1051.297 1045.726 1041.028 1037.194 1034.013 1030.243 1027.523 1023.420 1017.873 1010.713 1002.119 994.181 987.915 979.838 972.456 965.750 956.822 948.757 942.820 936.761 928.676 918.685 911.672 904.567 896.751 889.215 879.253 872.532 866.320 861.300 855.620 851.751 847.310 843.773 839.583 834.509 833.844 832.453 832.534 830.743 827.374 826.972 824.332 820.566 816.521 813.657 808.215 805.425 800.108 791.226 785.091 778.199 771.351 764.528 757.850 751.013 743.765 738.631 731.284 727.086 724.709 722.335 717.787 715.070 713.448 708.539 702.791 693.768 688.483 679.558 669.041 662.802 660.784 656.665 645.535 636.914 631.188 631.334 630.637 628.875 627.448 625.703 622.946 616.591 608.555 599.059 590.718 583.089 577.281 571.738 564.626 560.082 559.117 560.088 549.732 544.087 542.567 540.704 535.896 533.167 532.447 531.405 532.742 529.274 518.611 508.781 500.496 490.117 477.907 464.548 451.248 442.987 438.324 435.841 430.954 427.483 427.093 425.958 419.125 411.728 406.163 400.927 396.635 389.080 389.282 385.430 383.395 383.439 379.648 375.028 371.966 370.442 372.345 373.444 374.428 375.031 375.649 376.666 377.107 377.864 378.392 378.748 380.033 380.895 381.370 386.961 390.686 394.704 396.391 400.164 403.648 409.253 415.282 420.898 425.400 431.409 435.408 437.900 439.017 441.698 446.084 446.236 447.869 452.645 456.434 463.271 469.031 473.580 477.399 481.192 481.840 487.536 490.677 493.018 496.423 499.759 501.319 504.682 510.102 512.841 525.336 533.273 541.351 544.539 548.364 555.099 561.311 563.981 565.605 564.758 566.643 564.971 564.816 565.655 568.831 574.460 583.758 589.045 597.847 609.285 623.267 625.802 622.684 625.151 626.675 639.191 645.534 646.380 654.098 665.897 665.477 671.209 677.645 681.318 682.854 687.635 690.500 694.704 698.757 709.724 721.890 733.897 743.754 753.142 764.557 775.775 779.343 781.218 782.343 800.421 821.901 849.047 862.252 871.901
1783.787 1798.957 1826.400 1833.744 1839.901 1849.556 1856.462 1865.780 1871.499 1873.226 1879.629 1884.102 1890.867 1892.156 1898.067 1913.248 1910.905 1936.859 1938.868 1929.919 1926.305 1923.236 1927.208 1924.372 1921.686 1920.069 1918.188 1921.190 1928.124 1937.566 1956.498 1975.470 1985.635 1995.481 2004.915 2015.353 2020.375 2015.324 1981.529 1942.245 1928.958 1915.637 1904.705 1896.885 1881.678 1874.203 1859.800 1842.669 1829.910 1816.808 1801.432 1786.570 1778.366 1768.578 1755.105 1742.964 1727.017 1714.579 1708.504 1703.461 1692.789 1678.236 1660.010 1649.193 1639.572 1633.127 1625.074 1612.916 1608.734 1601.693 1588.210 1577.473 1567.797 1556.651 1550.502 1543.975 1534.363 1518.062 1502.970 1493.053 1485.771 1475.817 1466.745 1458.621 1451.896 1440.512 1423.225 1410.076 1406.787 1397.240 1384.420 1371.305 1355.255 1334.287 1320.329 1307.795 1293.184 1280.518 1269.331 1261.630 1253.324 1245.376 1232.682 1218.549 1203.620 1188.682 1178.278 1165.569 1152.334 1141.162 1130.104 1115.493 1102.975 1088.060 1075.368 1067.365 1061.195 1054.716 1047.417 1042.786 1038.483 1034.508 1030.880 1025.678 1020.761 1017.734 1011.325 1002.635 995.081 988.492 981.833 973.272 965.256 954.161 942.403 934.431 928.651 920.392 915.108 910.904 904.700 897.370 889.702 882.983 875.600 869.329 864.037 859.717 855.103 850.347 844.996 841.425 836.914 835.546 836.036 835.080 832.896 830.274 827.438 824.189 822.257 817.971 815.177 810.731 808.487 802.557 793.285 785.368 778.085 770.015 764.450 757.986 750.141 744.306 736.706 731.763 728.168 726.150 725.005 720.383 717.393 714.266 710.208 704.475 696.674 688.508 676.886 671.861 672.540 675.539 660.279 648.417 637.141 633.357 634.268 633.364 631.183 630.797 628.516 625.125 618.201 607.654 599.523 592.783 586.527 581.734 576.427 568.774 564.308 558.934 557.291 550.935 544.315 539.214 538.052 533.590 531.926 531.594 532.986 534.104 528.192 516.391 507.938 497.784 485.254 472.757 462.905 452.851 442.614 437.970 435.238 432.323 432.296 430.782 427.006 418.427 412.004 406.863 402.350 395.903 395.748 391.149 387.099 384.605 383.172 382.241 377.610 372.388 372.333 370.851 373.282 373.409 374.028 375.016 376.123 376.642 376.907 377.441 378.234 379.149 380.423 382.453 387.162 390.810 392.914 396.111 399.875 403.784 411.773 416.689 421.349 427.692 431.508 434.404 437.682 438.624 445.305 447.049 446.692 447.739 453.549 456.218 461.982 467.513 473.180 478.270 481.665 482.612 490.955 494.303 496.536 499.748 503.710 504.985 505.227 510.214 516.343 523.732 531.824 537.771 542.247 548.655 554.897 556.399 561.393 563.168 562.719 565.947 563.302 563.899 563.703 566.595 577.676 581.359 589.714 601.438 607.411 612.411 618.589 621.061 626.848 631.083 642.267 645.861 647.470 653.029 657.255 660.724 667.536 676.313 677.920 680.370 686.101 690.546 690.726 699.297 711.652 722.943 733.193 744.012 755.224 768.046 763.607 768.192 776.906 787.296 807.115 826.298 848.070 866.494 883.323
1778.576 1789.406 1820.371 1828.712 1833.593 1845.173 1851.899 1859.064 1861.602 1862.542 1866.413 1871.909 1876.291 1879.426 1881.567 1886.428 1891.865 1897.031 1923.647 1919.292 1913.222 1908.433 1910.886 1913.393 1913.114 1911.237 1910.285 1914.085 1922.992 1931.953 1947.559 1976.686 1986.915 1994.858 2003.189 2012.419 2017.398 1997.744 1958.003 1932.721 1922.512 1911.634 1899.161 1891.279 1880.786 1869.942 1858.369 1837.625 1826.574 1814.979 1799.108 1786.930 1777.847 1767.624 1757.244 1741.680 1725.183 1713.656 1707.563 1702.393 1693.346 1681.306 1662.417 1650.754 1641.146 1633.794 1624.523 1613.867 1608.287 1598.459 1583.105 1574.825 1559.626 1554.727 1549.929 1543.028 1527.819 1511.229 1498.997 1491.509 1482.650 1475.695 1464.262 1456.256 1450.100 1432.829 1418.756 1409.909 1405.180 1388.595 1375.569 1363.342 1351.423 1335.012 1315.691 1302.205 1286.806 1276.671 1266.777 1258.425 1252.544 1242.357 1226.892 1216.829 1204.548 1189.406 1173.103 1161.328 1148.442 1133.241 1122.197 1111.160 1100.452 1087.823 1076.338 1068.750 1060.880 1055.998 1047.405 1040.900 1037.615 1034.677 1031.687 1025.842 1020.516 1017.066 1011.269 1004.315 996.912 989.871 982.542 973.755 962.028 949.887 937.569 928.671 924.093 918.162 914.175 910.817 905.451 898.770 892.760 885.975 880.650 874.285 868.651 863.793 858.391 852.619 846.812 843.483 840.924 839.412 840.519 839.165 836.900 834.414 829.317 824.734 822.284 814.911 813.209 808.353 804.065 800.829 794.562 782.245 773.688 765.827 760.808 754.390 748.451 742.135 733.893 732.643 728.175 729.997 725.354 722.882 720.761 716.982 709.965 705.845 697.389 684.539 676.921 684.083 685.021 675.572 663.769 652.271 639.822 635.082 635.872 635.128 631.318 630.246 628.214 623.997 617.552 611.065 604.333 598.029 590.756 586.022 581.506 574.571 567.230 559.513 555.431 546.243 540.840 538.270 535.495 531.857 530.280 531.011 532.260 530.875 522.443 511.835 504.146 491.749 480.615 468.270 459.855 452.410 443.235 438.650 435.659 434.870 434.919 434.735 427.690 419.050 412.305 407.573 402.868 393.303 396.788 393.853 389.557 386.441 384.035 383.403 381.335 374.835 372.207 370.928 373.059 373.128 373.366 373.994 375.374 375.956 375.938 376.864 377.766 378.296 379.152 382.906 387.002 390.203 392.117 394.946 399.203 405.515 411.233 418.161 423.608 428.368 431.103 434.358 436.034 440.361 442.945 446.057 449.741 451.569 454.310 457.244 463.110 467.004 469.105 472.462 475.398 478.811 488.292 493.119 497.238 501.098 504.421 506.276 508.286 509.890 516.630 522.854 529.130 535.807 542.132 547.592 551.059 552.208 559.008 561.028 563.794 561.234 559.266 563.287 565.445 569.958 569.905 581.645 590.226 600.342 602.528 604.257 610.590 617.318 622.396 624.672 631.582 640.623 639.549 647.351 652.923 658.499 666.574 673.859 674.926 680.539 681.535 684.228 690.007 701.683 715.536 727.212 739.712 753.288 760.293 749.315 761.244 774.075 788.074 799.842 814.018 832.392 851.331 874.877 888.657
1772.830 1784.577 1815.277 1823.746 1832.892 1838.141 1846.804 1853.911 1856.926 1853.966 1855.083 1856.343 1863.783 1866.027 1867.960 1873.610 1877.725 1882.250 1889.659 1909.329 1901.240 1894.919 1898.058 1902.458 1904.517 1903.151 1902.660 1908.068 1917.585 1926.080 1941.594 1968.876 1983.142 1993.140 2003.243 2011.502 2015.564 1994.276 1947.805 1929.590 1920.274 1907.692 1896.186 1889.256 1880.287 1866.266 1852.236 1836.167 1827.180 1814.411 1798.377 1788.078 1780.560 1769.415 1757.666 1739.735 1724.022 1711.301 1705.117 1699.262 1692.760 1681.965 1666.061 1652.372 1641.030 1632.804 1622.317 1614.984 1608.433 1595.846 1582.705 1570.275 1557.314 1551.862 1543.427 1529.636 1515.170 1505.254 1498.473 1491.310 1484.463 1476.454 1463.706 1452.764 1444.371 1430.730 1417.386 1409.211 1401.470 1385.684 1369.484 1356.387 1342.178 1332.158 1316.274 1300.260 1285.962 1275.734 1265.566 1257.091 1246.308 1234.426 1220.313 1205.975 1198.772 1186.830 1171.521 1158.833 1144.897 1130.748 1118.099 1108.899 1097.050 1088.618 1078.473 1067.623 1060.146 1055.017 1048.281 1043.751 1039.654 1037.669 1034.265 1027.983 1019.701 1014.776 1008.751 1000.107 993.084 990.337 983.841 972.499 961.065 949.250 937.628 926.345 919.242 916.985 913.703 911.437 906.492 901.633 897.462 891.544 885.304 878.249 870.780 865.126 859.891 854.385 849.910 847.542 844.831 844.728 841.841 840.658 838.303 836.711 832.010 828.531 823.086 817.384 814.317 807.454 801.585 797.625 789.843 779.569 768.160 761.809 756.903 746.938 740.140 733.630 732.081 730.721 731.408 730.082 726.156 723.641 720.730 715.491 711.480 704.127 700.522 700.248 697.656 694.594 686.493 676.389 664.779 652.986 641.159 636.530 635.131 636.377 631.929 627.826 625.280 624.364 618.045 614.092 610.580 601.625 594.688 590.263 585.755 578.989 569.336 559.683 553.598 544.345 539.344 535.940 533.191 529.912 529.168 528.409 528.437 525.472 514.691 508.801 499.559 486.931 477.839 467.755 460.667 453.931 447.657 442.680 438.319 437.983 438.170 437.267 428.516 420.079 412.571 407.056 403.011 395.301 396.839 393.932 390.890 387.072 384.036 383.363 379.947 373.097 372.782 372.722 371.455 373.466 373.312 373.514 374.116 375.074 375.563 376.280 376.782 377.607 377.956 382.507 386.125 389.600 391.527 395.000 398.628 404.548 411.472 418.034 424.220 427.458 431.860 432.033 434.607 438.721 440.415 443.081 445.504 450.436 451.335 456.704 460.761 464.531 466.796 470.002 474.186 479.512 485.636 488.264 493.637 498.091 503.428 506.152 507.600 511.103 516.474 521.631 526.749 534.326 539.285 543.278 546.244 550.357 556.894 560.822 559.833 556.482 559.468 561.171 561.058 564.113 569.397 582.073 591.546 592.950 597.346 601.625 606.949 608.252 611.449 615.355 622.206 630.429 637.073 642.370 648.351 657.039 664.969 670.593 677.993 677.856 679.307 684.754 696.207 708.834 727.587 739.090 744.909 747.380 748.275 748.056 765.251 780.151 790.786 804.341 820.264 832.420 858.791 877.481 891.437
1766.561 1776.780 1808.999 1821.477 1823.928 1832.901 1838.322 1846.639 1849.925 1847.096 1845.940 1845.081 1852.285 1853.954 1856.988 1862.094 1864.474 1869.667 1875.375 1888.566 1889.150 1884.377 1888.234 1891.615 1897.172 1895.537 1894.966 1900.968 1911.036 1921.017 1933.521 1950.634 1979.544 1991.121 2002.610 2008.851 2012.242 1988.528 1943.355 1925.249 1912.944 1901.023 1890.993 1883.976 1874.708 1864.673 1847.767 1840.082 1826.460 1812.694 1797.817 1789.266 1779.615 1768.207 1759.063 1740.096 1723.730 1712.297 1703.442 1697.729 1690.035 1682.064 1669.755 1657.155 1642.645 1632.070 1622.182 1614.540 1603.532 1592.341 1579.659 1563.682 1552.873 1542.831 1534.418 1524.596 1511.511 1503.945 1498.068 1495.062 1485.827 1479.405 1462.191 1452.343 1439.321 1428.307 1414.845 1403.147 1389.404 1376.669 1361.472 1351.104 1340.203 1325.971 1311.556 1298.978 1286.798 1274.223 1263.583 1253.708 1241.783 1225.601 1211.710 1197.341 1185.005 1175.015 1162.809 1152.865 1144.101 1137.519 1124.145 1114.804 1105.436 1096.900 1084.915 1070.070 1058.666 1053.789 1048.808 1045.282 1042.369 1039.681 1035.611 1028.216 1017.567 1012.325 1004.170 998.806 992.830 989.612 983.275 975.380 960.334 952.128 942.170 931.672 922.763 918.259 914.634 911.487 907.845 903.645 898.120 891.467 885.849 878.648 869.251 864.009 859.296 854.960 853.020 850.926 846.406 848.110 845.154 842.662 841.100 838.150 832.644 827.995 822.945 820.046 814.025 809.543 802.797 796.218 789.787 776.306 765.531 755.902 750.106 740.149 736.776 732.776 730.558 731.805 734.752 728.815 724.843 721.014 720.326 715.825 711.884 715.319 708.341 705.253 702.223 693.459 687.313 675.672 665.472 656.573 645.168 639.952 633.256 634.735 630.686 626.409 625.417 624.185 620.562 615.042 612.779 604.489 597.432 591.501 586.616 579.777 569.646 559.913 552.945 541.498 535.760 533.368 530.194 529.503 527.697 525.567 523.141 515.458 512.340 507.544 494.769 483.481 475.400 468.531 462.929 457.792 451.415 444.783 442.751 441.008 442.620 439.090 432.061 422.869 414.288 407.975 403.973 397.722 398.120 395.998 392.198 388.281 383.943 381.605 378.105 373.072 372.693 373.158 372.888 371.787 373.467 373.474 373.574 374.440 374.544 374.808 375.999 376.515 377.166 381.684 386.158 389.462 391.597 395.350 398.923 402.607 409.717 414.976 423.942 425.799 427.859 430.039 435.521 441.802 439.245 441.984 445.417 446.037 447.324 451.196 456.427 459.876 462.972 467.874 473.795 477.523 481.232 485.408 489.721 494.363 498.646 502.776 504.941 510.647 516.131 522.210 525.283 529.323 534.440 537.968 544.038 549.146 554.541 558.145 555.804 546.887 555.596 555.472 555.968 554.708 563.315 578.580 580.791 585.798 590.685 593.890 596.631 601.852 605.720 615.678 625.565 630.041 635.413 641.901 650.383 656.525 661.797 669.303 672.414 673.394 679.128 689.615 705.012 717.798 725.813 729.893 724.131 731.921 734.049 749.555 762.230 775.651 787.537 803.888 821.214 845.463 860.870 879.829 892.574
1762.049 1774.329 1804.156 1811.004 1819.193 1827.979 1831.266 1841.667 1842.779 1839.375 1838.480 1836.837 1841.069 1844.040 1847.157 1851.049 1853.772 1857.596 1861.958 1868.071 1874.936 1873.542 1877.511 1877.217 1891.335 1888.999 1887.629 1893.712 1904.609 1914.915 1923.970 1958.609 1970.293 1989.707 2000.065 2000.381 2000.770 1966.889 1947.380 1917.074 1906.754 1892.480 1883.236 1877.602 1872.116 1856.617 1842.881 1835.834 1821.314 1807.635 1796.781 1788.618 1779.778 1768.500 1758.303 1743.653 1723.653 1710.183 1699.790 1692.306 1685.900 1677.665 1668.545 1655.738 1642.622 1631.312 1621.719 1608.291 1604.217 1586.202 1576.660 1560.142 1547.678 1537.120 1529.164 1518.762 1509.744 1502.069 1495.103 1489.978 1485.059 1476.588 1462.109 1451.730 1439.324 1425.307 1413.928 1394.519 1378.387 1367.344 1362.094 1345.939 1334.584 1328.116 1315.344 1301.367 1288.816 1276.462 1265.789 1254.302 1241.927 1226.512 1212.550 1197.249 1183.626 1170.595 1162.700 1153.916 1147.453 1136.906 1127.666 1121.214 1110.996 1098.500 1088.103 1074.155 1060.746 1055.126 1049.169 1045.131 1042.548 1038.837 1033.148 1026.833 1018.608 1010.195 1004.719 1000.194 993.648 988.216 980.974 974.335 966.604 957.246 948.754 936.260 928.503 919.488 914.674 912.767 909.196 903.844 900.227 891.798 885.789 877.940 868.504 862.853 860.244 856.738 856.152 855.010 852.817 848.802 849.395 848.502 843.582 840.383 833.791 827.532 824.385 820.331 813.839 809.513 802.169 794.414 786.612 773.368 763.502 751.173 744.479 738.359 736.815 734.461 733.640 734.969 733.074 732.100 728.563 726.440 718.327 720.684 720.965 709.590 703.764 703.055 700.508 691.742 684.878 674.394 667.151 658.945 647.670 642.348 634.145 630.901 626.544 627.195 626.728 626.293 622.614 615.540 613.565 610.095 602.392 594.364 587.106 579.774 569.932 559.255 550.986 539.961 535.470 532.263 529.067 527.724 526.170 523.735 520.610 514.739 510.122 502.899 491.646 481.961 474.863 471.776 466.305 461.191 452.456 447.022 445.069 443.283 446.475 441.167 435.519 424.437 415.085 409.114 404.532 399.763 399.320 395.740 393.135 390.154 384.303 381.321 376.606 373.067 373.152 373.650 374.320 372.091 373.770 373.342 373.742 373.941 374.168 374.197 374.822 375.323 376.165 380.983 384.882 389.748 392.575 395.618 398.029 401.161 406.025 413.496 418.536 424.181 426.578 431.223 437.593 442.588 438.750 439.524 442.988 444.817 447.245 449.218 453.860 458.559 461.901 467.491 471.136 474.752 478.032 481.321 488.767 491.345 496.339 499.431 510.308 512.815 518.948 522.427 520.494 525.741 531.952 537.291 542.767 547.632 552.440 554.121 549.047 541.652 547.308 547.921 551.615 552.927 557.119 570.608 573.230 578.840 583.748 587.194 591.065 595.981 601.901 616.890 630.820 638.254 641.734 648.527 648.595 652.761 659.000 665.899 669.292 672.978 686.260 698.224 708.360 705.294 702.920 707.814 709.528 722.180 733.384 749.106 763.401 777.368 789.207 803.704 822.234 844.065 857.787 881.415 897.205
1756.950 1766.130 1799.795 1807.408 1814.903 1818.835 1825.159 1832.110 1840.268 1832.672 1833.492 1829.872 1830.716 1833.748 1838.746 1841.625 1843.745 1847.171 1850.403 1856.429 1860.411 1863.914 1866.809 1866.102 1885.692 1882.097 1881.215 1888.325 1897.300 1907.134 1911.571 1920.547 1959.388 1983.661 1992.268 1992.596 1966.034 1949.260 1932.685 1918.197 1903.816 1890.288 1877.112 1872.601 1871.773 1863.666 1836.642 1834.485 1818.461 1808.414 1794.880 1790.253 1779.505 1769.302 1760.121 1745.540 1727.619 1710.294 1695.334 1686.240 1682.871 1673.848 1663.995 1653.112 1642.616 1631.200 1618.593 1606.688 1594.412 1580.749 1568.551 1552.199 1539.989 1531.612 1523.204 1515.890 1506.844 1499.954 1493.639 1488.423 1481.841 1477.200 1460.575 1449.330 1436.890 1420.972 1408.480 1386.526 1370.488 1363.523 1358.569 1349.625 1332.567 1322.443 1310.144 1301.412 1290.265 1278.736 1267.411 1254.498 1240.936 1225.628 1209.955 1196.568 1182.004 1171.913 1164.521 1155.068 1143.948 1136.536 1129.772 1121.772 1111.399 1098.899 1090.009 1077.957 1068.226 1058.609 1053.722 1048.914 1045.657 1039.770 1035.157 1028.046 1021.767 1014.646 1005.038 999.885 992.472 987.467 978.316 972.721 967.034 959.412 951.739 940.211 934.002 923.010 917.070 912.467 907.860 901.532 896.707 890.017 882.748 874.201 865.705 864.276 861.501 859.474 861.418 858.603 860.039 856.350 854.060 850.505 844.214 839.094 836.444 830.128 824.324 818.745 815.609 810.451 804.136 797.742 785.804 773.435 764.950 751.322 743.716 740.781 738.086 738.985 736.880 734.900 737.809 736.623 732.736 726.747 727.313 721.525 707.848 705.377 701.979 699.299 697.452 691.007 682.070 673.504 667.316 657.669 649.561 642.039 630.615 632.750 627.566 628.689 630.214 628.967 624.228 615.317 611.185 606.157 603.773 597.521 588.947 579.474 567.006 558.797 549.897 542.286 536.824 532.007 527.962 527.448 524.271 523.194 522.109 518.463 508.473 497.570 485.912 482.975 477.924 474.792 470.136 462.817 453.799 450.235 448.504 445.524 445.549 443.881 437.753 426.331 417.297 411.453 406.669 403.359 401.226 400.038 394.744 392.243 386.395 382.956 377.436 373.561 373.268 373.943 374.540 375.035 372.349 374.481 374.033 373.986 374.055 373.924 374.295 374.651 375.601 378.939 383.886 388.852 392.199 395.785 398.159 401.688 406.423 411.161 418.335 423.411 426.096 432.601 436.868 439.008 439.326 438.555 441.300 445.661 447.044 448.496 454.155 456.699 460.141 464.041 469.452 472.957 475.944 480.297 484.444 489.865 498.002 507.016 514.800 514.300 514.973 518.189 520.999 525.921 529.436 535.628 541.976 545.786 550.026 547.867 539.798 536.876 541.970 543.203 548.896 550.601 557.446 564.353 567.130 572.442 579.011 584.727 587.647 590.014 601.328 619.381 633.713 641.768 641.487 638.689 639.736 649.884 656.814 662.986 666.940 680.556 692.342 694.064 693.828 689.815 691.462 705.275 718.487 731.578 741.330 752.701 766.431 778.955 792.117 807.524 821.714 841.260 857.711 873.574 889.551
1752.830 1761.929 1776.712 1803.017 1809.876 1818.383 1822.208 1827.607 1834.599 1830.532 1829.608 1825.763 1822.610 1823.941 1829.867 1831.073 1832.578 1837.546 1840.293 1845.908 1850.787 1854.455 1856.548 1856.053 1864.137 1874.843 1873.681 1883.418 1892.401 1896.891 1900.668 1910.847 1945.885 1968.951 1985.429 1981.840 1963.628 1947.074 1932.531 1915.451 1900.906 1888.553 1873.566 1865.680 1862.552 1850.380 1835.674 1825.715 1815.327 1804.456 1799.635 1788.022 1775.934 1767.207 1761.131 1747.599 1727.110 1707.503 1693.184 1681.974 1675.603 1668.988 1660.880 1651.017 1642.029 1631.378 1619.941 1606.242 1588.238 1573.910 1558.837 1546.160 1534.873 1527.194 1519.515 1513.678 1507.073 1499.413 1492.831 1488.103 1483.322 1475.199 1461.784 1449.967 1437.995 1418.163 1403.562 1383.511 1367.408 1363.947 1358.107 1345.478 1333.252 1318.577 1306.264 1294.327 1285.553 1273.521 1264.312 1254.305 1239.823 1224.120 1209.908 1195.605 1182.618 1171.859 1162.400 1151.027 1145.012 1137.985 1128.114 1121.734 1108.061 1100.730 1093.781 1082.038 1071.930 1062.431 1056.108 1050.436 1045.421 1043.272 1037.920 1030.833 1022.309 1014.496 1005.726 1000.846 995.308 988.402 980.678 973.557 967.418 960.689 955.019 942.928 934.763 926.907 918.997 912.790 906.447 900.716 895.151 886.731 878.262 869.997 868.163 866.686 863.500 862.178 861.761 861.852 859.105 862.445 855.499 852.402 845.966 840.572 838.385 832.365 826.496 820.128 817.444 813.572 806.126 796.920 784.922 774.853 763.547 751.797 750.268 742.871 742.618 744.259 742.670 744.784 741.005 734.235 725.959 721.760 716.093 710.612 707.028 705.263 703.993 700.201 699.121 691.341 682.921 676.133 670.969 656.980 653.673 642.172 632.460 630.517 629.336 630.038 634.125 630.786 624.377 616.776 612.425 607.813 604.474 600.868 591.420 581.826 571.452 562.046 554.018 545.177 538.525 534.473 528.544 527.441 524.785 522.436 521.984 515.960 504.660 493.033 485.443 481.954 479.243 475.102 468.338 461.331 453.732 452.172 448.306 447.874 445.155 444.130 437.978 426.831 418.128 412.963 408.327 405.675 403.069 400.960 396.450 393.399 388.914 385.302 379.191 375.734 373.584 373.947 374.389 374.999 372.838 373.010 374.600 374.387 373.952 374.287 374.382 374.636 375.238 377.994 382.983 387.903 390.955 394.847 397.741 401.698 405.986 409.730 415.826 422.377 425.984 433.036 436.025 435.005 436.827 438.988 440.422 444.206 445.792 448.094 452.270 455.567 459.167 463.855 468.911 472.573 476.791 481.691 488.909 496.466 503.720 510.371 509.820 509.609 513.288 518.480 521.376 524.082 527.766 533.840 539.829 544.872 546.717 541.676 535.839 533.758 541.684 544.711 545.953 551.109 557.458 558.838 563.411 568.999 576.613 581.486 584.396 588.222 598.939 613.333 618.914 630.718 626.132 627.893 633.656 642.308 651.896 656.031 668.142 683.592 689.982 683.839 671.044 688.668 707.643 719.715 725.830 734.423 741.953 756.187 770.503 781.216 793.354 809.271 825.651 840.455 857.801 871.473 885.135
1748.870 1755.674 1772.664 1792.793 1804.004 1811.224 1821.223 1824.492 1829.813 1829.561 1826.788 1822.137 1817.592 1816.889 1820.636 1821.494 1824.029 1828.490 1831.067 1838.464 1842.544 1845.047 1846.979 1846.871 1850.857 1855.743 1864.715 1878.205 1881.609 1886.573 1890.050 1900.268 1932.293 1959.760 1980.240 1976.731 1960.439 1943.957 1928.276 1912.093 1897.646 1885.432 1872.554 1864.823 1859.332 1847.656 1834.090 1824.323 1810.120 1803.397 1796.584 1785.042 1773.668 1766.235 1762.023 1747.318 1729.456 1710.729 1692.603 1678.219 1669.157 1661.856 1655.921 1648.149 1639.438 1628.672 1617.522 1601.886 1581.215 1573.079 1555.909 1543.701 1533.519 1525.170 1518.650 1510.284 1503.162 1498.406 1491.902 1489.305 1479.470 1471.435 1461.860 1449.301 1435.296 1417.169 1400.950 1383.721 1369.624 1365.124 1359.123 1345.257 1332.503 1319.051 1303.402 1287.699 1278.890 1270.617 1260.558 1253.020 1240.031 1224.022 1211.194 1199.169 1184.704 1173.056 1159.915 1148.390 1143.902 1139.371 1127.571 1121.038 1109.777 1097.261 1091.449 1078.889 1065.276 1059.395 1055.780 1052.019 1047.315 1043.509 1037.465 1031.995 1022.230 1012.896 1005.585 999.395 993.135 985.312 979.566 974.793 969.288 960.058 954.651 947.300 938.255 929.764 921.191 911.437 905.058 898.357 891.925 881.235 875.464 871.586 870.790 869.737 869.716 869.470 865.164 864.197 861.652 858.272 856.684 854.118 848.077 841.836 842.253 835.517 831.453 824.809 819.766 814.865 807.927 797.609 788.330 776.674 765.212 759.882 755.662 752.370 752.608 750.892 749.407 743.553 737.708 725.195 717.025 709.133 709.796 707.792 707.344 710.325 705.611 702.690 700.004 692.173 684.781 678.994 666.895 656.337 645.956 637.782 632.287 630.494 631.154 635.019 634.531 629.053 620.746 616.706 613.743 609.766 602.677 598.533 593.982 588.468 581.570 571.128 562.964 555.166 548.155 538.594 530.356 526.998 524.362 522.112 519.602 514.752 503.258 490.185 484.012 480.113 473.995 466.843 461.918 457.784 454.372 452.175 447.854 446.463 445.656 444.012 438.170 427.467 418.668 413.509 409.004 406.381 403.875 400.477 397.779 393.226 390.992 381.510 379.885 374.950 374.000 373.859 374.702 375.104 375.415 373.124 374.869 374.785 374.370 374.556 374.600 374.919 375.156 376.460 381.252 386.378 389.841 393.545 397.389 403.131 407.032 411.838 414.568 421.842 427.058 431.197 432.714 432.896 436.123 436.934 437.862 440.953 445.275 448.895 454.208 458.247 462.385 465.797 469.693 474.579 482.332 487.681 493.510 499.266 502.105 502.878 504.788 508.276 512.526 517.223 519.256 524.993 527.698 533.268 537.343 540.153 537.506 535.390 532.581 538.108 543.424 545.134 545.128 551.346 554.797 558.478 564.627 569.487 575.778 579.022 579.430 583.792 598.142 600.793 604.337 611.934 617.733 622.238 626.143 636.107 644.172 655.577 675.358 684.019 678.508 663.025 673.994 691.254 709.946 720.636 723.321 730.692 741.646 753.296 765.768 779.394 794.159 810.059 828.199 844.769 864.824 878.561 885.443
1743.076 1749.842 1761.141 1783.931 1797.585 1806.165 1815.342 1823.792 1826.436 1827.267 1827.098 1821.849 1814.809 1811.996 1811.261 1812.940 1815.460 1820.400 1824.957 1830.232 1833.898 1835.652 1838.663 1837.411 1837.589 1838.757 1851.590 1860.523 1867.073 1869.298 1877.358 1892.175 1921.619 1948.942 1971.080 1964.914 1951.884 1938.356 1925.204 1907.582 1893.332 1878.633 1866.934 1855.825 1856.236 1847.201 1832.264 1816.384 1805.495 1797.811 1787.986 1777.014 1771.667 1768.646 1764.314 1750.177 1735.567 1715.591 1689.223 1673.729 1664.161 1656.637 1652.047 1644.142 1636.407 1626.387 1615.609 1597.871 1579.216 1567.639 1553.240 1545.475 1533.457 1523.073 1514.951 1509.127 1501.243 1496.158 1493.372 1486.597 1480.294 1471.364 1460.660 1451.572 1434.511 1416.988 1400.024 1386.556 1375.218 1369.656 1355.010 1342.737 1333.711 1318.379 1301.993 1287.995 1281.057 1272.204 1262.317 1255.614 1243.169 1226.897 1212.428 1199.708 1184.927 1170.854 1158.747 1147.368 1142.841 1138.760 1130.779 1120.835 1109.026 1098.534 1085.799 1074.522 1063.650 1057.736 1054.606 1051.055 1043.847 1039.280 1033.701 1029.525 1021.900 1011.555 1003.422 997.570 990.550 986.628 983.313 977.453 971.270 965.422 957.354 952.079 941.683 931.622 922.028 911.907 902.737 896.452 886.963 879.016 874.463 872.798 873.166 871.729 871.028 870.088 871.540 867.732 862.722 857.120 854.295 854.856 850.302 846.733 844.926 838.680 834.499 827.587 823.926 814.270 809.743 800.327 789.676 777.338 774.904 767.384 764.335 764.108 761.485 750.983 747.198 741.220 728.827 716.569 710.118 709.410 713.579 712.111 713.341 709.815 706.919 705.489 702.448 693.741 687.415 677.704 664.930 657.552 649.582 639.990 631.207 629.896 634.299 635.209 631.362 622.705 619.247 615.882 612.840 606.741 602.036 600.430 598.070 594.325 588.166 578.925 568.713 559.408 551.233 543.510 534.108 526.735 523.984 522.336 519.368 511.085 500.456 491.659 482.200 475.860 468.288 462.611 458.743 456.581 456.569 451.410 448.674 446.970 446.114 444.148 437.328 426.532 418.742 413.235 410.602 407.283 404.713 400.999 398.342 395.100 391.179 382.656 381.198 377.081 374.407 374.129 374.532 375.025 375.312 375.386 373.610 375.037 374.872 374.750 374.748 374.743 375.154 374.918 377.327 383.775 389.311 395.397 400.275 407.497 412.126 415.660 415.421 423.011 428.129 430.455 430.530 431.639 434.431 435.858 438.202 442.398 449.798 455.253 461.429 464.214 467.116 468.348 474.415 482.300 486.543 488.317 490.322 493.686 497.811 499.619 504.048 507.974 511.017 514.144 517.124 523.066 525.812 528.548 530.045 531.161 532.398 525.667 533.745 537.727 541.795 542.782 544.695 548.019 552.606 557.516 563.227 567.243 568.911 572.847 570.966 578.866 589.207 592.516 593.047 599.156 609.471 613.896 621.609 634.097 646.544 660.284 674.774 673.822 659.122 664.978 685.146 699.630 710.639 714.255 720.812 729.166 739.021 751.162 764.220 782.279 800.959 819.310 837.213 852.811 867.345 876.514 883.190
1743.064 1747.566 1756.419 1779.587 1793.213 1801.496 1811.964 1819.264 1825.437 1825.086 1824.053 1819.139 1812.448 1808.730 1807.091 1807.381 1811.313 1815.479 1819.312 1824.052 1825.629 1827.515 1830.049 1828.744 1829.033 1828.183 1833.923 1838.773 1844.000 1847.932 1852.192 1883.392 1907.743 1945.251 1960.266 1961.391 1949.673 1935.694 1919.225 1901.056 1888.017 1874.609 1862.790 1856.558 1847.353 1844.904 1834.681 1813.289 1805.333 1793.990 1779.269 1771.910 1770.643 1769.822 1762.320 1749.583 1735.915 1712.906 1698.457 1668.391 1659.934 1651.153 1646.401 1638.092 1631.253 1620.349 1607.802 1591.050 1574.884 1563.691 1547.925 1539.545 1529.928 1519.554 1512.894 1506.961 1500.163 1497.214 1492.214 1485.484 1475.464 1467.120 1461.598 1450.901 1437.687 1420.938 1404.186 1391.381 1380.837 1371.282 1357.190 1344.556 1333.151 1320.757 1306.755 1293.058 1280.701 1275.444 1266.888 1255.510 1240.359 1228.679 1217.205 1201.804 1184.330 1170.326 1157.119 1148.655 1142.587 1138.679 1132.923 1124.093 1112.710 1101.590 1090.409 1075.879 1062.659 1054.758 1052.261 1048.179 1042.108 1037.776 1032.151 1025.529 1019.725 1011.091 1001.611 994.494 990.429 987.905 982.740 975.842 972.275 966.470 959.788 951.406 943.244 931.948 920.714 909.835 900.892 894.766 882.222 880.031 877.387 875.660 874.544 874.423 873.228 871.854 872.182 871.505 869.518 863.699 855.980 854.469 852.425 850.254 845.508 839.961 835.771 830.931 826.614 818.047 811.686 802.138 792.432 788.413 782.417 782.474 780.309 771.377 763.885 754.765 747.547 733.883 718.419 711.738 711.000 713.006 713.192 712.661 712.498 712.158 709.945 705.857 700.794 695.110 688.059 678.816 666.336 659.781 648.334 637.027 631.826 629.952 629.394 627.221 622.929 619.672 618.739 616.621 612.309 608.969 604.723 603.598 602.554 599.527 594.492 585.441 576.540 566.190 557.524 546.210 536.339 529.242 525.884 522.677 519.189 514.178 507.949 498.454 489.711 477.086 469.062 463.944 460.686 458.954 456.295 452.653 450.720 452.362 445.883 443.385 437.143 426.167 417.521 413.576 410.791 406.863 405.158 401.368 398.259 394.520 390.642 386.464 381.175 376.787 374.410 374.540 374.510 374.828 375.076 375.195 374.019 375.369 375.364 374.891 374.649 374.849 375.326 375.246 374.911 380.150 388.742 395.342 401.584 406.879 410.668 415.908 421.397 423.922 427.794 429.948 430.318 431.341 433.898 436.671 440.213 447.027 450.174 459.150 463.135 465.802 467.788 469.544 472.701 481.914 485.226 487.306 488.888 494.081 496.087 500.102 504.569 506.936 508.099 508.214 514.452 520.075 520.272 521.594 523.899 519.615 520.478 531.382 535.698 537.352 538.674 540.914 543.309 544.168 550.187 552.739 558.018 563.184 562.411 563.092 564.685 570.008 573.258 583.480 587.222 592.409 600.199 608.029 622.772 636.008 653.179 663.323 668.172 659.912 657.243 682.382 694.962 702.988 704.321 707.787 718.344 727.802 739.297 751.644 766.878 785.599 810.094 832.207 844.423 856.793 863.581 872.625 874.372
1739.334 1740.984 1750.560 1774.084 1783.865 1794.730 1803.003 1811.144 1814.789 1814.518 1819.239 1813.173 1809.345 1809.029 1805.784 1805.201 1806.538 1812.163 1817.835 1819.021 1818.672 1820.078 1821.989 1823.051 1822.904 1818.676 1821.811 1823.811 1826.912 1832.452 1839.742 1868.866 1888.246 1920.149 1948.627 1958.263 1946.547 1929.592 1910.929 1895.116 1881.192 1870.064 1860.580 1852.312 1846.811 1838.028 1831.433 1815.100 1802.770 1792.119 1777.466 1769.064 1767.935 1766.668 1759.787 1747.782 1731.210 1719.160 1689.413 1668.256 1653.117 1646.029 1639.419 1630.250 1623.109 1613.930 1601.027 1583.690 1570.199 1557.671 1544.439 1536.466 1525.920 1517.984 1510.273 1504.776 1498.795 1492.937 1487.005 1481.355 1472.293 1465.028 1458.795 1453.408 1437.811 1428.030 1411.704 1397.013 1383.214 1373.988 1359.164 1344.415 1332.033 1319.802 1306.452 1292.443 1278.111 1274.759 1264.988 1251.728 1240.692 1230.847 1215.874 1198.191 1180.943 1170.073 1158.565 1149.786 1142.102 1136.841 1132.421 1123.950 1114.072 1104.443 1090.331 1073.474 1059.668 1049.143 1042.701 1043.198 1040.346 1036.349 1030.169 1024.528 1019.239 1011.134 1003.300 996.381 992.420 988.100 981.461 974.832 971.018 965.636 959.192 950.857 940.411 927.025 916.599 904.533 900.998 892.675 885.516 886.483 882.612 880.750 875.991 875.571 874.189 875.096 873.375 874.081 870.333 871.744 859.909 856.816 855.229 850.179 847.026 841.794 836.321 834.499 828.651 822.209 811.917 803.288 799.548 795.353 795.767 791.833 783.716 776.023 765.237 758.429 749.702 737.297 717.055 713.346 716.663 716.901 715.018 713.706 714.035 712.809 712.761 705.564 703.068 692.774 687.357 675.818 665.111 657.182 646.733 638.712 634.748 631.302 627.264 623.882 621.759 622.362 622.856 623.462 619.410 616.673 610.736 608.912 605.354 600.707 594.090 588.336 581.128 571.356 561.841 545.540 537.054 532.660 526.036 521.357 520.029 514.649 506.299 501.443 493.088 482.493 474.235 468.156 462.207 458.974 455.437 453.279 452.311 455.189 448.110 442.220 436.706 425.771 416.839 413.147 410.467 407.326 404.988 399.003 398.278 394.894 389.434 385.896 381.976 379.095 375.414 374.935 374.373 374.640 374.895 375.326 375.547 374.475 375.717 375.431 375.262 375.199 375.502 375.439 374.823 378.753 387.196 395.193 403.387 406.778 412.290 415.934 419.859 424.511 429.130 431.194 431.206 435.034 438.539 438.315 441.690 446.601 454.255 458.997 462.790 464.195 466.655 468.921 470.679 475.900 480.181 483.860 486.522 491.222 493.693 498.760 502.172 503.263 501.460 506.293 508.701 511.816 514.107 517.622 510.632 518.289 526.968 531.207 533.549 535.161 536.783 538.562 540.732 541.607 544.376 548.513 554.046 560.068 559.041 559.957 562.085 567.646 573.603 580.296 587.277 591.903 603.736 614.621 627.039 647.512 657.009 658.173 658.551 652.091 666.253 682.555 694.111 697.467 699.085 707.189 718.946 728.645 739.836 753.613 769.018 786.444 814.368 831.364 842.540 845.543 848.621 859.841 864.032
1733.620 1733.367 1743.587 1771.967 1776.546 1785.827 1796.147 1801.252 1806.299 1807.686 1816.299 1811.694 1803.551 1805.584 1802.683 1801.065 1801.641 1807.385 1814.874 1813.973 1811.931 1813.298 1815.622 1817.516 1816.164 1810.212 1809.177 1811.553 1814.982 1819.986 1826.493 1844.425 1874.057 1895.653 1925.803 1947.799 1944.083 1927.909 1909.375 1891.117 1877.041 1867.340 1854.446 1847.500 1839.945 1831.895 1827.702 1817.953 1799.299 1785.919 1776.259 1761.877 1757.731 1754.984 1752.238 1743.252 1721.555 1707.595 1689.477 1667.348 1651.648 1640.982 1632.745 1623.727 1615.014 1604.014 1589.119 1576.130 1561.392 1549.977 1540.140 1530.588 1522.480 1513.615 1507.904 1501.411 1497.646 1489.897 1486.810 1481.407 1473.883 1465.130 1457.273 1452.960 1447.183 1429.936 1420.274 1407.312 1391.710 1378.885 1364.559 1349.437 1335.152 1320.181 1306.829 1296.576 1285.118 1272.394 1259.053 1248.790 1240.864 1230.807 1215.191 1203.766 1190.750 1175.586 1161.240 1144.914 1138.326 1132.344 1127.031 1119.807 1110.339 1100.507 1086.485 1068.489 1053.644 1043.841 1035.604 1034.628 1035.183 1032.909 1028.904 1023.070 1017.202 1010.374 1005.817 997.822 991.628 986.115 979.993 973.118 968.375 962.156 956.468 949.562 933.168 920.307 911.546 904.494 901.334 898.828 895.194 888.790 886.216 884.053 878.169 878.121 876.599 876.602 874.940 873.373 872.295 872.118 864.826 859.455 857.461 853.550 848.826 844.378 838.372 835.995 827.988 819.884 811.084 808.077 806.490 805.956 802.163 793.340 784.425 774.410 768.750 761.590 750.262 733.473 719.401 716.347 717.776 717.002 717.637 718.941 714.945 713.889 709.053 701.468 696.969 687.429 681.418 670.881 661.826 652.560 644.600 641.229 637.247 633.550 629.298 626.578 626.253 627.889 629.618 630.561 628.741 623.330 617.622 613.161 608.708 601.470 594.268 587.738 580.768 573.362 565.184 555.443 542.395 537.152 529.801 523.372 521.408 515.737 508.671 502.508 495.631 488.477 479.003 473.635 464.875 460.130 457.380 454.824 453.117 455.958 449.047 441.168 434.061 424.462 416.615 412.756 409.814 406.907 404.511 398.743 397.525 392.179 387.816 386.789 386.293 384.730 379.222 378.639 375.518 375.430 375.268 377.184 376.839 374.501 376.524 375.891 375.755 376.156 375.561 375.850 375.245 376.705 386.808 394.114 401.090 405.929 409.765 414.278 419.010 422.071 427.135 430.617 430.038 432.983 438.409 439.030 440.046 446.149 453.300 457.030 461.896 463.871 464.237 465.089 465.979 471.466 476.412 481.790 484.816 488.348 491.218 494.034 495.428 497.423 497.625 501.098 505.994 503.037 508.330 503.275 509.746 520.121 525.041 528.133 531.008 533.597 534.967 536.005 538.127 538.351 539.456 545.297 552.675 557.712 557.191 558.564 562.757 566.294 571.014 577.545 582.041 593.912 610.975 628.163 643.699 655.216 653.914 650.157 647.088 646.508 662.825 677.711 684.539 688.789 696.065 707.150 720.127 728.229 738.099 759.016 778.420 799.756 820.035 826.616 825.089 828.469 831.822 843.517 851.031
1723.747 1726.966 1739.011 1766.990 1770.826 1779.440 1785.867 1794.230 1799.815 1807.136 1812.187 1804.976 1797.778 1802.109 1798.301 1792.457 1794.801 1799.830 1807.393 1808.718 1806.229 1806.572 1808.934 1809.334 1807.148 1799.475 1799.061 1801.664 1803.818 1809.547 1816.722 1828.826 1842.118 1864.695 1917.899 1946.816 1940.963 1925.707 1908.946 1889.289 1873.309 1861.951 1852.908 1841.815 1836.406 1830.243 1823.236 1814.122 1797.389 1786.517 1774.547 1758.223 1751.095 1749.923 1743.591 1730.581 1716.703 1704.515 1688.092 1668.572 1648.667 1637.432 1628.167 1616.416 1607.047 1593.694 1579.266 1566.408 1551.937 1542.423 1532.669 1524.959 1518.548 1509.084 1503.230 1497.744 1492.626 1486.674 1481.303 1476.234 1469.357 1466.392 1459.595 1453.171 1443.210 1431.500 1417.470 1410.448 1403.014 1388.720 1375.397 1355.697 1341.028 1325.524 1309.616 1299.359 1291.460 1279.279 1266.486 1251.440 1240.807 1233.700 1223.222 1209.269 1194.215 1179.579 1165.145 1147.269 1135.018 1129.143 1123.578 1117.443 1109.500 1094.556 1081.583 1067.465 1057.139 1043.756 1034.257 1031.849 1029.563 1028.359 1025.705 1022.189 1016.992 1008.811 1002.146 993.631 989.296 983.415 975.485 970.254 963.529 958.040 952.398 940.345 925.046 917.885 911.636 905.972 901.674 899.258 895.570 892.416 887.803 883.338 881.984 883.358 883.020 881.200 876.989 874.413 874.232 871.323 865.546 859.864 857.602 854.092 850.614 845.417 839.771 833.157 825.141 816.539 815.188 814.388 812.594 808.817 803.189 791.440 781.811 781.067 776.898 769.163 757.268 736.943 721.818 718.736 718.566 719.528 718.012 715.745 713.790 709.287 704.640 700.477 695.175 691.102 679.469 668.432 656.832 651.424 646.836 642.893 638.811 635.519 631.587 629.552 631.794 633.505 637.331 636.582 631.484 625.639 618.682 613.672 608.724 602.489 595.254 588.738 583.302 577.506 570.896 561.366 547.676 542.477 534.703 528.143 525.143 519.521 512.109 504.936 494.790 490.475 482.296 477.327 472.697 462.223 460.847 456.818 454.701 455.623 450.883 443.924 436.841 426.619 418.431 411.805 410.340 405.674 403.453 400.213 393.738 391.587 387.573 385.728 385.033 385.043 384.469 379.136 377.447 376.180 375.610 377.167 377.237 377.454 374.971 377.254 376.147 376.236 376.107 375.774 375.647 377.840 385.357 395.160 399.916 405.495 408.283 413.031 418.087 419.980 421.322 425.163 427.739 429.560 432.432 434.074 440.147 443.627 450.388 453.692 457.441 459.679 459.433 459.046 461.018 467.549 475.341 479.911 484.826 487.145 489.769 491.243 491.103 489.051 493.605 497.949 490.842 488.012 494.629 504.222 515.521 519.494 522.236 525.352 530.923 532.902 533.333 533.399 534.087 536.100 541.697 544.151 548.743 553.283 553.913 555.950 559.515 565.508 570.969 577.007 589.051 602.627 616.921 632.276 651.091 646.355 640.872 639.983 635.081 641.048 657.759 670.254 674.334 680.785 687.462 699.092 712.124 721.580 733.221 758.908 780.259 800.832 811.187 808.512 810.451 809.601 818.571 833.445 851.670
1711.069 1720.706 1732.177 1755.490 1764.494 1770.435 1779.530 1786.545 1794.493 1802.074 1804.619 1800.432 1796.423 1797.571 1793.474 1785.860 1787.161 1790.756 1795.830 1798.456 1799.734 1799.896 1797.114 1799.305 1797.126 1791.072 1790.639 1792.065 1794.338 1799.348 1806.185 1815.986 1827.146 1848.969 1877.453 1928.953 1932.460 1917.595 1901.008 1883.233 1868.974 1855.651 1843.484 1836.151 1830.666 1824.764 1818.041 1808.721 1795.128 1779.178 1767.816 1754.804 1749.808 1750.217 1736.972 1723.234 1709.021 1697.983 1688.668 1673.658 1650.470 1635.156 1623.836 1609.628 1596.161 1582.197 1568.048 1557.774 1546.946 1537.441 1526.834 1522.169 1515.033 1506.770 1503.006 1495.794 1490.877 1485.347 1481.256 1476.070 1470.993 1466.606 1461.771 1453.614 1449.179 1429.513 1418.176 1409.712 1398.710 1386.910 1377.626 1363.830 1347.280 1329.905 1313.208 1300.486 1287.991 1281.667 1267.709 1257.727 1245.321 1231.572 1220.537 1206.326 1192.847 1179.721 1163.591 1145.970 1134.887 1123.313 1119.303 1115.036 1107.943 1094.698 1082.332 1069.532 1058.266 1047.163 1034.583 1026.789 1023.800 1023.122 1022.109 1018.306 1011.787 1002.867 998.288 995.267 986.820 979.984 971.737 966.288 960.739 953.345 949.052 934.072 919.356 916.196 912.478 910.029 903.606 901.692 898.229 895.551 892.164 887.229 885.988 889.086 885.359 884.564 878.944 876.696 875.402 873.762 867.302 861.575 859.561 856.059 850.113 843.596 835.886 827.754 822.015 822.403 820.056 818.305 812.046 808.536 797.536 788.900 787.582 784.866 778.931 769.891 759.914 743.033 729.422 728.236 730.625 729.393 727.620 727.757 721.601 718.101 708.407 698.166 695.209 689.135 678.943 665.475 658.456 653.463 649.672 645.671 642.396 637.501 633.012 631.977 635.699 638.270 638.462 634.950 629.990 623.608 617.136 611.620 607.784 603.966 599.205 592.050 587.934 581.081 571.853 561.682 551.025 547.337 537.307 532.072 527.869 522.100 515.511 508.010 498.469 491.177 483.445 478.625 473.191 470.760 467.264 459.858 455.229 455.464 448.841 445.467 436.010 425.917 418.940 412.265 410.028 404.615 402.091 399.104 394.614 391.888 386.234 384.242 383.567 383.836 383.042 380.326 378.768 377.288 376.878 377.218 377.228 378.100 378.539 375.296 375.655 377.062 376.620 376.405 376.039 377.920 385.526 393.407 398.748 402.581 409.062 413.687 416.888 418.504 419.082 423.688 425.685 427.233 431.900 430.769 436.865 442.764 445.975 449.930 452.283 453.953 454.695 457.355 461.046 466.852 472.970 479.190 484.073 485.004 486.333 487.191 484.358 486.590 486.302 485.712 483.850 496.394 494.458 501.116 504.913 511.431 515.744 522.218 528.963 532.214 531.619 531.487 532.196 535.672 538.738 542.992 544.813 547.381 550.474 551.675 555.709 560.858 567.805 577.215 592.762 605.249 618.745 628.525 639.870 633.805 631.909 628.033 623.274 642.210 655.869 662.673 667.113 673.355 681.243 691.977 703.300 708.947 724.323 767.192 787.514 788.354 795.791 784.617 793.917 801.043 813.723 830.564 842.617
1705.825 1716.380 1725.545 1747.178 1759.587 1768.206 1774.674 1779.617 1790.362 1796.611 1801.590 1793.975 1793.337 1791.628 1785.445 1777.923 1779.265 1776.216 1782.148 1788.370 1788.207 1792.852 1789.365 1790.022 1787.762 1784.476 1783.444 1783.323 1784.698 1788.918 1794.709 1805.673 1815.185 1827.230 1859.901 1909.241 1920.868 1914.854 1899.133 1881.032 1862.843 1849.984 1838.394 1832.621 1827.891 1819.956 1811.648 1804.659 1792.183 1779.118 1766.037 1757.736 1749.481 1739.571 1729.211 1721.075 1706.143 1697.229 1684.530 1667.179 1648.847 1635.606 1617.613 1600.153 1586.064 1573.808 1563.718 1550.813 1540.807 1532.906 1522.424 1513.917 1506.383 1501.503 1495.317 1490.348 1486.363 1482.762 1479.335 1473.643 1472.617 1467.295 1464.127 1455.678 1448.151 1431.683 1415.788 1402.013 1388.072 1377.668 1373.516 1361.841 1350.651 1333.718 1316.545 1303.797 1289.989 1277.592 1266.482 1257.534 1244.280 1232.869 1218.993 1207.844 1195.377 1181.088 1162.284 1148.866 1135.893 1128.465 1116.675 1113.379 1105.679 1092.725 1081.615 1067.906 1054.930 1040.538 1028.557 1022.555 1019.846 1019.006 1017.539 1011.866 1006.189 1000.413 995.333 989.944 980.261 972.194 966.960 963.219 955.262 951.539 947.523 933.647 922.043 916.698 914.095 912.293 904.683 904.459 905.871 898.001 895.591 893.534 892.363 889.433 888.565 889.367 883.233 882.104 877.293 872.734 868.223 861.468 858.069 854.628 849.048 841.021 829.804 825.993 825.975 824.451 821.563 816.371 811.306 800.961 796.447 794.403 792.596 787.651 780.266 770.004 757.499 743.401 733.163 733.257 733.192 732.577 729.996 729.616 726.157 723.073 715.842 703.943 691.255 682.446 672.174 665.116 660.344 656.255 653.877 648.663 644.138 636.597 633.921 635.616 637.858 638.816 637.220 631.888 628.663 619.480 613.409 609.644 606.633 604.168 599.420 594.215 589.234 583.258 573.271 564.538 555.964 550.412 540.048 532.553 529.251 523.148 519.170 511.724 503.504 494.623 488.481 482.536 475.849 473.386 471.300 463.317 460.271 454.917 448.979 446.113 438.712 427.686 419.078 412.828 407.070 403.198 399.919 396.236 394.384 390.654 386.926 384.516 384.144 383.361 382.737 382.260 383.560 379.244 377.320 377.271 377.534 377.593 378.175 377.888 375.900 375.605 378.261 376.813 376.732 377.418 385.777 392.329 396.339 400.660 406.451 412.292 415.869 417.420 419.824 425.272 424.440 426.276 429.152 433.641 437.651 441.270 440.788 445.064 448.909 450.490 450.853 455.409 460.113 465.307 467.882 473.766 478.288 481.683 483.399 481.803 481.854 484.773 486.174 480.784 483.803 487.136 493.541 499.088 502.580 508.960 513.741 522.759 526.161 528.869 529.055 529.042 530.339 532.815 533.701 538.822 540.796 544.784 548.021 549.730 554.615 559.905 570.131 583.240 599.493 606.820 613.794 627.890 627.908 624.437 624.607 617.816 628.561 639.140 653.414 654.831 658.180 664.727 672.185 675.322 682.611 701.542 744.080 766.344 767.385 769.686 774.344 791.003 801.114 811.243 811.435 825.877 843.001
1701.089 1711.278 1719.498 1736.195 1753.556 1762.709 1769.020 1772.310 1781.913 1790.138 1793.395 1790.062 1789.109 1785.727 1779.985 1771.722 1771.003 1765.479 1771.125 1778.623 1779.403 1780.770 1780.565 1780.441 1780.210 1779.885 1776.048 1775.536 1777.174 1779.634 1787.009 1796.156 1805.721 1818.688 1842.620 1868.458 1907.530 1911.970 1898.407 1879.733 1862.061 1845.055 1831.958 1827.291 1817.397 1812.037 1803.732 1795.571 1790.034 1784.877 1769.114 1754.599 1749.324 1734.240 1726.055 1721.169 1704.215 1695.302 1681.919 1667.034 1644.727 1630.969 1612.982 1597.214 1581.681 1568.218 1556.497 1545.708 1535.129 1528.887 1516.116 1508.432 1498.354 1493.602 1488.442 1486.566 1484.048 1479.879 1479.111 1475.174 1469.524 1469.462 1463.069 1455.974 1446.175 1429.166 1412.727 1395.943 1383.553 1371.684 1365.864 1356.202 1344.246 1334.656 1322.618 1305.688 1290.339 1277.111 1266.405 1258.508 1244.143 1231.330 1218.262 1205.558 1191.957 1178.439 1163.085 1145.490 1133.468 1126.770 1116.490 1110.833 1102.440 1094.446 1080.565 1069.154 1055.630 1043.416 1033.384 1019.334 1016.969 1012.902 1010.608 1008.502 1003.400 997.548 992.580 986.915 981.302 973.046 965.710 959.354 953.329 949.822 949.229 946.225 934.074 926.546 920.817 917.549 913.497 912.522 910.106 906.939 903.992 900.581 894.723 892.558 889.938 886.447 883.641 882.797 877.934 874.672 868.382 863.724 857.895 851.287 842.393 834.561 828.583 826.233 825.867 823.335 819.464 807.738 801.283 799.121 797.910 795.862 792.562 786.031 776.992 766.880 752.520 739.882 736.027 733.258 732.041 730.771 729.705 727.060 723.779 717.384 708.002 698.297 686.848 680.039 674.291 670.563 666.349 664.560 659.141 652.159 641.623 638.772 635.165 636.521 637.216 635.991 632.721 628.287 623.929 616.201 611.012 605.655 602.597 600.523 596.946 592.589 587.612 583.166 576.012 564.845 558.357 552.588 540.577 531.427 526.732 523.460 519.000 513.056 507.206 498.644 492.187 484.658 478.786 475.261 473.924 470.447 467.681 461.082 453.025 447.287 438.703 428.419 420.164 414.194 407.091 405.732 402.990 397.691 393.956 390.688 387.213 386.448 384.654 384.948 386.820 386.841 386.452 388.941 379.429 377.576 377.337 377.424 377.552 377.849 377.791 378.092 375.997 376.780 377.356 378.118 384.472 392.369 397.307 399.884 404.177 409.710 414.919 416.249 418.323 423.315 423.667 424.822 430.220 435.087 440.738 442.046 440.234 442.621 447.396 447.836 450.221 452.820 457.314 460.164 463.630 468.978 473.708 477.707 478.534 476.519 478.860 482.401 479.335 473.409 477.759 482.341 489.079 494.433 498.903 505.576 513.799 520.155 522.613 523.451 526.682 526.975 528.046 526.229 530.361 535.140 538.628 542.660 545.303 548.750 555.127 563.558 575.387 586.607 592.163 595.111 602.544 620.753 620.193 618.786 617.747 610.535 625.980 638.076 642.784 642.049 648.823 656.489 674.378 685.726 695.999 734.281 743.372 749.570 777.812 790.163 799.368 808.392 814.335 822.496 827.345 825.115 844.618
1701.089 1704.373 1713.402 1728.784 1749.787 1758.631 1766.749 1769.167 1775.491 1783.166 1785.065 1785.910 1780.808 1777.418 1772.979 1765.287 1763.812 1757.425 1762.087 1767.350 1770.573 1769.488 1768.007 1767.576 1772.871 1772.642 1768.115 1768.312 1769.343 1771.048 1778.645 1787.041 1800.172 1814.070 1830.137 1871.810 1891.888 1895.799 1898.672 1883.019 1863.269 1846.483 1831.416 1819.552 1812.877 1806.466 1800.682 1787.742 1783.851 1780.005 1767.194 1753.903 1739.424 1728.455 1719.895 1713.433 1698.090 1692.287 1680.288 1662.464 1643.527 1626.899 1607.940 1591.406 1576.517 1563.700 1552.180 1543.865 1533.603 1523.826 1515.323 1506.976 1496.278 1489.920 1485.672 1480.168 1478.593 1478.645 1476.148 1471.725 1466.106 1463.102 1461.032 1454.589 1447.019 1434.300 1419.825 1392.901 1379.687 1368.671 1360.337 1353.125 1342.283 1331.778 1321.034 1310.264 1292.778 1278.781 1269.162 1257.876 1241.607 1228.365 1217.762 1207.302 1193.829 1180.362 1165.537 1146.857 1132.763 1125.572 1116.582 1110.588 1103.050 1095.523 1082.828 1070.405 1058.369 1045.291 1031.277 1017.642 1014.082 1007.587 1004.790 1003.841 999.480 995.255 987.876 982.953 979.484 972.174 965.649 958.245 953.876 951.886 951.065 952.483 943.254 937.033 931.814 925.920 920.028 914.770 914.623 913.147 910.757 907.584 900.096 897.282 894.448 892.189 888.132 885.671 881.102 877.042 870.387 863.012 853.466 846.410 840.332 833.140 832.403 829.693 827.178 824.661 820.186 807.057 802.456 802.296 800.611 796.925 790.689 782.456 769.167 755.953 744.417 744.405 740.915 740.448 735.984 731.403 727.890 721.033 714.262 708.000 701.863 696.024 693.400 687.180 682.695 679.075 674.441 669.415 661.945 649.603 645.229 641.083 637.533 637.571 636.384 634.043 630.491 626.417 620.823 614.161 607.160 603.128 600.099 597.656 597.011 593.720 590.938 585.322 576.144 565.548 560.164 552.958 543.746 531.243 525.172 524.056 519.851 514.165 505.013 499.790 494.476 485.609 479.672 477.503 473.902 468.711 467.260 462.916 455.587 450.256 440.751 432.136 424.690 415.656 409.698 406.761 405.524 404.094 399.459 393.609 389.374 386.744 386.720 384.912 386.019 387.683 389.500 392.124 387.429 378.853 377.564 377.406 377.473 377.779 377.990 378.195 378.229 376.566 376.679 378.967 382.844 391.427 398.272 400.525 402.455 405.947 412.978 412.520 417.244 419.616 421.620 423.211 426.943 429.880 435.693 440.962 441.026 442.193 445.808 447.786 449.142 451.489 454.867 457.358 461.353 463.664 467.374 470.348 469.627 471.179 471.915 476.456 470.055 467.823 474.093 480.426 485.983 490.490 496.096 505.401 510.965 516.790 519.578 521.481 521.994 522.295 523.795 523.932 525.589 532.310 534.010 537.906 540.843 545.926 555.309 569.623 574.605 576.987 579.083 582.124 593.031 612.222 610.813 609.370 604.025 603.943 620.962 628.468 634.440 649.524 666.963 679.764 701.894 714.176 731.555 762.740 774.833 787.635 791.577 804.016 815.328 824.835 829.432 837.737 840.900 841.040 836.603
1701.089 1701.090 1709.346 1721.027 1743.182 1754.503 1762.552 1764.261 1767.655 1776.625 1777.998 1780.828 1776.516 1770.812 1765.213 1758.414 1756.719 1751.063 1754.161 1755.246 1756.354 1756.254 1755.874 1759.672 1766.264 1765.184 1762.824 1761.995 1762.638 1766.326 1771.215 1781.782 1792.636 1804.287 1812.812 1830.364 1878.089 1880.557 1889.508 1883.558 1867.872 1848.008 1833.909 1822.470 1810.985 1803.986 1797.972 1788.311 1783.934 1783.040 1769.369 1749.487 1739.932 1724.967 1717.614 1708.884 1696.716 1689.470 1674.353 1659.321 1641.807 1624.456 1606.587 1588.368 1572.305 1560.188 1550.520 1542.852 1533.690 1524.427 1515.795 1506.248 1496.317 1491.490 1485.459 1480.590 1481.355 1473.494 1471.196 1468.485 1464.798 1459.083 1463.445 1453.393 1442.936 1432.410 1418.899 1391.790 1377.705 1365.544 1357.544 1348.509 1335.313 1325.135 1313.788 1303.436 1288.735 1280.050 1269.067 1257.692 1243.257 1231.387 1222.475 1206.670 1193.936 1180.921 1166.574 1150.749 1135.107 1123.601 1116.157 1112.306 1103.023 1094.068 1084.442 1072.697 1060.116 1051.148 1032.570 1019.100 1010.280 1007.067 999.758 995.083 994.883 992.012 986.631 983.226 975.057 971.321 962.292 960.931 959.748 961.265 956.570 955.600 949.423 944.781 938.254 930.683 922.897 917.519 917.508 916.237 915.091 911.006 906.231 900.700 898.638 895.289 892.283 888.520 883.464 874.966 866.092 858.370 851.619 845.781 842.594 838.111 833.239 827.986 823.809 822.254 818.577 809.058 803.942 803.410 801.219 794.175 786.695 774.877 758.949 751.983 750.240 748.397 747.819 746.332 744.090 741.330 735.999 729.515 723.945 716.859 712.075 707.948 704.646 697.902 692.941 687.517 679.405 669.131 661.487 657.009 650.313 645.922 644.477 640.609 636.737 633.843 629.013 623.253 616.718 608.548 603.547 598.601 597.508 597.248 595.786 594.311 587.262 581.052 571.147 562.847 557.305 551.944 542.258 531.918 526.528 524.571 520.012 514.335 503.160 498.161 494.429 487.753 483.482 481.207 476.214 471.504 468.608 464.988 458.661 455.115 446.483 439.636 434.181 423.838 417.242 415.260 412.747 407.840 403.278 401.655 395.644 388.964 386.111 384.323 384.216 387.397 390.676 393.042 393.060 389.913 380.370 377.676 377.726 377.679 378.815 378.044 378.323 378.522 378.946 377.095 380.822 391.046 398.318 400.910 401.363 405.224 409.301 411.100 413.027 417.404 419.812 422.697 424.015 428.445 430.073 438.038 440.289 441.618 444.342 446.391 447.707 450.367 453.550 455.798 457.293 458.221 459.801 460.960 462.812 461.649 465.524 465.952 459.360 468.221 471.588 478.752 484.281 489.922 497.425 503.900 508.998 513.392 517.617 519.613 520.046 517.482 515.993 516.318 518.717 524.668 528.605 530.686 535.690 543.886 553.803 561.535 563.564 565.865 565.426 575.105 593.208 604.540 597.796 594.450 587.373 598.601 624.706 640.103 648.031 659.272 675.057 691.770 708.927 724.574 745.681 764.236 775.741 788.775 800.417 813.289 825.690 836.574 843.595 852.547 861.794 857.311 857.204
1701.089 1701.089 1705.448 1715.840 1736.018 1748.138 1757.974 1763.024 1761.252 1765.896 1770.672 1772.068 1772.573 1762.991 1755.405 1751.525 1748.494 1744.087 1745.396 1745.052 1746.485 1749.187 1750.509 1755.730 1760.896 1760.693 1758.231 1757.809 1757.646 1760.581 1764.385 1772.609 1781.381 1792.795 1802.359 1817.840 1853.230 1866.876 1871.713 1876.630 1867.142 1847.958 1833.081 1823.043 1815.168 1800.546 1798.388 1789.983 1785.156 1777.928 1764.502 1746.929 1735.306 1725.201 1717.797 1706.104 1694.100 1686.794 1670.160 1652.959 1638.739 1619.963 1601.729 1584.329 1570.775 1557.651 1547.561 1540.265 1539.702 1533.025 1523.704 1512.525 1503.290 1495.618 1489.311 1483.580 1481.312 1475.039 1472.482 1469.419 1464.799 1457.787 1456.084 1452.456 1441.738 1434.039 1417.966 1389.113 1375.557 1362.767 1353.839 1345.267 1328.452 1313.883 1303.937 1295.187 1285.214 1281.801 1268.663 1255.809 1244.894 1230.729 1221.651 1203.830 1192.477 1176.558 1163.510 1150.640 1134.127 1122.508 1116.358 1109.794 1102.761 1093.563 1084.316 1072.886 1062.036 1045.680 1025.797 1011.662 1005.299 997.566 990.569 987.580 985.751 983.967 983.990 982.464 977.453 974.446 965.754 965.214 964.036 966.993 966.827 954.199 953.244 948.300 943.073 936.484 928.716 922.142 919.401 916.762 917.332 915.695 908.949 903.682 901.731 897.240 892.291 884.108 877.775 870.696 864.400 857.548 854.130 849.458 842.536 835.603 831.305 823.864 817.148 816.327 814.469 804.383 803.553 800.069 794.890 785.922 773.413 761.494 758.513 757.557 758.032 756.930 757.314 756.220 753.161 749.252 744.090 740.280 737.094 732.921 730.558 723.000 718.507 710.200 701.834 693.389 683.810 674.222 665.607 660.019 653.772 649.305 645.635 642.410 637.165 630.293 622.631 616.032 611.400 606.504 601.362 597.725 596.532 594.946 592.865 590.661 579.685 572.518 564.045 557.498 552.409 548.398 540.848 535.797 528.478 527.233 523.281 515.652 506.600 498.363 494.220 487.971 485.849 483.957 477.391 473.648 469.620 468.067 463.712 458.400 453.267 445.569 440.019 432.418 425.619 422.991 420.447 414.981 409.375 406.794 401.963 397.465 389.797 385.213 384.147 385.288 388.042 390.579 392.625 396.019 391.142 383.699 380.322 380.552 380.992 380.456 378.266 378.437 378.828 379.387 377.498 382.597 390.712 399.268 400.841 404.190 407.193 409.557 412.196 415.707 418.010 420.681 424.117 427.132 430.393 436.888 439.351 440.386 442.681 445.267 446.580 447.458 449.086 450.717 451.738 454.854 454.593 452.152 453.395 458.100 460.409 456.391 458.205 467.401 468.331 473.851 482.538 488.878 495.089 502.018 507.171 510.231 514.152 516.785 518.948 517.544 513.952 511.819 512.226 518.964 520.397 523.427 528.912 539.029 548.596 551.421 551.224 549.995 554.155 571.581 590.261 597.414 583.401 579.933 600.618 619.234 628.655 642.851 654.321 665.531 678.814 694.752 712.440 729.918 751.207 764.084 776.501 790.561 804.869 816.779 828.578 839.334 851.558 861.839 872.916 871.873 871.812
1701.089 1701.089 1701.668 1710.053 1731.884 1740.481 1748.397 1757.102 1753.045 1754.183 1760.438 1763.805 1763.579 1752.222 1747.650 1744.717 1743.455 1737.162 1739.867 1737.942 1741.654 1744.940 1748.012 1753.816 1757.102 1754.401 1752.855 1752.987 1754.061 1754.175 1756.399 1763.572 1772.469 1782.281 1794.434 1805.450 1826.833 1838.627 1856.297 1868.303 1870.590 1851.743 1835.336 1824.490 1819.568 1808.775 1801.052 1789.621 1781.604 1773.489 1759.132 1744.633 1732.204 1723.196 1717.039 1701.799 1692.217 1678.562 1659.405 1647.165 1633.423 1615.901 1598.066 1581.476 1568.275 1557.685 1547.986 1541.611 1551.345 1545.580 1529.251 1520.370 1509.571 1500.944 1492.863 1485.516 1479.988 1474.658 1472.007 1467.953 1461.819 1456.770 1453.022 1449.983 1444.973 1428.743 1416.437 1389.432 1371.655 1360.217 1350.100 1338.611 1323.866 1308.033 1295.781 1291.243 1287.617 1282.496 1268.744 1259.028 1248.401 1230.921 1220.593 1206.237 1188.525 1177.121 1164.339 1152.826 1136.942 1122.596 1114.608 1109.438 1097.742 1092.037 1086.896 1071.801 1060.814 1040.789 1020.676 1010.301 1007.717 994.543 988.505 985.154 983.742 982.770 982.021 981.046 980.849 975.590 972.390 972.299 968.799 971.041 970.859 960.565 955.844 951.297 944.632 938.936 929.284 925.553 926.356 919.158 920.947 918.100 911.943 906.009 899.387 894.699 889.695 882.152 876.284 870.438 866.129 860.271 854.984 848.743 841.764 836.400 824.651 817.611 815.043 811.221 807.126 802.632 798.152 791.434 781.025 769.051 766.804 765.255 765.064 765.454 766.364 766.717 765.378 765.829 760.939 757.599 754.185 753.787 748.553 741.829 741.380 735.743 730.144 718.734 706.984 697.161 686.156 677.818 670.378 665.037 660.274 652.342 643.030 640.274 634.713 628.767 620.112 612.758 607.434 601.334 596.090 591.392 589.423 587.891 585.245 581.906 572.216 561.711 554.878 551.772 548.689 544.203 540.204 539.203 531.713 529.818 517.458 508.888 500.971 497.202 493.793 490.239 487.827 484.683 480.852 477.674 475.072 474.644 468.819 465.521 459.493 452.470 446.487 437.875 430.153 424.762 421.632 421.214 412.759 409.277 406.363 400.931 394.751 388.353 385.053 384.049 385.350 388.723 391.624 396.024 396.938 394.925 391.644 386.673 384.459 384.307 379.764 378.468 378.604 379.096 379.757 379.192 386.413 393.932 397.228 404.022 406.246 405.652 408.920 412.571 417.885 421.686 423.452 426.526 428.322 433.916 436.307 438.690 439.447 443.966 441.409 442.002 444.191 445.117 446.183 448.483 446.894 446.463 452.291 453.022 450.489 447.158 458.243 460.855 468.282 470.544 478.051 487.433 493.554 500.271 505.007 507.276 510.137 515.766 518.930 516.499 512.879 510.341 509.446 511.874 514.719 516.585 524.568 534.967 537.565 535.583 535.225 538.422 550.617 570.555 582.841 588.878 578.835 599.581 612.647 626.644 639.077 649.064 659.762 672.534 684.527 701.382 720.680 738.600 751.010 762.703 777.722 791.855 805.600 816.236 830.119 842.605 853.943 866.302 879.409 885.350 887.782
1701.089 1701.089 1701.089 1705.383 1722.732 1731.935 1741.410 1747.189 1745.121 1743.162 1745.643 1748.129 1747.438 1743.212 1741.530 1736.251 1733.391 1728.696 1731.090 1732.408 1736.577 1744.073 1751.008 1754.023 1753.849 1750.403 1749.580 1748.826 1748.477 1747.039 1750.654 1758.008 1764.170 1772.816 1783.214 1795.882 1803.589 1821.956 1841.887 1853.437 1863.022 1846.730 1837.551 1832.509 1821.325 1814.729 1798.822 1789.532 1785.586 1770.482 1757.625 1742.934 1729.488 1720.736 1711.568 1699.953 1685.373 1664.937 1651.489 1638.192 1626.463 1613.333 1594.906 1578.952 1565.900 1560.028 1550.752 1546.388 1548.289 1545.472 1542.536 1527.471 1517.504 1504.874 1497.102 1488.471 1481.795 1475.347 1469.831 1465.564 1462.905 1457.072 1450.870 1447.768 1440.873 1426.713 1410.668 1389.769 1373.001 1359.330 1347.935 1335.168 1323.301 1303.798 1296.016 1294.216 1289.351 1278.603 1267.152 1256.482 1245.461 1230.157 1219.031 1205.583 1192.006 1178.210 1163.200 1151.604 1139.603 1123.780 1115.005 1107.178 1097.983 1090.998 1080.554 1068.776 1052.887 1038.459 1024.693 1020.778 1016.476 1000.520 989.969 983.401 983.966 988.177 986.824 987.579 983.806 982.573 980.782 977.024 974.209 974.831 972.225 967.236 960.081 955.334 949.699 944.912 934.702 935.494 931.741 929.351 926.135 920.458 914.280 907.358 901.209 892.072 885.448 878.830 872.233 867.921 863.295 858.477 859.531 849.588 842.582 833.828 821.866 814.083 807.982 802.517 800.163 797.032 787.956 776.548 773.430 773.592 774.386 774.015 774.495 775.925 779.516 778.110 775.997 777.603 774.854 774.227 771.046 769.344 765.771 759.087 756.262 750.315 743.953 738.319 718.211 705.666 693.533 681.145 676.068 671.390 663.536 650.743 639.682 631.447 623.817 619.392 611.295 607.341 600.568 594.780 588.801 584.527 583.314 580.866 578.605 573.685 564.765 555.068 550.861 548.446 546.395 543.277 540.333 538.262 534.871 529.299 516.146 505.439 497.414 495.831 493.108 492.072 489.773 485.561 484.541 482.513 478.855 478.915 475.926 467.655 464.002 456.196 446.117 438.282 431.895 428.708 422.234 422.074 414.585 416.087 411.139 405.544 398.233 391.078 385.917 384.743 384.569 386.906 390.828 392.967 394.358 396.624 397.049 390.493 384.186 384.321 384.122 378.852 378.762 378.777 379.232 378.041 381.020 388.957 395.318 399.693 403.394 404.580 407.825 413.420 419.541 420.957 421.096 425.597 427.892 429.412 432.520 435.161 438.159 438.429 436.938 436.702 438.120 440.763 442.506 443.952 441.537 443.987 445.838 441.478 441.756 449.427 453.272 461.135 465.707 469.766 476.227 483.420 490.331 495.967 499.879 503.423 506.428 513.564 518.310 517.114 513.410 509.892 508.134 509.776 512.385 515.356 521.493 528.257 523.716 517.903 518.255 524.319 539.395 557.718 571.169 577.644 574.356 599.079 612.425 627.405 642.766 658.283 667.224 680.627 693.465 707.815 724.356 735.893 749.465 762.952 773.071 787.191 801.602 812.924 826.893 837.566 851.212 864.755 879.501 891.974 900.863
1701.089 1701.089 1701.089 1701.094 1718.314 1727.899 1734.095 1739.173 1738.645 1735.169 1735.161 1743.092 1745.506 1736.210 1733.685 1729.048 1724.380 1717.983 1724.153 1725.562 1732.300 1742.464 1750.883 1751.577 1747.426 1743.035 1742.639 1741.695 1741.714 1741.217 1745.000 1749.685 1757.499 1763.111 1770.321 1785.805 1790.278 1799.168 1822.195 1836.203 1850.387 1844.805 1835.682 1834.049 1822.823 1814.865 1802.664 1791.290 1780.595 1769.246 1756.781 1740.582 1727.492 1716.850 1704.349 1689.594 1671.846 1655.618 1642.044 1632.082 1619.470 1608.024 1591.773 1575.456 1565.313 1558.537 1550.024 1541.732 1545.774 1547.661 1541.025 1531.194 1522.841 1511.554 1500.854 1491.370 1483.334 1476.426 1469.712 1464.597 1459.439 1453.320 1447.583 1444.669 1440.738 1429.531 1410.381 1392.498 1377.255 1358.228 1346.010 1334.568 1324.714 1309.308 1302.841 1297.737 1291.608 1282.237 1268.041 1257.822 1245.688 1232.296 1217.292 1206.360 1193.725 1179.062 1163.345 1152.072 1137.787 1125.974 1113.704 1103.459 1096.057 1082.609 1071.980 1061.666 1052.209 1043.836 1035.281 1029.001 1022.685 1011.337 1000.422 996.593 996.748 998.465 996.214 995.565 991.634 986.380 985.250 981.820 978.661 975.159 972.881 972.070 962.862 958.292 953.587 951.148 944.755 940.620 936.488 932.563 929.437 923.655 914.994 905.746 895.508 886.104 883.823 882.110 876.105 875.086 871.921 866.787 857.373 846.871 841.169 833.156 817.340 807.893 800.916 795.477 791.575 786.113 783.642 781.191 781.349 786.382 788.653 793.056 789.765 791.293 793.935 792.994 797.595 809.494 793.143 790.891 787.484 786.965 780.224 775.043 772.943 765.832 774.809 758.976 735.494 716.053 700.215 688.841 680.338 673.460 665.012 652.862 641.583 634.868 625.045 618.689 613.375 610.891 603.893 599.154 591.964 583.383 579.554 572.605 569.761 564.237 558.296 552.547 549.648 547.612 546.324 544.977 542.311 541.470 540.880 535.638 519.047 500.074 493.208 492.832 492.692 491.495 489.696 487.230 486.477 484.974 482.253 481.045 476.689 471.242 464.342 456.761 446.583 439.358 436.171 431.935 425.543 423.559 422.935 419.114 417.151 409.379 400.422 391.792 386.716 385.516 386.084 386.633 389.855 393.157 393.964 395.302 397.098 397.168 386.010 384.504 384.428 384.414 379.094 378.894 379.379 380.136 378.605 381.920 391.979 397.006 400.165 404.529 409.250 413.769 417.182 417.790 418.464 419.937 419.191 422.521 427.791 432.449 434.210 432.687 431.879 434.095 435.983 437.018 437.188 438.400 437.190 437.639 438.268 439.141 440.956 445.125 452.729 461.052 465.036 469.873 475.349 480.930 485.437 492.633 495.904 499.024 504.542 509.315 517.270 517.192 514.872 511.882 507.476 505.948 507.969 512.897 517.591 521.378 509.927 516.552 531.151 540.119 553.848 546.330 561.405 569.169 586.099 598.934 606.928 624.253 642.235 657.371 667.116 681.084 694.201 704.092 716.772 730.037 745.039 758.538 771.242 782.837 796.167 811.303 826.507 840.587 854.402 868.681 881.864 895.037 908.225
1701.089 1701.089 1701.089 1701.089 1709.674 1717.620 1728.688 1729.259 1729.676 1729.879 1734.725 1739.240 1741.551 1730.344 1723.586 1720.779 1715.726 1712.717 1718.077 1716.830 1727.399 1741.385 1747.779 1746.684 1742.295 1739.516 1736.523 1731.506 1729.211 1733.109 1737.217 1741.630 1749.279 1755.317 1759.548 1771.273 1780.023 1786.527 1807.645 1822.700 1836.452 1845.220 1831.378 1828.118 1819.577 1818.983 1807.661 1788.074 1776.420 1764.422 1752.662 1738.235 1727.627 1710.917 1696.109 1683.202 1666.579 1648.580 1634.297 1623.986 1612.943 1604.178 1590.790 1575.779 1562.563 1558.005 1546.472 1542.400 1542.868 1544.881 1545.375 1532.896 1525.167 1514.358 1503.417 1495.221 1485.762 1477.259 1470.807 1464.488 1457.407 1452.043 1445.941 1445.509 1439.336 1426.087 1405.356 1391.330 1375.115 1356.158 1344.091 1330.791 1322.600 1310.842 1303.527 1299.083 1287.899 1278.972 1261.537 1255.485 1243.154 1230.702 1216.179 1206.777 1191.617 1178.040 1163.179 1150.626 1134.689 1120.758 1108.097 1101.235 1090.523 1082.382 1071.400 1063.611 1056.554 1046.902 1043.665 1038.383 1034.067 1024.199 1016.285 1010.986 1008.778 1006.986 1005.896 1003.771 1000.403 997.432 992.484 988.366 982.626 978.681 976.959 972.382 963.894 960.294 957.263 953.069 948.928 945.842 942.162 936.435 927.782 918.223 910.495 902.514 898.622 895.591 892.565 888.817 883.758 880.268 870.534 861.339 856.303 846.014 832.782 821.294 808.660 796.838 796.128 796.263 794.594 800.190 797.487 798.959 801.286 802.773 813.329 807.498 802.483 803.991 813.159 817.781 826.699 832.439 835.989 820.883 813.647 805.047 807.327 799.722 789.780 784.469 794.830 796.591 780.273 750.153 713.354 703.824 685.185 676.942 666.502 656.500 646.977 635.392 630.265 625.084 619.273 612.621 611.639 604.121 596.078 588.406 583.896 580.660 577.651 570.535 565.057 561.190 557.572 554.704 551.667 548.472 548.253 547.192 544.958 536.578 516.981 500.735 492.704 494.563 493.445 491.665 490.048 486.114 486.701 486.424 484.165 481.903 478.849 474.562 467.248 459.727 449.818 443.827 440.852 435.100 430.575 426.617 425.210 424.489 420.011 415.376 407.022 398.654 390.972 387.034 386.701 386.139 386.453 390.091 394.128 394.506 396.746 396.808 388.032 382.495 384.586 384.525 379.882 379.071 379.604 379.747 378.807 378.895 385.015 393.554 397.910 401.686 405.033 409.476 416.046 415.838 415.251 414.718 413.447 418.259 423.866 430.175 431.536 427.581 428.485 432.131 433.652 432.686 434.185 434.255 432.045 432.672 430.548 433.232 440.557 444.932 450.855 458.700 464.460 468.266 472.031 477.117 481.263 485.268 489.764 493.559 500.255 506.193 515.588 515.719 514.142 514.834 509.013 502.862 504.631 504.606 507.518 502.160 513.396 525.975 539.033 551.700 565.466 576.288 580.339 588.306 593.041 600.902 610.954 627.738 641.040 654.197 665.778 677.023 690.347 710.105 725.644 740.076 752.903 766.370 782.635 794.892 805.042 816.243 834.520 849.386 862.215 873.985 886.805 900.046 912.329
1701.089 1701.089 1701.089 1701.089 1701.089 1709.738 1715.135 1717.279 1714.172 1719.815 1727.401 1732.890 1735.662 1725.655 1715.725 1712.437 1711.696 1708.549 1709.829 1713.182 1721.030 1736.689 1742.343 1740.978 1736.953 1734.522 1731.476 1727.087 1724.753 1727.571 1729.693 1735.609 1740.684 1747.663 1750.709 1759.444 1770.163 1776.672 1793.309 1810.383 1825.349 1834.891 1831.786 1829.364 1817.907 1823.642 1816.179 1783.028 1772.436 1758.423 1746.758 1732.793 1721.834 1705.932 1691.713 1676.416 1659.238 1640.459 1625.243 1614.031 1605.461 1597.868 1584.000 1572.879 1564.020 1555.653 1552.181 1546.319 1553.824 1544.184 1547.020 1538.891 1538.093 1515.442 1504.000 1495.150 1487.454 1479.167 1471.680 1463.993 1457.788 1451.219 1445.304 1442.472 1435.235 1428.766 1403.629 1390.378 1372.365 1353.736 1342.583 1332.209 1317.816 1308.339 1302.812 1297.656 1287.163 1274.875 1258.015 1253.207 1243.959 1233.786 1219.657 1205.028 1194.549 1179.628 1161.865 1146.690 1127.333 1112.676 1101.917 1095.801 1093.479 1084.838 1082.751 1073.967 1062.698 1057.574 1053.255 1047.972 1042.071 1033.764 1027.080 1021.790 1019.571 1014.625 1012.166 1009.597 1006.483 1005.058 998.386 993.353 989.731 984.150 982.580 973.654 968.684 964.300 962.591 962.008 958.005 951.338 941.988 935.418 927.105 921.774 915.823 904.685 903.423 901.824 894.471 888.280 881.405 874.331 867.613 853.595 843.037 833.436 823.055 814.573 804.096 799.885 801.928 800.514 806.079 813.364 815.187 816.267 824.312 818.974 816.467 814.272 814.132 818.189 823.968 833.903 843.050 850.488 856.859 851.167 841.333 837.898 829.807 812.984 806.849 804.650 812.742 820.569 789.183 762.779 734.627 716.094 697.718 685.754 673.676 662.065 653.943 641.495 633.640 631.552 628.641 619.179 619.614 611.721 601.546 597.409 594.931 592.538 586.321 581.128 576.022 573.029 568.904 562.983 561.634 556.304 553.300 549.871 543.590 539.366 526.211 512.193 502.297 497.069 496.440 494.616 492.469 487.164 486.297 486.395 484.737 484.264 479.700 475.527 469.828 461.608 454.990 450.695 447.338 441.532 436.156 434.561 431.498 427.083 424.252 419.480 409.082 402.091 394.977 389.149 386.578 385.673 385.816 387.191 392.383 394.194 395.958 396.889 393.729 389.079 388.297 388.368 385.213 379.353 379.815 380.462 380.309 379.043 379.775 387.530 392.863 398.158 398.977 400.710 407.189 411.492 411.612 407.536 408.721 413.569 419.843 424.649 425.426 424.106 424.536 425.463 426.121 427.797 428.329 428.167 426.487 423.010 430.497 438.637 441.515 444.522 450.321 456.925 462.667 466.145 468.820 474.140 477.748 480.097 485.743 490.870 497.036 503.492 511.667 510.973 512.997 513.562 506.193 497.466 497.783 499.078 496.851 503.597 510.574 518.800 533.258 547.635 559.618 562.928 574.127 588.178 592.726 607.434 616.180 627.252 635.357 651.040 659.761 672.843 692.289 708.156 727.655 745.526 764.104 781.879 793.824 809.531 821.692 830.942 839.342 852.486 866.760 880.411 892.913 905.507 917.972
1701.089 1701.089 1701.089 1701.089 1701.089 1701.537 1708.538 1711.063 1710.819 1711.772 1718.720 1726.262 1733.338 1721.214 1710.030 1703.864 1703.131 1700.122 1704.824 1709.435 1716.622 1730.842 1735.458 1735.654 1732.972 1727.063 1723.736 1721.389 1717.667 1720.198 1724.031 1728.848 1731.813 1738.673 1743.848 1750.233 1757.779 1767.324 1778.668 1801.881 1815.639 1828.345 1825.913 1823.855 1821.228 1821.962 1804.746 1787.503 1770.804 1755.835 1742.378 1732.830 1720.455 1699.724 1685.790 1668.870 1649.925 1635.453 1623.236 1611.183 1601.686 1592.393 1580.688 1571.349 1564.165 1557.485 1549.678 1545.012 1550.566 1545.183 1548.799 1534.692 1526.659 1518.140 1508.876 1498.972 1489.919 1479.813 1472.782 1465.702 1458.584 1451.100 1445.134 1437.722 1431.570 1424.428 1401.854 1386.100 1372.693 1356.466 1341.248 1329.226 1320.809 1311.844 1301.190 1293.005 1286.130 1269.593 1258.295 1249.027 1240.182 1228.385 1218.079 1207.985 1194.914 1178.779 1164.580 1146.548 1129.144 1115.334 1105.870 1100.866 1099.752 1091.528 1082.960 1077.612 1074.138 1067.524 1062.558 1056.840 1049.822 1041.691 1035.844 1031.670 1028.065 1023.706 1019.404 1013.390 1010.289 1006.228 1001.342 997.045 991.944 986.445 981.734 977.797 977.054 974.970 973.094 967.382 959.768 954.755 950.032 941.701 932.995 919.792 907.273 906.636 905.507 900.509 893.026 885.657 876.000 867.470 857.221 853.118 843.244 837.556 833.198 830.196 832.327 818.797 814.221 812.109 819.306 826.050 842.372 833.288 822.127 819.630 816.466 816.580 821.724 825.256 833.743 842.391 863.946 869.846 873.133 868.313 862.126 857.181 840.354 832.420 824.789 827.815 836.180 834.003 808.337 778.336 743.132 722.636 708.000 698.762 685.115 674.052 661.241 651.410 643.707 634.847 633.049 627.994 623.934 616.979 611.133 607.671 603.781 599.448 595.623 594.872 587.852 581.224 574.458 571.223 564.747 560.475 555.416 550.391 541.341 544.630 537.251 524.615 513.485 501.265 499.223 498.122 493.174 489.197 486.641 486.692 486.284 484.079 481.977 477.967 473.150 465.859 460.941 454.910 451.827 447.240 440.195 437.084 433.531 429.140 428.473 419.560 413.482 407.416 400.115 390.958 386.530 385.648 387.156 387.160 389.382 392.541 393.911 394.549 395.439 398.256 399.353 392.080 386.877 380.762 379.588 381.143 380.818 382.256 379.508 380.496 385.286 390.085 394.035 395.192 399.857 403.954 405.714 405.364 408.388 410.459 414.615 420.245 419.993 420.445 421.049 420.457 422.347 423.551 421.901 421.167 419.845 425.444 433.007 438.503 440.820 444.537 448.611 454.658 459.513 463.375 466.660 471.144 474.762 478.178 481.547 488.336 493.440 498.505 504.984 506.062 510.141 506.469 502.529 493.913 492.837 492.836 494.789 506.027 521.192 530.598 539.586 549.797 555.262 570.417 581.671 587.364 597.647 602.132 610.239 620.380 634.662 647.621 663.115 678.434 691.422 705.612 724.157 746.519 773.491 779.662 790.818 805.620 816.201 827.852 840.935 853.827 868.027 882.812 895.300 908.303 921.655
1701.089 1701.089 1701.089 1701.089 1701.089 1701.089 1703.167 1705.782 1707.175 1705.917 1706.126 1717.056 1722.837 1718.187 1705.504 1697.822 1694.379 1690.938 1692.819 1700.446 1710.204 1721.595 1728.560 1730.484 1727.752 1722.000 1716.990 1712.930 1712.689 1712.543 1715.924 1720.782 1723.222 1727.949 1734.806 1740.177 1751.825 1760.719 1770.702 1788.146 1803.906 1821.212 1816.633 1813.976 1812.922 1810.532 1803.555 1788.973 1771.009 1752.454 1736.160 1726.013 1710.942 1694.386 1680.276 1664.009 1641.970 1634.133 1621.249 1609.008 1600.088 1590.465 1580.843 1576.351 1562.111 1558.847 1551.024 1550.917 1546.272 1543.758 1551.116 1535.888 1520.652 1513.923 1509.666 1501.447 1493.155 1482.487 1476.212 1470.023 1461.771 1454.869 1447.401 1438.799 1428.861 1421.336 1407.493 1390.519 1375.676 1362.063 1345.006 1331.446 1320.295 1314.694 1302.164 1291.385 1279.739 1270.442 1259.878 1250.573 1241.066 1230.029 1217.363 1206.429 1190.066 1175.160 1163.516 1147.810 1133.925 1119.425 1111.833 1104.778 1101.053 1092.645 1087.039 1082.669 1077.888 1072.448 1067.112 1060.571 1056.279 1050.963 1045.098 1039.736 1033.842 1029.772 1022.452 1016.861 1016.413 1010.529 1003.507 1001.267 997.443 993.109 992.735 988.951 985.208 980.753 978.749 972.802 964.720 955.013 944.226 932.795 921.515 911.531 909.517 908.348 904.586 896.475 888.125 879.316 876.465 871.280 862.762 857.536 853.265 852.870 851.461 850.764 837.623 825.486 823.931 826.068 832.480 845.721 847.529 836.291 832.524 828.794 826.472 826.916 825.338 832.552 839.207 842.348 856.033 871.226 880.333 893.876 888.941 871.371 863.012 865.294 863.953 859.573 862.195 859.389 837.265 792.051 759.463 736.410 724.579 712.748 700.054 687.086 672.922 658.697 651.338 640.028 637.107 635.475 631.607 624.384 618.702 617.548 616.558 611.288 606.835 607.046 599.689 587.664 579.035 572.474 567.786 560.442 555.743 551.076 549.717 550.614 542.584 533.194 523.941 509.931 502.572 498.186 492.749 490.433 486.362 486.160 485.844 482.497 479.139 476.531 475.883 470.756 464.123 461.440 456.498 447.339 442.984 439.266 434.433 432.756 429.651 419.945 416.649 412.240 404.057 395.459 387.554 386.881 387.176 386.621 386.691 387.759 389.975 392.406 394.220 396.746 397.909 399.617 389.650 385.917 382.435 381.860 381.310 381.062 382.681 379.800 381.273 382.334 389.901 393.150 394.200 396.055 401.836 405.367 409.062 409.472 411.062 413.117 416.146 418.477 418.463 415.020 413.657 414.243 410.807 414.156 420.890 428.839 434.972 439.792 441.747 444.523 447.834 453.533 457.337 460.478 464.375 467.506 469.942 473.360 477.944 483.156 487.581 491.987 492.548 497.217 503.872 499.345 494.721 488.957 487.065 488.775 492.367 507.948 521.034 526.843 537.005 551.507 565.373 573.738 580.523 589.099 604.161 615.137 624.072 632.412 641.900 657.446 663.433 675.569 693.112 714.409 733.452 754.337 765.962 773.182 783.738 794.974 809.955 825.064 841.006 856.197 869.772 882.401 896.331 910.214 924.203
1701.089 1701.089 1701.089 1701.089 1701.089 1701.100 1698.227 1703.934 1697.622 1700.751 1696.729 1703.978 1706.122 1713.201 1699.977 1694.042 1691.414 1684.689 1690.331 1697.646 1703.139 1714.454 1720.231 1722.752 1723.441 1719.632 1714.953 1709.442 1708.016 1704.423 1708.594 1712.741 1714.696 1720.275 1725.744 1732.411 1743.536 1752.421 1763.256 1774.616 1790.543 1808.113 1808.451 1801.410 1800.618 1796.914 1800.981 1792.613 1776.738 1752.402 1731.476 1718.113 1705.342 1688.955 1673.086 1662.576 1648.013 1637.151 1623.136 1611.366 1602.816 1589.718 1580.810 1579.891 1561.241 1558.676 1552.212 1545.114 1539.559 1540.665 1558.479 1533.912 1519.513 1515.464 1511.981 1504.108 1494.510 1488.816 1481.385 1473.555 1465.747 1456.474 1450.946 1442.164 1427.417 1416.179 1405.957 1389.492 1377.681 1370.131 1350.778 1335.765 1323.772 1307.571 1300.020 1291.119 1278.246 1272.281 1263.045 1251.795 1239.339 1233.510 1217.485 1205.833 1193.005 1180.321 1164.505 1152.101 1137.368 1127.731 1122.280 1112.149 1100.209 1095.367 1090.978 1086.412 1081.114 1074.999 1068.016 1062.153 1057.096 1052.138 1049.855 1044.162 1038.565 1033.013 1025.745 1021.273 1017.889 1013.169 1011.803 1009.457 1005.856 1001.300 997.504 996.585 989.467 980.369 968.903 958.781 950.218 941.145 931.466 924.408 924.418 920.382 913.493 907.368 900.713 890.055 887.815 887.131 885.295 876.638 867.030 859.652 863.028 864.439 861.459 856.134 850.217 843.751 841.733 842.152 848.630 859.635 852.287 848.067 842.809 841.371 842.471 844.237 843.529 845.730 850.167 853.480 863.708 869.550 873.767 882.213 896.239 898.543 894.554 885.896 885.943 873.280 866.407 860.704 856.019 805.306 767.135 748.814 735.052 723.698 709.154 694.479 680.820 667.688 656.101 647.942 644.373 643.765 638.215 632.023 630.183 627.952 626.036 625.042 619.657 615.313 601.513 589.838 582.784 576.008 566.782 563.048 554.292 553.718 558.359 556.035 545.091 537.457 531.817 519.592 505.831 498.054 495.934 489.921 486.884 485.727 485.261 485.694 482.760 478.797 477.391 473.168 470.368 464.882 459.202 453.856 449.002 441.134 436.503 433.246 430.634 427.509 419.945 413.882 405.356 397.699 390.499 388.210 387.107 386.675 385.423 385.783 387.346 389.938 393.365 395.438 399.414 401.182 398.067 389.004 384.897 382.311 381.894 381.439 381.284 383.062 380.141 381.752 385.822 389.080 393.467 393.311 398.297 402.636 406.092 407.358 409.562 410.557 412.462 412.218 411.891 411.358 410.723 410.945 411.931 417.476 424.851 428.273 433.030 438.337 442.275 444.086 448.032 453.502 456.488 459.518 463.099 465.617 467.134 470.739 473.811 478.738 482.081 486.373 489.469 493.126 496.240 492.544 489.139 483.426 485.625 491.958 496.731 509.017 518.620 528.079 540.394 553.667 568.152 579.754 588.795 598.358 610.938 619.108 629.988 646.004 662.412 670.995 677.763 690.033 697.553 716.465 731.388 740.038 756.215 772.016 783.343 793.536 802.104 814.322 834.308 846.470 862.973 879.332 895.452 908.787 922.375
1701.089 1701.089 1701.089 1701.089 1701.089 1701.089 1699.962 1698.836 1693.433 1693.390 1693.390 1693.390 1695.603 1694.614 1692.098 1690.656 1684.841 1678.495 1683.460 1689.220 1694.570 1702.864 1704.315 1715.062 1718.679 1716.984 1710.014 1704.098 1702.467 1697.503 1701.902 1705.781 1708.219 1714.763 1720.675 1727.941 1737.671 1749.804 1759.828 1770.159 1784.200 1803.573 1799.014 1790.457 1786.606 1786.404 1790.639 1797.810 1774.549 1750.765 1734.057 1720.603 1704.065 1689.155 1675.481 1665.936 1656.699 1645.316 1636.594 1614.408 1605.982 1597.475 1588.008 1579.245 1571.168 1562.466 1553.276 1548.116 1537.743 1533.480 1552.147 1531.387 1519.293 1513.229 1510.714 1505.996 1498.291 1489.220 1483.625 1475.349 1467.096 1458.037 1450.186 1437.874 1426.885 1413.776 1400.669 1383.741 1374.899 1371.033 1354.246 1336.947 1323.487 1308.131 1298.966 1292.121 1283.791 1277.024 1264.138 1254.326 1244.615 1229.308 1218.543 1204.177 1193.413 1181.327 1166.678 1153.737 1139.685 1130.810 1124.542 1116.794 1108.898 1103.991 1094.189 1091.266 1084.589 1077.756 1070.631 1064.063 1057.832 1052.330 1046.925 1043.046 1037.053 1033.063 1029.902 1026.260 1020.493 1017.787 1015.743 1012.591 1011.724 1009.142 1002.045 992.240 978.267 966.480 955.369 947.428 940.827 935.981 941.803 938.479 932.642 926.399 918.236 905.047 892.297 892.547 896.036 895.102 889.719 876.364 865.293 864.112 869.451 873.932 877.550 873.086 865.011 861.273 870.658 871.896 876.833 872.442 868.095 859.199 854.423 854.922 858.166 860.347 870.932 864.311 867.975 868.831 874.544 868.051 873.226 876.029 879.326 883.285 888.262 893.298 891.381 880.482 870.214 864.590 849.540 822.587 792.602 760.187 746.470 732.083 716.372 702.010 688.488 677.472 667.666 658.345 656.667 651.040 646.911 640.618 640.290 640.117 637.834 632.272 625.620 614.513 602.768 591.589 583.974 578.932 569.658 562.457 558.129 560.055 561.321 556.246 544.639 539.123 534.362 525.196 515.395 499.623 496.361 489.658 489.167 486.035 485.061 483.871 482.233 481.440 478.733 476.310 472.390 467.474 463.475 459.829 454.212 447.134 440.179 437.754 431.631 428.389 420.937 414.450 405.412 398.802 394.984 393.081 393.050 390.392 387.903 385.525 385.839 388.299 392.412 395.419 397.175 402.348 399.672 392.618 387.556 382.903 382.319 382.043 381.618 381.507 383.794 380.563 382.776 382.162 387.893 392.801 395.168 398.223 400.595 402.538 405.602 404.779 406.955 407.348 408.159 405.534 400.770 409.196 414.499 420.251 425.129 428.320 432.337 437.832 441.995 444.829 447.778 452.290 455.366 458.052 459.574 462.152 462.895 467.905 471.653 476.977 480.317 482.360 485.241 487.004 488.024 484.449 479.217 478.553 489.764 495.127 501.018 508.706 518.309 529.928 543.564 551.564 568.116 581.905 596.508 608.703 622.988 642.310 646.898 657.263 670.722 684.272 697.138 710.973 731.912 743.889 755.870 760.192 769.918 782.740 797.879 810.004 821.933 831.904 840.405 850.361 856.941 870.107 886.841 901.843 916.001
1701.089 1701.089 1701.089 1701.089 1701.089 1701.089 1703.803 1699.833 1695.483 1693.390 1693.390 1693.390 1697.009 1693.756 1687.895 1683.826 1681.330 1675.042 1677.457 1682.186 1684.462 1686.771 1691.427 1702.969 1713.149 1709.430 1704.711 1702.144 1694.507 1692.793 1694.705 1696.240 1702.492 1709.076 1714.503 1724.782 1734.854 1745.804 1755.184 1764.917 1778.115 1792.756 1788.569 1780.857 1778.143 1777.090 1783.309 1792.476 1800.819 1763.157 1742.704 1725.829 1705.585 1689.826 1677.478 1668.238 1659.523 1654.216 1646.234 1632.555 1613.275 1604.006 1594.489 1584.054 1574.733 1565.276 1561.170 1555.453 1548.640 1534.930 1537.529 1527.390 1520.542 1511.752 1505.157 1503.115 1497.851 1489.593 1484.381 1474.891 1467.325 1456.240 1452.264 1443.264 1427.603 1413.463 1397.502 1381.267 1371.724 1367.912 1357.383 1340.488 1327.599 1313.153 1298.385 1289.593 1282.783 1276.486 1269.765 1255.075 1243.155 1232.602 1217.256 1204.813 1194.634 1184.880 1169.773 1157.041 1146.480 1134.409 1129.069 1121.207 1114.202 1106.098 1098.598 1093.115 1085.865 1076.050 1068.155 1060.856 1055.529 1050.697 1046.429 1041.534 1039.283 1037.780 1033.364 1024.970 1020.996 1020.060 1017.711 1015.458 1008.530 999.622 989.506 979.245 969.542 968.009 963.286 956.292 945.027 950.021 950.230 945.103 937.236 930.786 918.356 899.885 897.358 899.607 902.524 900.097 888.222 876.975 872.272 869.089 873.375 885.326 903.369 908.182 904.716 899.983 908.751 900.178 896.396 893.057 886.213 873.391 866.464 870.699 875.252 880.342 891.603 890.795 892.581 888.052 890.316 886.012 885.926 885.617 881.758 873.714 876.636 876.543 874.863 872.633 872.407 861.810 841.305 822.194 798.527 772.424 753.043 738.619 723.097 709.884 698.641 688.971 678.314 669.242 665.433 659.785 655.016 651.926 652.471 655.313 651.359 641.151 631.321 617.554 605.305 597.535 592.288 584.625 577.668 574.212 566.905 564.113 561.857 555.092 543.140 540.008 535.113 524.920 517.311 507.345 496.902 493.191 488.955 485.536 483.540 482.613 481.388 480.681 479.725 477.267 472.439 467.484 464.432 462.624 457.758 448.548 443.142 438.657 433.648 430.035 422.208 413.872 406.589 400.389 397.811 397.728 397.691 396.002 394.588 392.044 388.757 388.666 389.823 394.635 396.714 400.335 402.053 397.595 392.026 388.203 382.570 382.316 382.020 381.949 381.880 382.634 381.069 382.631 382.913 389.188 392.806 392.994 394.070 396.803 396.250 397.869 401.107 404.364 402.826 398.116 403.222 407.443 413.688 418.493 423.995 428.521 432.093 435.079 438.996 442.067 444.974 448.214 450.917 452.352 452.977 455.336 457.030 459.095 463.978 468.956 472.429 473.710 475.988 476.674 478.280 473.146 472.047 485.295 496.397 503.609 509.360 509.520 516.672 528.327 542.803 553.656 572.581 588.795 604.178 615.764 635.854 653.268 662.410 664.663 673.266 685.280 702.415 720.954 735.187 747.188 758.236 767.626 779.170 790.140 804.997 819.136 833.238 845.093 854.884 865.432 873.515 881.894 892.998 906.784 917.654
1701.089 1701.089 1701.089 1701.089 1701.089 1701.089 1702.077 1700.110 1698.284 1693.375 1693.390 1693.390 1695.971 1693.349 1682.793 1679.579 1676.820 1673.482 1673.679 1674.870 1677.521 1679.412 1680.845 1688.616 1701.271 1704.412 1699.718 1695.146 1687.603 1685.187 1688.867 1692.411 1695.656 1700.852 1709.214 1722.497 1735.316 1743.467 1753.895 1765.053 1774.164 1782.444 1782.090 1775.573 1772.177 1769.884 1776.117 1784.107 1796.495 1773.472 1756.336 1730.389 1713.863 1695.970 1682.552 1669.953 1664.096 1656.616 1650.090 1637.804 1619.755 1611.547 1608.310 1595.843 1575.304 1569.310 1565.952 1559.809 1548.440 1542.558 1532.990 1523.364 1515.246 1506.826 1503.872 1498.523 1494.265 1489.077 1484.484 1474.052 1468.300 1458.049 1451.928 1442.464 1428.635 1411.241 1394.140 1379.629 1369.509 1364.765 1359.747 1343.393 1329.158 1318.975 1303.439 1290.893 1285.164 1278.308 1271.336 1263.653 1248.550 1235.254 1224.913 1207.809 1195.837 1183.073 1172.603 1163.188 1151.418 1142.567 1136.602 1128.273 1120.301 1108.909 1098.491 1091.432 1082.954 1074.384 1067.265 1062.955 1056.985 1053.009 1051.302 1047.175 1045.486 1039.332 1035.456 1031.004 1025.043 1022.789 1020.814 1014.216 1006.962 997.308 988.112 981.219 980.530 975.659 968.410 962.202 957.937 959.288 953.940 947.176 936.481 924.662 912.553 909.205 908.715 905.128 902.467 894.397 885.665 881.461 881.427 883.422 888.363 893.522 909.352 929.183 931.169 926.885 926.979 920.377 912.575 913.168 901.274 886.866 880.299 886.016 900.230 905.428 912.970 910.086 915.781 911.194 905.923 899.211 896.286 890.143 888.981 878.683 876.724 873.278 875.711 877.834 876.427 872.113 866.535 848.140 828.936 807.475 775.513 749.268 733.897 721.289 709.628 698.137 687.520 679.435 675.229 666.932 664.179 669.309 668.750 668.730 662.105 653.426 637.667 624.208 616.425 611.271 605.247 595.711 586.309 578.153 572.078 565.056 559.308 550.707 543.314 539.022 530.412 525.219 518.945 512.429 502.438 494.677 489.747 484.649 483.904 481.877 480.947 482.199 479.528 477.231 472.422 467.224 465.641 464.077 459.984 452.264 445.738 440.570 438.502 434.384 425.196 415.324 407.347 402.823 401.204 399.071 398.596 399.366 395.796 395.598 389.126 388.800 389.281 393.567 397.762 403.253 404.651 400.187 397.685 392.197 385.867 382.438 382.215 382.237 382.018 383.531 380.903 381.759 383.678 384.099 385.740 390.111 390.997 390.465 391.643 393.677 396.129 397.060 394.672 398.508 398.608 403.778 408.777 415.012 419.833 424.615 427.821 430.070 432.667 437.036 440.606 442.161 443.745 444.776 448.040 449.580 453.770 457.079 458.736 463.870 464.924 467.023 470.310 467.844 467.745 469.801 483.410 483.753 490.332 497.135 499.388 507.821 521.012 530.427 540.644 551.956 568.394 591.075 610.457 624.947 642.907 658.753 668.471 673.418 678.727 689.378 707.568 726.298 735.091 742.475 756.240 768.564 783.022 797.009 808.789 821.818 835.161 847.203 859.374 871.054 881.692 893.093 903.062 914.659 925.124
1701.089 1701.089 1701.089 1701.089 1701.089 1703.719 1704.753 1700.227 1697.694 1693.390 1693.390 1696.595 1697.754 1688.005 1676.700 1674.749 1671.928 1671.015 1670.798 1669.723 1671.752 1673.784 1672.173 1677.681 1684.401 1696.290 1695.360 1689.916 1681.759 1680.377 1682.661 1689.356 1691.725 1696.886 1706.837 1718.502 1732.256 1740.339 1752.430 1762.235 1771.243 1776.663 1771.352 1769.359 1766.695 1764.991 1767.330 1776.075 1788.158 1779.846 1749.480 1731.565 1718.118 1695.354 1682.686 1671.613 1668.346 1658.896 1651.092 1642.254 1626.441 1617.197 1605.033 1599.910 1582.737 1576.842 1568.881 1562.742 1554.685 1547.099 1541.516 1529.399 1517.008 1507.079 1502.382 1495.470 1492.178 1484.521 1478.990 1475.028 1470.390 1458.113 1445.239 1436.336 1428.231 1417.728 1401.013 1383.411 1372.775 1366.716 1359.407 1345.153 1329.516 1319.051 1307.268 1295.631 1289.251 1282.727 1272.586 1262.531 1252.272 1240.571 1230.700 1216.047 1201.634 1190.247 1176.745 1166.779 1156.234 1148.440 1141.816 1131.888 1121.198 1112.168 1101.401 1090.690 1081.178 1074.616 1069.749 1065.740 1060.631 1055.704 1050.274 1047.830 1044.933 1041.324 1037.244 1032.378 1027.911 1025.084 1025.487 1020.199 1010.621 1000.821 993.674 994.129 988.828 985.095 977.071 973.548 970.300 966.433 959.250 949.415 932.664 922.781 920.035 915.061 910.793 908.497 904.675 899.657 892.709 894.533 892.911 905.228 911.370 916.349 923.120 934.937 938.780 939.382 938.000 930.310 927.047 915.990 911.722 899.477 895.015 899.818 914.922 933.767 932.034 929.759 934.097 931.422 926.265 914.674 909.997 901.361 893.858 883.962 879.898 879.417 880.656 880.055 873.511 867.911 869.179 865.327 860.895 837.357 816.683 782.580 750.551 734.562 721.214 708.443 700.023 691.891 686.940 675.689 676.941 680.608 685.302 681.441 669.170 656.646 643.381 633.795 628.253 622.044 612.511 602.619 592.519 581.944 573.014 564.046 560.158 553.715 545.190 538.603 532.548 528.618 524.057 516.940 508.492 498.390 492.733 484.305 482.875 482.967 485.303 483.860 480.120 476.334 472.862 467.905 464.644 461.297 459.369 453.990 447.266 442.165 438.119 433.913 425.439 416.120 409.012 404.688 404.156 401.933 399.218 399.210 395.774 394.985 389.435 388.941 391.382 394.237 397.834 400.174 404.234 404.956 401.075 396.247 390.133 382.780 382.441 381.305 381.662 382.512 382.068 381.539 383.420 383.925 384.600 384.884 384.888 385.454 386.905 388.578 389.344 392.420 395.382 396.758 398.741 402.037 405.160 408.594 413.089 419.422 423.361 426.269 430.231 433.524 435.147 435.869 436.425 436.318 436.911 440.611 442.523 447.184 452.892 452.128 453.943 457.125 459.082 464.733 471.467 482.418 495.301 497.080 508.109 511.932 511.393 512.592 518.293 523.979 529.221 541.155 565.481 579.172 589.816 618.183 635.103 655.968 668.432 674.465 684.376 695.811 707.647 717.409 728.332 740.527 754.548 770.184 784.656 798.213 812.959 825.531 837.891 849.252 860.574 871.987 881.563 891.984 901.111 905.658 918.528
1701.089 1701.089 1701.089 1701.089 1701.089 1703.865 1703.946 1699.288 1693.390 1693.390 1697.012 1698.882 1697.549 1687.017 1679.864 1672.644 1670.204 1669.607 1668.392 1668.579 1668.536 1669.182 1666.639 1671.270 1679.640 1686.874 1690.857 1682.427 1677.055 1676.117 1680.400 1686.608 1689.207 1695.509 1702.992 1712.004 1724.475 1737.894 1750.221 1759.827 1766.392 1767.806 1764.879 1766.911 1760.929 1759.052 1760.267 1769.709 1779.796 1778.773 1779.094 1734.921 1712.222 1697.120 1684.253 1679.030 1677.141 1664.407 1657.973 1646.658 1633.757 1619.769 1606.207 1600.249 1590.855 1586.360 1577.981 1572.196 1563.410 1555.849 1545.222 1532.480 1519.031 1508.121 1502.175 1495.976 1491.892 1483.562 1472.391 1472.133 1466.963 1452.701 1436.966 1431.381 1424.468 1415.871 1399.753 1387.270 1375.983 1366.323 1354.960 1341.298 1330.535 1321.521 1315.839 1303.242 1292.253 1288.740 1282.189 1267.316 1255.618 1245.571 1235.460 1222.750 1211.147 1201.786 1188.477 1176.956 1164.701 1156.543 1150.573 1141.736 1132.142 1119.657 1109.837 1101.212 1092.210 1082.531 1073.670 1071.151 1067.503 1064.683 1057.378 1052.528 1048.148 1043.576 1039.234 1034.624 1030.387 1026.960 1028.014 1028.162 1020.455 1009.558 1005.573 1000.404 997.307 990.400 986.528 984.117 979.542 970.531 963.287 948.158 933.346 927.200 923.962 918.077 918.725 916.128 914.135 913.760 910.485 910.518 914.726 922.670 928.230 931.555 944.841 946.591 943.353 942.117 940.863 938.083 928.910 923.667 921.699 910.989 907.647 916.874 926.205 942.184 949.198 946.379 950.828 947.716 943.423 941.633 926.998 919.085 908.416 893.429 884.103 880.120 882.075 879.067 876.871 869.969 861.077 858.453 865.191 850.212 823.760 808.965 766.812 745.477 741.245 723.163 712.063 703.878 701.033 692.227 684.938 683.739 691.108 680.154 665.959 652.121 641.472 634.657 632.768 626.063 617.179 606.356 594.575 583.814 575.915 567.586 560.457 555.574 549.788 543.181 535.847 531.965 529.009 523.729 515.958 505.471 497.480 486.009 484.392 483.981 484.798 483.957 479.990 474.585 473.952 469.287 464.858 462.050 459.414 453.218 448.539 445.012 442.596 432.948 422.110 414.007 409.337 407.923 409.715 407.953 403.339 400.379 396.447 396.109 391.568 390.713 392.769 394.872 397.335 400.820 404.938 406.654 404.133 398.983 395.483 387.454 381.561 381.518 381.784 382.441 382.909 383.596 382.027 383.745 385.084 385.987 386.520 386.395 389.758 389.995 389.554 392.213 395.097 396.990 399.199 400.786 404.426 406.957 409.816 413.183 415.952 419.565 424.616 427.508 427.713 428.043 426.716 433.361 436.427 439.500 443.402 442.665 446.615 454.197 461.102 466.022 473.709 481.277 486.087 498.822 505.333 511.142 521.580 526.827 528.846 524.817 535.081 544.719 556.160 566.212 584.149 593.284 602.576 621.665 647.385 650.301 665.064 677.694 691.418 699.914 710.650 723.707 734.052 743.520 758.351 772.089 785.896 799.850 816.140 826.831 837.207 850.482 862.617 867.040 874.021 882.812 891.166 900.537 916.571
1701.459 1701.089 1701.089 1701.089 1702.276 1702.322 1702.589 1696.399 1693.390 1693.390 1695.342 1702.879 1701.471 1694.343 1686.716 1681.969 1675.224 1672.372 1668.392 1666.740 1666.930 1666.410 1662.053 1666.480 1671.861 1678.830 1683.894 1677.283 1672.815 1672.835 1680.644 1683.308 1687.424 1692.584 1697.540 1709.472 1718.601 1735.858 1747.192 1758.841 1762.060 1759.093 1759.840 1766.325 1761.372 1756.259 1756.998 1769.341 1777.627 1776.063 1763.572 1739.410 1713.974 1699.687 1687.184 1685.063 1681.787 1673.486 1666.268 1659.201 1650.522 1622.621 1619.907 1610.056 1602.676 1598.421 1588.226 1581.006 1572.791 1561.710 1549.491 1536.088 1520.927 1509.557 1499.232 1491.886 1488.578 1481.004 1472.489 1468.115 1464.065 1450.792 1439.498 1430.238 1421.906 1412.869 1402.687 1390.316 1377.544 1365.369 1352.508 1340.440 1330.986 1323.688 1317.364 1307.317 1296.444 1288.716 1280.180 1270.291 1258.365 1247.555 1238.563 1226.986 1213.991 1204.629 1193.338 1180.226 1173.004 1163.738 1155.642 1147.950 1139.914 1129.467 1120.519 1111.776 1098.888 1090.151 1082.742 1078.850 1076.074 1071.823 1063.275 1056.313 1050.241 1047.031 1045.843 1043.252 1037.391 1035.780 1033.213 1031.165 1025.836 1016.501 1012.391 1006.981 1003.113 998.937 995.312 990.303 983.832 977.222 964.962 949.167 938.815 934.762 930.780 927.052 931.627 931.020 933.064 931.713 939.825 935.657 933.671 942.895 948.173 952.911 961.334 965.919 954.767 945.875 947.222 942.454 938.522 944.202 935.150 925.657 922.483 930.772 944.534 959.373 967.258 963.652 959.170 949.301 946.354 937.398 926.152 921.359 909.228 899.047 887.967 883.378 884.932 885.441 879.882 874.135 866.116 856.553 848.155 840.553 827.136 809.233 794.586 777.639 763.698 740.942 725.472 717.700 705.731 691.615 681.390 688.343 690.105 678.684 665.107 654.175 645.969 639.148 632.756 626.166 617.688 606.304 597.827 585.666 574.665 567.038 563.845 560.168 554.794 547.315 541.094 535.454 534.417 526.362 521.805 510.968 501.802 492.111 485.558 485.527 485.385 482.806 477.970 474.466 472.088 470.191 464.734 461.290 457.802 453.468 448.508 446.104 440.538 431.912 424.341 417.788 412.124 413.411 413.743 412.360 405.569 403.681 398.317 396.355 394.455 392.822 392.786 393.839 397.036 401.807 403.993 406.777 406.371 401.618 398.011 392.489 383.794 381.748 382.044 382.382 383.176 383.406 383.838 382.392 384.942 384.689 384.960 385.514 386.281 387.193 387.575 388.080 394.258 395.702 397.798 400.391 402.866 405.133 406.309 409.477 411.618 416.048 419.462 421.806 422.606 425.111 420.003 432.795 441.841 440.967 445.614 455.650 464.992 471.344 477.544 481.867 489.407 491.587 499.724 506.728 508.446 517.841 526.375 530.416 534.984 540.690 542.422 549.698 563.503 576.412 590.849 608.930 619.197 645.921 658.467 667.245 670.738 672.380 684.409 706.506 717.889 730.937 743.226 754.480 762.335 774.414 790.451 807.460 818.535 827.586 837.560 848.062 852.899 855.474 860.715 873.613 885.585 899.396 912.675
1706.554 1709.529 1704.928 1704.604 1705.471 1702.087 1700.189 1693.390 1693.390 1693.390 1693.405 1704.474 1704.102 1698.434 1693.465 1690.198 1689.339 1680.826 1672.171 1665.667 1660.108 1657.626 1657.479 1659.535 1666.137 1667.715 1674.657 1675.408 1669.678 1672.809 1679.359 1681.270 1684.756 1688.549 1695.025 1708.703 1716.753 1728.025 1736.129 1745.009 1752.026 1750.567 1749.691 1755.072 1756.616 1754.933 1753.476 1761.513 1769.969 1771.273 1759.451 1735.978 1718.949 1704.927 1692.762 1688.712 1693.806 1682.617 1679.393 1671.250 1660.935 1646.827 1631.120 1623.303 1615.155 1607.144 1597.989 1587.118 1578.081 1569.087 1553.379 1536.381 1522.254 1507.984 1499.301 1494.027 1484.429 1475.814 1470.825 1464.848 1458.578 1451.337 1440.183 1429.733 1418.102 1410.575 1403.443 1392.381 1375.013 1363.814 1351.672 1342.598 1332.357 1323.402 1315.951 1311.034 1305.405 1294.590 1282.489 1274.765 1264.898 1250.375 1242.757 1228.829 1218.489 1206.540 1196.383 1186.910 1178.528 1168.814 1161.730 1153.583 1146.047 1138.795 1126.340 1113.314 1098.929 1095.022 1091.026 1085.130 1079.524 1074.830 1068.363 1063.784 1057.459 1052.948 1051.514 1049.799 1047.710 1043.789 1040.391 1034.309 1028.977 1020.969 1016.555 1010.787 1008.707 1008.121 1003.870 1000.244 990.674 980.772 966.628 954.577 950.198 948.913 943.549 943.799 945.808 947.793 951.944 950.366 961.145 960.795 955.349 959.670 969.545 971.523 977.471 980.995 966.599 957.194 951.108 941.203 947.418 948.423 944.997 945.437 941.305 943.765 953.127 968.025 977.363 971.093 961.684 951.340 941.208 933.365 925.379 916.366 908.435 900.240 893.104 891.331 888.473 885.894 881.041 875.187 866.884 860.284 851.539 841.313 825.593 807.855 791.931 776.079 761.472 745.087 731.166 719.272 705.367 693.314 687.375 693.936 692.278 679.752 668.367 660.610 651.559 642.316 634.012 625.808 618.938 611.730 601.272 588.479 576.778 568.870 564.971 560.402 557.027 551.537 545.195 538.486 537.295 529.972 523.388 515.607 506.269 499.600 489.484 486.076 484.867 482.653 478.233 474.415 470.484 467.513 463.174 459.327 457.418 451.407 447.695 445.841 437.279 429.868 424.879 421.147 414.301 414.235 414.082 413.418 407.792 404.984 401.274 400.933 400.372 397.036 394.838 395.844 397.192 399.565 402.413 405.056 407.498 405.146 401.597 394.671 385.032 382.275 382.346 382.514 382.979 383.637 384.526 382.336 385.448 385.050 384.827 385.102 385.147 385.943 386.144 386.280 393.617 395.028 396.853 398.917 400.476 403.586 406.279 408.648 411.404 414.788 417.733 419.271 420.179 423.664 422.846 431.118 437.178 444.285 442.735 453.424 465.061 469.630 477.195 481.727 489.886 490.840 501.732 508.371 513.114 521.317 526.987 531.682 538.155 545.296 555.163 562.659 573.179 588.844 601.429 618.439 633.429 653.329 664.536 674.278 685.329 695.771 696.022 700.600 711.870 727.123 739.913 755.952 770.424 781.500 791.202 802.330 814.071 825.725 831.005 835.212 835.662 837.979 852.431 861.593 874.437 881.097 901.806
1712.537 1716.518 1713.139 1711.027 1707.449 1703.579 1695.706 1693.390 1693.390 1693.390 1693.390 1693.658 1697.844 1697.659 1691.051 1699.454 1693.911 1689.054 1677.928 1666.578 1657.459 1655.583 1655.525 1654.950 1657.738 1659.856 1665.588 1666.840 1666.907 1670.816 1678.619 1679.630 1684.702 1687.175 1692.389 1704.143 1720.231 1721.654 1724.760 1730.249 1739.959 1743.053 1744.998 1750.303 1751.804 1754.946 1752.546 1753.753 1758.941 1764.049 1757.724 1738.594 1721.521 1708.983 1698.021 1690.863 1691.219 1692.375 1682.265 1670.875 1667.174 1656.898 1645.379 1634.942 1625.915 1618.504 1607.341 1598.131 1586.925 1574.105 1561.254 1549.623 1534.117 1516.607 1503.074 1494.605 1486.047 1478.697 1471.072 1464.350 1457.541 1450.717 1438.835 1426.955 1417.424 1409.365 1399.867 1386.523 1375.086 1362.521 1351.388 1341.260 1330.562 1322.215 1315.489 1311.381 1305.938 1298.713 1286.467 1272.975 1267.079 1253.622 1242.986 1230.889 1221.352 1212.146 1201.705 1192.259 1183.298 1174.082 1166.274 1156.996 1148.453 1137.753 1127.252 1113.839 1102.096 1101.538 1095.321 1089.208 1084.069 1080.573 1077.843 1074.347 1066.422 1062.373 1062.522 1057.942 1052.649 1048.309 1043.459 1038.756 1031.020 1023.872 1020.740 1016.686 1016.345 1012.881 1009.720 1002.833 994.636 983.947 970.988 962.743 960.892 960.293 961.095 961.594 963.405 963.090 965.858 968.146 978.479 990.243 987.925 976.433 980.743 989.256 990.879 998.576 981.831 967.775 960.939 949.673 952.051 961.860 966.985 963.588 959.199 957.972 964.697 980.785 976.987 969.595 960.471 952.790 942.885 934.418 925.955 919.222 913.095 906.255 902.533 896.952 894.215 889.604 884.526 878.652 869.202 860.717 855.687 841.966 826.659 809.108 792.120 777.117 761.254 745.919 732.482 720.238 708.920 696.102 696.140 697.841 691.504 679.394 666.955 658.163 653.706 646.919 641.777 628.681 618.860 615.068 604.004 592.215 582.499 574.514 568.441 563.985 558.976 553.709 545.976 540.160 537.504 530.082 523.715 517.668 509.195 501.302 491.297 484.025 481.336 480.972 478.286 475.469 468.994 467.657 464.854 458.689 456.783 453.072 444.938 440.819 439.005 433.705 427.680 423.614 419.241 415.039 417.510 415.695 410.914 406.905 405.698 405.003 405.312 404.165 398.866 399.084 398.251 396.966 400.688 403.441 405.757 405.745 403.988 397.906 388.044 383.569 382.716 382.793 382.846 383.188 384.328 384.965 382.886 385.533 385.332 385.024 385.242 385.320 385.396 385.749 392.816 393.792 396.802 396.940 399.576 403.090 403.731 406.057 408.426 413.081 414.733 416.145 417.710 418.472 422.247 430.863 432.884 443.011 444.576 449.226 462.270 469.502 474.175 482.590 488.642 492.803 500.489 508.135 514.208 521.802 526.253 532.603 540.713 549.440 559.628 568.804 581.996 595.497 609.260 624.318 641.974 657.771 670.194 679.678 692.132 700.773 711.135 715.842 719.206 719.269 734.783 752.045 766.457 781.100 793.859 804.139 806.837 808.759 809.754 816.164 825.329 840.269 854.809 868.961 880.573 891.724 896.673
1717.083 1718.333 1715.529 1710.803 1708.685 1702.770 1695.078 1693.390 1693.390 1693.390 1693.390 1693.390 1693.390 1694.305 1691.743 1698.304 1703.634 1694.850 1683.315 1668.646 1657.026 1655.904 1654.075 1654.342 1653.506 1655.231 1661.976 1665.680 1663.767 1666.876 1674.329 1681.194 1686.815 1689.079 1694.810 1702.429 1710.510 1717.547 1715.912 1719.479 1731.761 1734.732 1739.871 1745.044 1749.739 1753.514 1756.912 1753.467 1753.752 1765.024 1775.685 1742.220 1728.368 1716.411 1705.974 1698.860 1690.254 1695.055 1685.742 1676.885 1673.238 1666.435 1658.133 1644.016 1635.792 1625.749 1614.963 1603.483 1592.837 1578.305 1565.077 1553.331 1538.963 1523.458 1507.782 1497.562 1490.876 1482.105 1473.194 1465.519 1456.739 1448.321 1437.400 1426.776 1415.524 1406.850 1399.303 1387.720 1374.654 1365.071 1355.697 1340.888 1331.877 1322.669 1314.644 1308.479 1304.272 1298.252 1290.826 1277.609 1268.293 1257.615 1247.787 1235.582 1223.971 1214.135 1205.089 1195.101 1186.265 1178.443 1170.574 1161.193 1151.605 1140.533 1128.668 1120.346 1112.608 1105.921 1099.213 1092.380 1088.553 1088.809 1087.155 1079.277 1074.120 1070.674 1069.979 1063.851 1061.091 1054.341 1052.051 1042.995 1034.913 1032.410 1025.837 1024.519 1020.524 1017.536 1017.722 1010.369 999.918 987.646 976.196 976.102 977.958 976.259 976.743 980.939 980.734 979.903 980.326 986.259 991.591 1010.716 1002.548 994.406 994.480 1011.717 1005.981 1010.493 997.275 985.237 974.990 963.504 964.554 968.518 975.027 979.707 983.039 978.744 988.714 985.867 978.862 969.734 958.870 951.812 945.367 937.152 929.911 924.352 918.083 912.995 909.454 904.155 898.484 892.572 888.811 882.344 868.966 861.910 851.796 837.557 821.251 806.431 791.748 774.285 759.629 746.000 734.096 723.837 711.623 700.849 696.889 701.165 692.373 679.415 666.828 659.384 657.803 650.400 646.925 636.879 625.903 616.355 609.275 596.807 589.010 582.120 574.446 567.420 561.449 556.233 550.823 542.108 536.430 527.061 520.345 515.106 509.351 502.322 491.039 483.600 482.143 481.114 481.098 476.286 469.869 466.610 463.984 460.638 458.165 454.676 447.700 441.755 437.554 434.525 431.334 426.487 423.965 422.264 420.710 417.401 414.567 411.791 408.826 408.066 408.651 407.977 403.837 403.854 401.582 400.634 401.479 402.820 404.267 405.708 404.751 400.228 392.984 385.524 383.557 383.459 382.971 383.228 383.978 385.713 382.625 386.035 385.293 385.191 385.770 385.332 386.172 386.166 388.827 392.755 393.892 395.650 398.535 401.337 401.768 404.235 407.834 410.565 411.207 413.030 414.481 413.172 418.321 425.956 431.041 438.120 446.665 447.364 459.323 470.130 475.145 483.181 488.474 493.764 501.568 511.795 513.329 521.687 526.831 536.291 547.251 557.800 567.873 578.709 589.027 603.668 617.379 635.179 647.715 660.221 672.731 683.957 695.674 706.957 719.013 726.841 733.970 729.773 724.995 738.409 749.911 766.964 780.620 789.583 786.080 798.396 815.769 822.862 833.396 846.773 859.725 872.045 886.587 899.930 912.419
1720.347 1717.349 1712.600 1711.245 1708.972 1701.290 1698.557 1693.390 1693.390 1693.390 1693.390 1693.390 1693.390 1691.969 1693.953 1696.835 1700.720 1693.685 1686.870 1670.993 1659.005 1654.842 1654.228 1653.528 1652.796 1653.021 1656.167 1660.299 1662.534 1662.070 1671.087 1680.472 1684.301 1688.067 1689.865 1695.050 1700.464 1710.973 1707.775 1711.805 1718.494 1728.611 1733.556 1740.686 1744.968 1751.456 1758.782 1758.072 1751.207 1761.676 1765.947 1756.176 1745.503 1731.982 1718.617 1712.454 1700.270 1691.291 1696.597 1685.379 1681.574 1673.967 1664.253 1655.573 1646.457 1634.963 1624.924 1612.041 1596.710 1586.982 1573.483 1556.593 1540.286 1523.286 1511.347 1500.946 1494.211 1484.558 1474.828 1466.205 1456.367 1446.222 1436.281 1423.870 1411.568 1401.057 1392.626 1381.331 1370.746 1362.722 1352.383 1339.353 1329.666 1321.353 1312.947 1307.140 1302.150 1295.546 1287.151 1282.807 1268.482 1256.331 1245.994 1235.937 1227.017 1219.618 1211.805 1202.860 1192.661 1183.675 1174.507 1163.486 1153.656 1141.397 1133.450 1124.532 1116.740 1110.964 1103.721 1105.728 1103.406 1099.517 1096.256 1087.602 1083.399 1077.428 1075.756 1074.198 1066.894 1062.463 1057.300 1051.421 1041.354 1035.552 1030.665 1029.767 1030.022 1029.368 1023.441 1013.532 1000.207 989.129 987.917 988.923 989.889 994.176 996.194 996.370 1002.914 1000.538 999.554 998.440 1004.471 1019.381 1023.486 1015.140 1007.948 1021.442 1019.264 1015.600 1013.410 999.717 983.985 976.748 980.370 985.072 993.637 999.918 998.611 1002.154 995.069 985.254 976.639 971.156 964.143 957.974 951.763 943.642 936.572 929.496 924.459 918.801 911.386 908.179 901.628 896.830 894.320 879.899 863.453 859.537 846.275 833.090 816.979 800.579 786.555 771.630 756.893 745.887 733.007 720.819 711.166 701.377 695.952 700.261 695.166 683.439 669.193 663.427 661.099 657.836 649.130 637.992 629.625 617.579 611.241 603.283 594.517 584.466 577.568 571.352 565.066 560.267 553.027 546.242 538.683 524.930 517.873 511.806 508.194 503.862 497.782 493.382 490.939 486.794 481.732 476.147 469.585 468.647 465.293 463.710 460.409 455.641 449.696 443.183 443.355 441.377 437.008 430.559 427.372 425.251 424.439 421.704 418.438 415.301 413.042 411.599 410.373 409.548 409.848 406.487 406.055 404.304 404.841 404.788 405.063 406.181 405.429 400.069 395.247 386.933 384.055 383.358 383.209 383.375 383.798 386.673 383.361 385.505 385.713 386.116 386.163 386.225 386.232 386.083 389.648 390.835 393.233 395.870 397.634 398.967 399.324 400.883 405.618 407.790 408.927 410.238 411.273 414.285 414.843 418.771 424.324 432.464 444.420 449.061 454.504 467.707 475.278 480.539 488.276 493.870 499.813 510.793 513.836 522.617 535.053 545.985 557.049 567.700 579.496 589.736 599.750 614.214 626.073 647.778 657.444 666.654 677.065 688.719 701.051 712.690 726.256 737.291 746.427 748.145 746.565 744.121 757.225 762.117 765.827 780.333 801.282 815.880 828.508 836.832 847.625 860.371 869.035 879.252 889.437 904.164 916.251
1726.582 1718.222 1717.055 1714.615 1709.245 1703.789 1702.087 1696.115 1693.390 1693.390 1693.390 1693.390 1693.390 1691.731 1693.435 1694.792 1695.005 1692.849 1689.728 1679.028 1666.020 1654.766 1653.246 1652.465 1651.251 1652.588 1654.147 1655.215 1656.648 1661.112 1661.830 1669.351 1674.166 1679.699 1685.911 1690.314 1692.396 1700.704 1699.281 1704.477 1711.777 1721.979 1727.938 1732.363 1741.608 1747.425 1753.886 1755.043 1748.695 1753.754 1764.217 1771.757 1769.131 1753.590 1742.498 1724.179 1709.748 1699.342 1694.030 1693.670 1693.681 1686.335 1672.717 1662.104 1653.902 1644.833 1633.122 1623.091 1611.471 1601.886 1589.892 1572.187 1557.380 1539.700 1522.203 1513.369 1504.068 1491.746 1479.772 1468.300 1457.251 1447.245 1434.328 1423.618 1409.935 1396.734 1386.511 1375.447 1367.354 1358.816 1347.777 1337.057 1329.284 1321.000 1314.073 1307.885 1299.360 1291.020 1281.863 1274.271 1264.471 1253.939 1243.371 1237.541 1231.359 1225.524 1216.710 1208.138 1197.433 1184.695 1174.416 1163.910 1152.655 1143.355 1136.753 1128.863 1121.282 1123.845 1119.668 1117.361 1115.647 1109.597 1105.449 1099.635 1094.153 1087.092 1083.105 1081.140 1078.835 1074.031 1067.247 1055.549 1044.471 1037.679 1038.814 1037.352 1036.480 1034.583 1027.391 1016.182 1000.503 996.831 1002.191 1004.534 1005.389 1011.553 1014.596 1015.843 1012.174 1008.918 1006.866 1009.964 1012.084 1027.219 1032.397 1024.676 1017.730 1031.442 1039.159 1029.053 1021.502 1005.586 997.411 998.519 998.390 1003.046 1014.370 1015.906 1010.625 1002.932 992.481 983.584 976.266 971.980 974.978 970.089 961.970 950.915 941.978 935.518 931.881 923.154 914.162 910.329 905.119 900.511 890.606 874.043 858.299 848.986 836.758 822.764 809.539 798.434 783.641 768.267 754.835 743.698 731.709 719.723 712.591 702.659 698.028 700.812 693.865 680.822 669.061 667.434 667.599 664.944 655.299 640.662 633.305 624.366 613.203 608.478 601.133 591.344 584.842 576.266 567.053 562.183 555.007 549.209 539.004 526.787 520.581 514.679 511.724 508.818 501.905 501.859 496.249 489.416 484.921 478.496 473.283 470.732 466.417 464.612 461.950 456.865 454.856 447.121 444.439 444.539 440.783 436.135 430.134 428.300 426.798 425.154 422.951 420.140 417.571 416.639 414.204 412.053 411.446 412.482 409.289 408.842 405.759 406.510 406.503 406.717 405.999 402.816 398.811 392.265 384.868 383.689 383.689 384.145 384.383 386.664 385.777 383.739 387.157 386.292 386.532 386.520 386.307 386.669 388.526 390.003 392.548 393.886 395.361 397.312 398.032 399.804 403.015 405.344 406.413 408.126 409.694 411.113 412.204 412.693 420.287 430.413 442.300 450.972 453.819 463.766 472.383 479.163 487.389 492.971 497.642 509.021 516.385 524.439 534.014 546.580 561.145 573.829 586.478 597.416 608.213 621.552 635.932 654.666 665.358 673.821 683.711 694.203 706.253 717.290 731.029 742.710 754.543 761.358 762.316 765.778 764.061 784.815 792.380 800.899 819.488 830.934 840.286 848.529 858.604 870.178 879.635 890.873 900.715 911.267 924.168
1728.940 1722.815 1720.527 1720.794 1714.135 1705.935 1700.205 1696.361 1695.032 1693.390 1693.390 1693.390 1693.390 1693.930 1691.919 1688.661 1687.584 1686.633 1686.695 1680.780 1672.279 1656.463 1653.043 1651.068 1650.797 1652.533 1653.221 1654.013 1655.484 1656.908 1654.593 1661.301 1667.525 1669.381 1676.841 1684.765 1681.915 1688.334 1691.630 1696.687 1703.631 1711.631 1721.474 1725.885 1735.397 1740.820 1746.394 1750.490 1744.609 1745.020 1752.617 1761.082 1784.226 1787.211 1777.099 1736.838 1719.856 1710.097 1703.720 1701.322 1701.416 1693.010 1691.413 1675.278 1664.931 1652.649 1643.112 1635.001 1623.710 1615.380 1604.912 1597.917 1581.928 1557.856 1549.139 1536.299 1523.795 1503.347 1487.497 1473.109 1461.603 1452.853 1439.297 1425.567 1409.376 1394.592 1383.478 1373.198 1364.435 1354.956 1345.191 1340.456 1333.797 1328.330 1320.366 1312.446 1304.096 1296.343 1287.274 1274.905 1263.321 1252.248 1244.506 1239.336 1232.750 1224.584 1215.897 1205.746 1195.032 1183.308 1171.646 1163.969 1154.414 1147.113 1140.943 1134.671 1131.014 1134.649 1129.351 1126.172 1122.961 1121.416 1116.032 1110.051 1100.272 1094.417 1088.921 1085.184 1079.933 1073.398 1063.797 1053.426 1046.718 1048.345 1046.378 1044.409 1043.384 1035.649 1028.535 1015.513 1006.735 1006.387 1009.903 1021.505 1021.518 1019.481 1019.538 1017.672 1012.104 1009.337 1012.150 1021.905 1018.157 1032.384 1037.561 1032.222 1033.435 1037.661 1043.825 1045.168 1030.260 1012.821 1015.461 1020.622 1016.469 1035.818 1034.947 1023.170 1012.260 1005.109 1000.792 992.839 985.805 981.226 980.927 981.314 979.735 963.845 952.404 941.718 933.117 925.792 918.749 912.992 911.659 910.326 889.657 873.836 853.196 841.915 828.214 814.005 805.511 797.159 783.419 764.923 751.343 739.783 728.462 717.909 708.526 701.008 696.609 699.514 692.538 681.270 672.490 670.949 671.431 670.773 661.888 650.733 637.321 629.726 614.373 610.059 605.684 595.587 590.787 584.151 572.257 563.037 555.220 548.967 544.084 534.018 526.272 522.069 518.649 510.799 503.141 501.623 497.165 491.179 488.091 481.923 477.324 474.394 468.672 465.735 464.362 460.505 459.358 453.968 449.419 446.101 443.701 442.305 433.045 431.310 430.706 429.253 426.293 423.630 422.682 419.989 418.779 417.821 415.142 415.717 414.989 410.430 408.235 408.916 407.066 407.252 406.340 403.670 400.711 396.489 388.463 384.708 383.992 384.209 384.793 385.993 386.171 384.220 385.908 386.624 386.841 386.661 386.822 387.292 387.982 389.392 391.119 392.511 393.712 395.749 397.429 399.472 402.025 404.746 404.655 404.936 408.450 409.182 409.292 409.524 410.371 421.594 434.001 447.584 453.926 461.141 470.926 480.417 484.009 492.032 498.244 507.596 516.999 524.092 534.002 544.569 558.897 573.661 587.792 599.362 612.202 624.011 639.441 651.833 663.063 673.884 685.405 698.885 710.651 721.852 734.212 743.659 747.061 753.517 766.607 777.018 785.229 788.084 801.668 814.339 825.855 835.429 844.644 855.323 865.044 876.589 886.938 899.005 908.406 918.488 930.790
1731.257 1728.948 1726.772 1722.600 1713.653 1706.201 1701.960 1698.155 1696.154 1693.764 1693.591 1693.390 1694.384 1692.322 1689.012 1683.383 1682.848 1680.387 1680.921 1678.651 1675.947 1662.625 1661.949 1656.086 1648.953 1653.421 1651.505 1648.598 1652.407 1648.855 1651.476 1655.459 1659.447 1662.894 1671.432 1677.187 1674.458 1680.074 1686.091 1692.086 1698.950 1708.652 1715.967 1720.777 1730.665 1734.254 1742.692 1743.628 1739.565 1737.031 1744.656 1753.801 1765.994 1780.930 1785.642 1762.731 1741.889 1726.827 1716.125 1709.872 1705.353 1702.598 1691.715 1681.952 1672.609 1659.813 1653.043 1646.803 1637.522 1631.209 1622.319 1614.736 1607.019 1597.830 1568.533 1561.879 1560.370 1551.033 1547.019 1497.643 1479.815 1468.297 1455.308 1432.798 1416.112 1397.560 1382.839 1371.357 1362.840 1355.297 1352.970 1348.976 1345.233 1337.950 1331.267 1323.548 1315.401 1306.398 1296.812 1285.409 1271.342 1258.155 1246.826 1238.407 1230.288 1223.070 1211.697 1198.606 1187.149 1180.091 1173.592 1163.982 1157.138 1151.915 1149.742 1148.632 1146.460 1143.202 1138.758 1134.102 1129.851 1127.031 1120.788 1111.001 1100.888 1094.394 1092.706 1086.964 1080.754 1072.596 1063.600 1060.994 1059.067 1060.855 1057.715 1055.320 1052.132 1041.512 1031.076 1021.747 1016.357 1014.607 1016.177 1021.781 1024.662 1022.050 1019.360 1016.181 1014.113 1015.983 1024.916 1027.213 1031.750 1043.070 1036.352 1035.230 1038.235 1039.933 1036.811 1037.892 1034.609 1032.988 1032.646 1029.382 1026.076 1027.778 1029.558 1023.170 1012.564 1002.000 994.145 984.792 978.239 977.125 980.105 980.711 978.480 970.996 958.673 946.181 938.352 931.894 925.407 920.450 911.965 901.894 883.193 866.107 849.913 834.864 821.264 810.016 806.522 797.995 782.821 764.002 750.629 737.251 725.997 715.790 705.301 698.446 693.439 699.560 692.812 680.655 675.913 672.421 673.804 672.010 668.653 656.022 640.246 632.990 624.164 613.729 607.796 601.422 595.380 587.175 575.825 564.759 553.647 551.326 548.135 538.891 534.846 531.047 525.412 517.150 507.991 502.299 498.072 494.154 490.494 484.780 478.526 474.900 471.425 466.058 464.811 462.909 461.226 457.582 454.264 454.269 447.854 447.983 443.626 436.571 434.424 433.705 431.487 428.505 425.949 425.214 424.084 423.174 420.985 418.939 417.591 414.853 412.484 409.359 410.292 408.184 407.803 404.504 402.488 399.051 392.049 384.964 384.762 385.032 385.314 385.566 387.132 387.646 384.665 387.681 386.813 387.177 386.574 386.760 387.052 389.066 390.309 391.810 393.481 395.382 396.934 400.317 402.584 402.147 401.762 404.763 406.438 406.641 406.974 407.333 407.407 412.619 425.128 439.125 453.110 459.598 469.444 479.590 483.090 491.589 497.473 506.488 517.786 524.524 532.612 543.760 558.059 571.493 584.097 595.680 609.203 623.463 637.915 649.548 661.180 674.337 687.215 699.247 712.350 720.396 725.078 727.496 729.169 740.480 758.490 775.908 790.072 801.837 808.621 817.736 829.068 840.189 849.988 859.171 868.613 878.384 886.232 894.419 903.998 914.698 930.196
1731.377 1732.097 1737.869 1729.520 1720.823 1713.514 1707.567 1704.828 1703.215 1702.400 1700.807 1695.604 1691.816 1688.327 1690.199 1685.534 1677.375 1674.240 1673.644 1671.091 1671.170 1667.849 1663.053 1657.721 1650.068 1651.007 1649.994 1648.138 1645.206 1644.012 1647.542 1648.056 1659.484 1662.245 1663.890 1670.347 1668.719 1672.249 1682.746 1687.151 1694.455 1703.650 1711.719 1716.940 1724.021 1728.832 1734.607 1737.353 1732.724 1730.538 1736.720 1749.772 1752.152 1764.683 1771.549 1779.729 1754.170 1740.141 1726.610 1719.236 1715.471 1707.096 1697.349 1688.061 1678.222 1669.195 1665.635 1660.484 1653.172 1647.695 1639.550 1632.945 1627.224 1617.883 1610.452 1603.095 1591.770 1574.538 1565.835 1548.470 1510.867 1496.741 1460.783 1453.560 1432.965 1409.802 1390.195 1375.871 1367.669 1365.032 1360.709 1357.350 1351.475 1346.527 1339.224 1332.458 1322.533 1312.364 1303.336 1290.562 1273.749 1258.830 1245.300 1236.850 1228.424 1216.133 1205.518 1196.846 1193.230 1184.426 1177.142 1169.138 1163.575 1162.327 1160.853 1157.658 1156.331 1151.354 1144.847 1141.255 1135.531 1129.635 1122.587 1108.675 1099.465 1094.264 1091.436 1088.345 1084.228 1072.483 1068.055 1065.641 1073.761 1074.387 1068.615 1067.176 1062.641 1050.455 1041.759 1033.870 1027.875 1024.037 1020.047 1016.804 1017.719 1019.357 1019.246 1015.205 1010.089 1022.040 1030.666 1032.002 1035.727 1039.010 1041.257 1039.397 1038.521 1037.853 1032.339 1031.861 1030.836 1028.828 1026.060 1022.615 1018.531 1018.383 1019.402 1017.796 1006.600 998.312 989.089 978.666 973.182 974.884 978.929 980.645 975.426 965.689 956.001 948.233 942.568 935.469 929.382 916.709 909.757 904.105 895.365 862.773 848.115 832.934 813.008 805.171 801.591 793.070 776.727 760.482 748.121 731.985 720.845 711.931 701.264 697.187 692.259 697.971 692.658 680.324 675.770 674.812 672.904 671.013 669.971 661.767 650.867 636.087 631.861 624.350 614.651 603.095 600.284 591.433 581.105 572.336 560.798 551.750 551.427 548.579 541.656 535.752 529.125 521.967 515.885 507.582 503.277 499.715 493.184 488.825 482.962 476.831 472.948 467.701 468.033 465.111 462.540 462.202 460.403 460.802 454.950 449.254 447.400 443.936 439.006 436.682 435.680 433.293 430.729 430.281 429.858 427.538 426.349 424.566 419.866 418.512 416.398 414.087 411.789 409.017 408.219 406.385 402.584 399.461 394.667 386.547 385.320 385.409 385.265 385.394 387.383 387.123 384.795 386.308 386.838 387.114 386.489 386.895 387.130 387.625 389.879 391.411 392.986 394.445 396.788 401.145 400.968 397.667 402.339 403.484 404.358 404.997 404.953 405.459 405.979 410.139 420.699 435.024 450.215 459.577 466.861 479.267 485.223 491.299 495.559 506.231 518.008 524.395 533.690 541.985 553.400 566.681 579.942 592.814 606.970 620.312 634.022 645.142 659.557 672.637 686.109 697.541 701.659 703.855 708.498 708.179 723.787 737.847 756.797 772.584 791.209 801.398 810.872 817.409 825.941 832.588 837.575 844.137 853.412 870.864 880.554 889.884 899.371 910.793 928.538
1734.011 1736.947 1739.575 1732.349 1724.209 1717.742 1712.130 1709.775 1706.934 1705.473 1709.154 1707.031 1697.710 1690.006 1684.093 1684.383 1680.069 1673.349 1673.208 1671.318 1670.340 1668.264 1666.342 1662.709 1652.035 1644.308 1643.614 1641.344 1636.241 1640.275 1639.712 1644.109 1652.990 1659.304 1658.777 1663.749 1663.410 1671.239 1680.422 1684.570 1693.088 1704.192 1710.961 1714.345 1723.448 1732.381 1731.333 1731.656 1725.920 1727.530 1730.556 1743.975 1747.775 1751.881 1758.101 1765.466 1774.115 1759.439 1742.826 1731.980 1726.431 1717.502 1706.126 1697.462 1690.542 1684.498 1680.129 1677.476 1671.050 1666.171 1658.017 1652.386 1650.230 1643.069 1634.595 1627.741 1623.248 1617.318 1589.949 1563.893 1526.819 1507.949 1482.564 1470.567 1446.807 1420.112 1401.579 1386.295 1376.713 1373.679 1370.940 1367.149 1362.597 1358.745 1350.504 1343.494 1330.359 1319.070 1305.274 1292.357 1271.500 1255.263 1244.728 1233.411 1223.681 1216.785 1207.874 1201.485 1194.549 1189.144 1182.062 1174.605 1172.257 1172.447 1171.503 1165.377 1162.507 1158.181 1151.382 1143.177 1137.621 1129.516 1117.320 1106.959 1101.000 1097.254 1093.155 1091.039 1081.331 1075.598 1072.349 1077.373 1087.074 1087.006 1083.541 1080.529 1073.554 1062.374 1051.748 1044.475 1039.302 1035.079 1026.589 1021.710 1020.041 1018.945 1016.413 1016.430 1014.138 1020.657 1027.618 1032.497 1035.520 1035.287 1036.165 1036.601 1034.615 1034.383 1028.142 1024.351 1026.111 1023.087 1017.542 1012.802 1009.671 1011.063 1010.740 1007.735 1002.051 996.722 987.637 978.483 971.317 974.810 979.578 979.099 974.310 963.905 952.054 943.025 934.373 927.817 922.599 913.219 904.137 898.921 887.632 864.914 845.542 827.776 808.823 804.089 798.492 787.721 771.211 756.408 744.237 726.367 715.121 703.995 698.350 694.992 697.684 699.411 690.954 679.651 673.655 673.943 672.213 669.890 667.717 663.451 653.876 646.903 639.148 628.955 616.340 605.837 600.225 591.754 586.172 577.569 568.961 562.312 558.257 553.702 551.812 543.551 536.586 529.366 522.131 512.534 508.579 502.704 497.156 494.690 487.298 479.673 473.616 471.476 467.213 465.037 463.151 462.182 461.164 461.210 461.403 450.791 450.110 446.477 442.903 439.147 438.289 435.951 433.471 434.806 433.855 432.890 430.393 429.609 424.276 420.352 417.973 417.221 413.532 410.081 409.377 406.616 403.419 400.623 397.410 389.056 385.572 385.765 386.082 387.151 388.073 386.858 384.982 385.886 387.709 387.216 387.236 387.087 387.355 387.975 389.569 390.932 392.379 393.647 394.282 397.208 397.498 400.136 400.984 401.946 402.837 403.277 403.393 403.848 404.332 404.176 415.052 429.461 443.663 458.320 466.948 477.483 487.409 490.623 494.849 503.119 514.238 524.137 532.693 541.499 553.037 566.540 579.706 592.995 606.163 619.550 632.912 646.516 659.356 673.617 684.696 686.232 685.398 688.963 692.844 715.565 728.673 741.594 750.800 757.539 778.920 781.197 793.614 801.769 806.539 814.324 825.343 834.505 849.184 863.819 875.429 880.210 888.395 906.455 928.463
1737.177 1741.066 1740.016 1732.581 1727.382 1717.794 1713.830 1711.034 1708.475 1706.187 1710.107 1707.938 1704.088 1700.528 1692.067 1686.749 1683.149 1679.395 1679.165 1675.625 1672.415 1672.941 1666.295 1660.341 1654.359 1640.886 1640.070 1638.569 1634.815 1637.000 1634.125 1634.201 1643.067 1651.976 1656.689 1659.052 1662.152 1669.180 1676.186 1685.189 1694.027 1702.870 1709.052 1716.070 1722.597 1730.083 1726.866 1726.108 1721.983 1722.538 1724.435 1731.338 1736.582 1738.439 1750.734 1757.589 1775.041 1779.617 1765.394 1748.924 1741.153 1727.160 1719.427 1712.079 1706.200 1700.893 1697.075 1694.157 1695.690 1688.359 1675.442 1670.352 1665.801 1658.087 1654.220 1649.250 1643.576 1642.108 1629.243 1603.284 1580.593 1543.564 1524.446 1530.549 1481.889 1444.067 1414.797 1398.727 1387.095 1384.181 1381.347 1378.198 1374.230 1367.969 1359.236 1352.569 1340.074 1324.345 1308.257 1288.220 1270.860 1258.125 1248.858 1237.402 1229.456 1220.627 1213.744 1206.650 1201.826 1196.010 1188.649 1184.352 1184.060 1181.862 1178.511 1172.150 1166.802 1160.631 1151.658 1142.012 1133.314 1122.384 1114.364 1107.899 1104.781 1100.367 1093.493 1088.740 1083.573 1081.464 1080.223 1088.672 1095.357 1097.643 1096.675 1094.149 1083.582 1071.690 1061.934 1056.036 1050.465 1043.455 1035.196 1029.820 1025.310 1025.104 1025.283 1022.243 1021.362 1020.345 1019.724 1019.924 1024.646 1026.955 1026.016 1028.668 1027.957 1027.928 1025.411 1017.926 1017.881 1017.537 1008.345 1003.229 1002.284 1004.609 1002.710 998.437 993.825 989.345 980.073 970.767 972.297 978.480 982.405 979.144 971.112 960.852 947.986 937.866 928.692 920.653 914.610 905.008 897.301 894.490 877.276 853.400 839.442 825.130 810.483 803.683 796.713 780.057 764.591 752.029 737.360 722.923 710.710 702.601 699.694 698.460 700.145 699.726 685.614 674.804 672.418 672.189 669.920 667.275 666.182 662.627 660.742 654.931 648.019 634.210 618.291 606.679 601.567 594.262 587.300 580.447 574.039 569.825 562.413 555.551 553.466 549.938 540.623 534.031 529.023 516.453 509.598 504.154 498.214 494.472 485.946 480.579 480.537 471.427 469.255 464.628 463.502 462.944 462.680 461.113 459.593 455.525 450.235 448.444 447.158 441.963 440.826 439.338 437.468 433.291 434.959 436.269 433.118 431.602 429.266 425.388 420.681 418.667 415.960 411.499 411.191 407.946 403.366 401.096 396.862 390.774 387.144 388.328 388.607 388.524 387.198 386.759 387.187 386.131 386.759 386.618 387.285 387.652 387.771 388.333 389.427 389.852 390.886 393.065 393.843 395.249 396.779 398.609 399.531 400.560 401.496 401.506 402.398 402.711 402.900 402.623 411.409 424.905 438.776 454.397 468.432 476.830 488.155 492.802 495.360 503.048 510.417 522.514 531.262 541.601 555.351 569.260 579.629 591.736 602.668 617.342 631.278 644.204 657.194 669.602 672.188 668.357 671.103 683.719 704.767 718.409 735.258 750.110 766.202 778.334 786.520 798.797 803.449 811.196 819.347 831.680 844.287 844.716 847.039 855.830 866.037 880.904 893.780 911.779 918.011
1734.600 1741.000 1738.307 1733.199 1726.086 1717.372 1713.097 1712.461 1709.550 1708.370 1708.733 1705.520 1705.183 1706.562 1702.233 1693.913 1690.815 1684.874 1683.093 1678.396 1675.253 1670.974 1663.612 1658.319 1657.394 1644.112 1636.976 1633.455 1630.942 1626.477 1627.337 1630.849 1634.851 1647.915 1656.025 1656.328 1656.863 1666.732 1673.049 1685.606 1694.995 1704.069 1710.106 1716.299 1720.753 1729.238 1724.121 1720.667 1720.483 1722.144 1722.087 1725.179 1727.202 1732.036 1739.913 1749.737 1765.838 1776.208 1783.156 1772.098 1759.462 1744.005 1731.848 1728.808 1725.719 1717.816 1713.893 1713.726 1713.131 1705.343 1698.572 1689.993 1680.360 1674.507 1669.082 1665.101 1664.028 1658.653 1645.466 1616.843 1607.918 1609.421 1599.541 1557.354 1526.865 1491.617 1448.364 1408.143 1397.343 1395.398 1392.665 1388.159 1382.610 1375.498 1366.722 1358.484 1348.019 1328.278 1311.542 1293.036 1280.343 1265.825 1256.225 1248.049 1239.035 1230.261 1222.795 1216.201 1211.011 1203.756 1198.006 1197.516 1194.447 1190.425 1185.158 1178.487 1172.086 1161.551 1149.842 1137.104 1128.981 1123.403 1121.051 1117.320 1112.154 1103.870 1097.903 1093.599 1091.296 1089.947 1092.062 1100.300 1105.056 1110.286 1107.612 1103.682 1091.515 1080.541 1073.495 1066.425 1059.392 1050.710 1042.272 1036.413 1029.838 1028.001 1023.862 1020.570 1016.760 1017.249 1017.522 1014.501 1017.133 1015.240 1018.303 1020.237 1022.168 1023.643 1021.721 1019.128 1018.309 1020.866 1013.859 1007.354 1004.374 1007.520 1005.515 1003.981 1000.450 993.857 987.180 984.448 984.417 986.274 983.770 980.004 972.894 959.498 947.397 936.737 926.314 916.561 909.261 898.104 893.281 884.941 867.157 850.113 832.039 819.110 809.486 805.341 790.513 772.930 760.029 749.702 730.847 717.777 707.797 703.802 708.210 706.758 702.952 695.241 681.761 673.521 670.499 667.895 664.817 663.167 661.490 660.875 659.985 656.694 648.914 639.782 621.613 612.071 606.097 594.736 587.439 582.688 576.457 572.955 564.829 556.983 550.984 546.994 543.443 536.212 528.796 522.246 512.447 506.179 499.912 494.893 485.742 482.195 485.078 479.412 467.296 464.054 463.995 464.336 463.263 461.599 457.136 456.258 453.315 450.663 447.725 442.389 442.076 443.504 438.871 436.843 435.126 435.149 433.191 432.848 430.433 426.118 423.081 420.048 416.959 413.578 412.261 408.757 405.639 401.118 399.721 392.744 390.750 389.089 389.511 388.627 387.057 386.944 387.102 385.277 387.133 386.715 387.421 387.589 387.590 388.378 389.108 389.452 390.882 391.923 393.525 394.149 394.422 397.581 398.533 399.273 399.870 400.458 401.107 401.586 401.713 402.736 407.419 419.435 434.097 449.230 464.506 473.928 483.778 492.533 497.754 503.669 510.075 522.410 532.941 541.748 551.985 561.318 571.441 581.278 595.474 618.479 629.714 640.578 652.927 660.979 654.352 665.091 682.266 697.961 714.849 730.764 743.074 756.750 769.225 780.872 793.079 802.919 811.660 819.772 832.309 843.795 855.430 864.939 873.018 877.626 883.058 895.138 908.237 920.285 935.668
1733.863 1738.593 1736.408 1731.443 1721.501 1718.149 1718.218 1715.395 1715.131 1708.377 1707.287 1706.609 1711.803 1718.307 1710.865 1697.003 1691.248 1690.795 1680.895 1675.217 1671.653 1670.883 1667.102 1656.055 1653.454 1640.664 1632.876 1624.662 1631.000 1627.402 1618.499 1626.931 1630.407 1639.965 1654.125 1653.388 1654.610 1665.855 1672.539 1686.319 1695.966 1704.043 1712.489 1718.595 1721.889 1724.315 1723.839 1720.610 1721.073 1722.723 1721.905 1723.073 1724.629 1733.027 1739.226 1744.201 1764.067 1772.746 1777.679 1784.904 1770.035 1756.246 1747.238 1746.643 1744.242 1735.583 1731.078 1731.666 1729.476 1721.487 1713.123 1705.586 1695.606 1691.540 1687.678 1682.055 1681.709 1674.647 1660.489 1657.926 1643.803 1618.979 1590.944 1562.376 1544.081 1505.154 1469.695 1441.509 1411.085 1407.856 1404.634 1398.584 1392.273 1383.426 1373.998 1363.719 1346.163 1332.281 1318.969 1305.391 1294.711 1279.001 1268.286 1258.181 1249.382 1240.502 1231.929 1226.799 1219.774 1214.854 1213.309 1213.683 1208.633 1200.328 1192.288 1182.841 1172.383 1159.377 1145.509 1139.683 1139.670 1135.750 1129.907 1126.025 1117.819 1110.551 1105.538 1103.857 1102.847 1101.208 1103.728 1110.653 1117.451 1123.310 1122.212 1113.460 1100.955 1092.754 1085.457 1075.338 1066.850 1059.960 1053.795 1046.874 1038.822 1033.027 1029.667 1022.094 1019.710 1017.754 1016.690 1012.115 1013.979 1016.735 1018.649 1023.740 1029.081 1032.115 1026.797 1024.837 1022.475 1019.900 1016.488 1012.993 1008.316 1010.712 1011.698 1011.592 1008.114 1005.219 998.593 995.698 992.083 991.604 988.547 981.622 972.021 959.124 946.640 930.818 920.663 911.804 904.868 892.974 890.625 882.016 863.670 843.274 827.851 815.805 805.389 803.528 790.188 773.105 768.620 746.993 729.473 715.860 710.584 715.137 716.622 713.298 704.817 694.225 682.542 673.235 667.637 664.042 659.219 655.837 656.212 655.041 653.056 652.068 644.821 640.817 625.173 616.610 612.966 607.368 596.331 587.812 579.055 570.204 563.385 557.394 552.817 547.351 542.524 535.971 529.045 523.575 515.589 507.480 500.191 495.392 487.173 482.346 484.421 483.733 478.715 470.031 465.478 465.075 464.057 466.800 456.906 454.322 454.551 454.576 452.498 448.295 445.895 445.344 442.052 438.329 436.483 434.684 433.878 432.175 430.012 427.562 424.134 420.166 417.824 414.184 412.763 408.981 405.101 401.725 399.023 394.507 391.837 388.650 388.738 388.972 387.211 387.400 387.174 385.692 387.856 387.264 387.340 387.469 388.005 389.043 389.442 389.492 390.476 391.748 394.309 393.212 392.993 396.363 397.259 398.007 398.635 399.423 400.159 400.994 401.712 403.662 407.853 415.278 428.580 442.680 456.277 469.733 479.262 487.695 496.373 504.208 509.524 521.798 531.960 537.340 535.844 550.249 552.696 561.372 601.506 615.556 624.510 633.714 644.420 644.978 656.561 671.672 686.041 701.817 719.763 737.477 752.906 763.573 771.723 781.411 791.741 803.722 814.524 826.456 839.019 851.798 864.008 876.410 886.034 892.601 900.140 912.233 920.730 938.296 954.095
1733.575 1734.704 1735.041 1726.317 1716.076 1715.160 1717.417 1712.611 1709.359 1707.743 1708.313 1715.311 1722.575 1722.383 1716.026 1704.344 1695.006 1691.393 1684.263 1673.842 1667.172 1666.413 1661.191 1652.431 1637.628 1631.922 1627.389 1625.682 1619.268 1617.543 1616.016 1620.908 1628.149 1637.269 1646.223 1649.672 1651.183 1658.587 1670.399 1686.200 1697.290 1704.779 1713.097 1722.420 1725.518 1723.088 1721.454 1717.265 1720.589 1722.449 1720.008 1719.979 1723.456 1727.210 1735.578 1739.849 1754.476 1763.470 1768.804 1773.825 1783.949 1773.300 1764.504 1767.984 1760.334 1753.563 1748.649 1747.673 1742.900 1737.295 1728.054 1718.583 1711.365 1707.592 1705.782 1702.423 1703.735 1688.828 1673.308 1654.612 1636.063 1608.423 1578.407 1554.734 1536.652 1504.643 1485.149 1461.376 1428.019 1420.849 1417.545 1410.417 1401.927 1392.560 1380.797 1366.865 1355.228 1347.877 1333.048 1319.397 1309.016 1289.393 1278.684 1268.412 1258.416 1251.378 1242.849 1239.336 1233.031 1231.333 1229.720 1229.042 1222.448 1214.932 1207.299 1197.645 1189.198 1169.126 1153.979 1153.913 1148.360 1142.188 1135.285 1133.016 1126.538 1118.130 1115.272 1113.507 1115.188 1113.224 1115.941 1122.739 1127.942 1130.986 1131.291 1123.152 1111.526 1103.416 1093.013 1081.655 1076.974 1070.827 1064.253 1056.220 1048.887 1042.488 1036.989 1031.000 1026.575 1026.096 1025.273 1020.925 1024.335 1024.202 1028.514 1035.750 1041.166 1041.690 1039.559 1036.278 1031.746 1024.681 1021.924 1015.319 1013.690 1015.065 1019.430 1019.999 1017.935 1011.859 1009.099 1003.004 997.954 996.103 990.654 982.259 974.089 958.997 941.264 925.783 915.450 906.177 898.198 886.980 887.391 873.622 854.885 837.224 823.894 813.197 808.186 802.494 791.779 777.682 765.007 748.083 732.112 724.098 718.375 720.864 722.155 716.087 702.006 690.960 678.379 672.533 663.474 655.232 652.771 650.961 652.997 652.659 652.693 652.681 644.408 640.904 631.306 624.521 622.663 615.284 607.417 597.199 583.238 573.114 564.675 560.172 557.100 549.349 548.383 543.967 537.852 530.250 522.114 514.112 504.615 497.552 488.210 486.025 486.655 481.186 477.197 474.581 471.076 467.842 465.042 464.947 465.103 457.272 457.347 455.860 455.835 451.796 449.969 450.002 447.170 440.798 437.999 435.518 434.318 432.489 430.126 427.511 424.860 422.802 417.460 415.713 412.432 408.607 406.268 403.724 400.869 398.092 393.409 389.536 388.605 389.314 387.719 387.342 387.590 386.015 388.402 387.408 387.621 387.916 388.178 389.605 389.923 389.793 389.774 390.875 391.603 391.980 391.869 391.674 391.387 391.776 394.532 392.436 397.953 400.674 402.787 404.951 407.858 413.059 424.706 437.198 448.127 459.377 471.866 484.224 496.296 503.249 508.274 514.197 516.982 515.110 531.669 547.201 561.740 568.588 605.403 608.093 613.831 624.048 628.917 643.417 658.961 675.511 691.255 706.682 721.294 739.372 753.681 765.353 774.240 784.880 795.526 809.305 821.692 833.677 847.203 858.535 872.268 885.490 897.499 905.946 914.208 919.987 929.010 946.472 963.520
1734.696 1737.138 1734.082 1723.421 1714.251 1712.540 1711.095 1709.884 1709.166 1711.061 1711.965 1716.605 1721.724 1723.964 1717.772 1708.335 1700.692 1693.113 1685.343 1679.522 1666.838 1655.928 1649.177 1641.838 1634.497 1630.972 1628.127 1621.102 1616.648 1612.314 1612.929 1619.238 1627.700 1634.579 1645.182 1644.870 1648.126 1658.718 1668.279 1684.368 1697.400 1706.521 1714.763 1724.572 1724.880 1720.872 1716.906 1710.394 1711.974 1719.166 1715.403 1711.804 1715.521 1722.441 1730.998 1735.876 1742.975 1750.536 1758.969 1764.557 1774.256 1781.679 1784.656 1783.583 1776.395 1770.745 1762.469 1759.736 1757.642 1752.723 1744.035 1739.417 1733.307 1740.566 1737.551 1722.037 1705.197 1685.883 1664.194 1648.713 1625.934 1607.699 1571.536 1550.492 1520.465 1499.877 1475.578 1459.042 1439.910 1435.058 1429.886 1420.856 1411.032 1400.825 1388.439 1378.460 1366.430 1351.622 1340.507 1332.600 1318.203 1305.487 1291.505 1277.676 1267.928 1262.245 1254.839 1251.943 1245.916 1248.148 1245.848 1240.815 1233.070 1225.489 1217.268 1207.781 1199.693 1187.074 1166.139 1166.266 1160.894 1160.398 1147.894 1143.442 1136.352 1128.051 1128.012 1125.653 1127.144 1126.772 1130.034 1134.845 1138.641 1142.084 1141.458 1134.359 1123.175 1112.170 1102.279 1092.763 1090.361 1082.427 1075.282 1068.409 1060.878 1054.018 1047.506 1042.841 1038.549 1040.461 1039.512 1037.051 1041.037 1037.528 1040.828 1051.008 1056.682 1054.317 1053.258 1050.385 1042.961 1035.843 1032.788 1028.624 1024.307 1023.848 1024.343 1024.896 1023.206 1018.500 1014.576 1011.036 1004.888 1000.430 993.865 984.417 973.161 958.712 940.476 925.240 913.114 902.937 893.891 883.217 880.484 868.704 851.331 837.640 828.452 816.355 804.234 792.435 781.581 773.104 761.427 748.102 733.844 727.712 726.068 723.440 720.710 710.630 699.300 688.265 678.738 672.177 665.647 657.122 654.069 654.966 654.496 655.556 656.778 652.416 644.651 643.608 640.100 632.298 627.081 625.742 611.219 600.306 585.735 573.452 568.318 563.478 558.707 551.746 549.824 549.803 543.399 537.622 527.811 519.383 511.428 500.403 489.278 486.811 488.441 483.796 478.101 472.957 472.157 470.962 466.313 465.910 469.101 464.735 460.516 457.369 457.563 455.603 452.177 451.010 449.972 444.155 439.579 436.374 435.694 433.457 432.184 428.711 425.619 423.274 419.128 414.794 411.394 409.916 408.238 405.787 403.041 401.143 393.846 389.457 388.809 388.513 387.527 387.705 387.966 386.354 388.796 387.561 388.164 388.292 388.318 388.884 388.720 389.130 389.720 390.222 390.061 390.701 390.896 390.861 391.020 391.139 391.351 391.476 394.067 398.772 403.104 406.351 409.248 412.191 418.340 429.025 439.817 451.576 461.505 472.048 482.560 491.635 497.909 495.021 502.841 511.088 529.731 547.970 564.470 599.260 598.564 614.066 626.421 634.257 643.019 651.139 666.874 682.144 697.642 712.409 727.264 741.896 754.322 767.150 778.781 790.479 799.387 812.510 826.791 841.145 856.741 870.182 882.692 896.982 908.709 919.540 929.845 936.813 943.386 952.633 961.079
1733.750 1736.599 1731.383 1718.439 1712.941 1711.504 1710.666 1709.863 1709.208 1710.675 1713.199 1713.534 1718.308 1722.555 1715.609 1709.690 1706.580 1698.747 1687.262 1678.107 1672.771 1660.297 1649.552 1641.499 1635.507 1632.363 1627.281 1624.843 1615.924 1613.295 1611.053 1614.045 1624.645 1630.664 1638.040 1641.980 1645.124 1655.271 1663.764 1675.716 1694.858 1704.671 1716.754 1722.589 1720.155 1717.511 1714.326 1706.557 1704.533 1709.362 1707.942 1705.108 1708.936 1719.608 1729.192 1729.904 1734.750 1743.450 1755.036 1763.375 1768.746 1773.122 1774.445 1777.665 1784.778 1783.624 1776.123 1774.111 1774.226 1770.521 1767.411 1768.177 1765.631 1756.439 1734.738 1715.827 1696.864 1680.223 1659.375 1642.712 1628.557 1595.457 1561.992 1539.325 1513.421 1495.579 1480.866 1466.603 1456.028 1450.296 1443.170 1433.035 1422.913 1412.780 1405.554 1395.325 1378.360 1363.901 1353.344 1342.339 1328.253 1313.307 1301.283 1286.772 1280.494 1275.146 1268.703 1264.798 1262.757 1263.547 1257.182 1256.900 1245.720 1232.910 1223.983 1214.248 1204.339 1188.977 1180.826 1178.624 1172.635 1168.048 1161.149 1154.331 1144.129 1142.980 1139.398 1137.252 1139.956 1138.810 1143.070 1148.807 1151.636 1153.726 1151.331 1143.470 1135.250 1129.569 1119.327 1109.294 1103.912 1096.139 1089.443 1080.300 1073.312 1066.611 1058.449 1056.097 1054.225 1055.162 1057.271 1055.806 1058.459 1053.239 1064.565 1069.856 1073.736 1066.842 1069.772 1066.333 1057.201 1051.302 1044.938 1041.243 1036.012 1034.437 1038.303 1033.811 1029.279 1027.288 1022.279 1019.250 1010.870 1000.783 992.666 982.923 971.767 955.771 940.107 925.809 913.786 901.640 889.822 880.777 873.554 867.594 851.376 837.588 826.318 812.223 800.845 784.979 771.293 773.773 757.752 744.164 734.715 729.046 730.874 726.317 718.522 710.107 698.502 690.452 681.546 673.184 667.431 661.106 657.284 658.921 658.699 658.888 659.563 654.182 646.378 643.528 641.777 632.721 628.065 620.934 612.732 603.697 591.388 583.146 576.074 564.663 561.109 554.455 551.781 550.840 549.904 538.798 530.253 521.619 513.163 502.078 492.035 489.421 487.263 483.458 478.357 473.345 470.549 468.346 467.396 467.261 465.035 469.103 462.516 458.624 460.733 458.779 455.426 452.159 450.181 444.841 441.024 438.436 436.255 434.734 432.509 432.141 427.210 424.603 420.814 417.178 414.721 410.742 408.466 407.300 404.969 402.701 393.670 388.647 388.357 388.342 387.742 387.770 388.339 386.923 388.274 388.384 388.415 388.459 388.724 388.932 389.308 389.541 389.767 390.509 391.052 391.281 391.318 391.107 391.295 391.365 391.566 391.788 392.273 398.104 402.763 406.144 409.567 414.091 418.360 422.682 431.806 442.674 449.622 459.217 470.162 474.936 481.560 492.177 505.364 518.697 526.707 543.835 561.128 581.927 597.633 611.555 628.330 639.334 649.688 659.613 670.149 682.250 692.105 705.916 722.213 733.651 748.993 763.021 775.590 787.244 799.891 812.785 827.653 841.822 857.269 871.329 885.196 901.010 917.922 931.946 946.146 958.595 960.893 967.434 975.342
1729.932 1732.613 1727.498 1717.839 1712.515 1711.724 1712.184 1712.607 1708.222 1708.636 1713.493 1711.611 1713.074 1718.636 1714.899 1711.068 1708.884 1701.035 1688.937 1679.425 1673.001 1667.889 1655.586 1643.669 1638.947 1631.637 1626.538 1622.245 1619.535 1612.889 1610.220 1609.459 1620.579 1623.897 1636.010 1637.275 1640.610 1651.351 1658.448 1668.395 1683.680 1700.687 1709.345 1723.223 1720.332 1713.031 1707.562 1700.605 1698.756 1697.248 1698.500 1697.227 1698.972 1714.360 1723.018 1726.451 1726.693 1735.653 1747.047 1763.146 1767.418 1770.433 1765.596 1768.346 1777.316 1789.636 1802.724 1794.813 1795.465 1800.971 1792.898 1794.689 1782.991 1767.069 1740.913 1724.563 1705.500 1680.424 1657.908 1635.674 1617.469 1611.216 1572.271 1559.464 1533.431 1507.846 1488.432 1480.765 1471.791 1464.193 1455.076 1445.788 1440.009 1439.128 1419.049 1413.811 1391.753 1375.480 1362.431 1354.673 1339.580 1324.689 1331.496 1305.456 1295.118 1281.534 1282.531 1279.371 1281.023 1278.889 1274.744 1273.105 1267.129 1243.124 1230.131 1220.135 1211.344 1199.589 1197.297 1192.333 1185.417 1181.353 1171.012 1168.209 1165.896 1156.672 1153.595 1152.009 1152.940 1152.607 1156.894 1163.013 1166.403 1167.047 1161.631 1156.124 1159.101 1143.744 1138.770 1123.964 1115.437 1110.437 1104.447 1093.684 1084.526 1077.225 1072.610 1071.052 1068.188 1070.894 1076.958 1095.613 1104.637 1127.812 1117.271 1097.526 1097.699 1099.273 1087.174 1081.497 1074.830 1068.193 1060.609 1054.414 1044.513 1037.323 1041.203 1040.704 1036.279 1031.376 1030.596 1025.530 1018.662 1005.700 997.536 988.285 973.888 958.669 944.385 929.308 914.267 899.637 887.263 877.867 868.103 859.803 845.333 831.287 816.632 806.194 796.848 780.160 768.288 767.107 751.683 741.449 735.227 729.400 728.588 728.125 723.412 710.531 700.709 691.457 682.770 673.594 670.136 665.001 659.944 660.998 661.731 661.448 660.114 655.554 646.043 644.278 641.194 632.133 625.646 617.548 608.831 604.817 598.208 591.735 584.602 571.785 561.934 558.836 553.975 552.612 552.390 543.529 534.766 524.318 514.885 507.684 499.357 493.288 488.691 484.599 473.619 473.234 469.547 469.150 469.403 468.893 468.950 469.220 469.765 465.342 459.594 459.433 457.551 452.822 449.653 445.496 442.345 439.574 438.308 437.253 435.618 431.800 428.356 426.407 422.082 417.604 415.384 411.089 407.855 406.616 404.752 403.131 393.407 389.770 388.842 388.502 388.171 388.050 388.978 387.234 386.764 389.552 388.292 388.286 388.924 389.290 389.448 389.886 390.210 390.616 390.940 391.452 391.459 391.307 391.233 391.760 391.958 393.158 392.251 397.310 402.931 405.561 409.707 414.086 422.177 425.888 430.820 435.620 439.955 447.216 454.545 461.932 474.478 491.826 507.707 522.040 537.019 548.675 562.368 578.861 600.666 616.630 630.843 641.604 652.614 665.899 677.780 688.378 702.797 719.150 731.241 742.759 753.922 762.126 774.637 787.383 801.889 816.194 829.106 841.934 855.280 868.531 884.451 902.415 919.439 936.636 951.911 966.924 983.993 999.776 990.792
1729.414 1729.355 1722.855 1719.083 1712.459 1711.474 1712.296 1713.343 1707.910 1708.996 1712.603 1710.959 1711.433 1717.253 1720.163 1716.238 1712.007 1706.074 1696.614 1689.079 1676.457 1669.815 1661.919 1650.209 1644.075 1637.345 1629.417 1623.524 1618.492 1612.499 1609.242 1609.271 1611.721 1623.871 1629.315 1635.715 1634.753 1642.853 1653.184 1661.236 1676.156 1695.808 1704.302 1723.569 1718.079 1708.341 1701.397 1695.635 1692.198 1687.562 1687.624 1688.588 1691.560 1704.168 1717.583 1723.464 1722.435 1729.114 1736.157 1744.985 1762.412 1764.378 1762.517 1765.624 1772.324 1780.837 1794.041 1810.657 1813.179 1808.768 1807.093 1799.519 1792.050 1767.646 1749.795 1735.185 1723.291 1719.076 1707.614 1668.050 1633.516 1609.817 1598.779 1605.186 1552.948 1540.509 1512.097 1502.466 1487.956 1478.292 1469.181 1466.417 1466.043 1452.428 1435.348 1416.607 1401.942 1387.079 1375.701 1363.486 1360.401 1364.525 1343.660 1319.031 1319.163 1307.667 1299.379 1297.470 1293.019 1290.903 1293.786 1291.719 1280.008 1268.503 1244.702 1242.248 1228.456 1212.886 1211.902 1210.620 1201.601 1193.967 1184.366 1182.725 1174.691 1170.327 1168.809 1167.856 1166.318 1167.478 1170.436 1182.690 1187.715 1180.129 1174.650 1172.070 1184.136 1168.245 1148.820 1140.312 1133.825 1127.005 1118.387 1107.899 1096.620 1093.386 1088.105 1087.479 1094.323 1100.734 1125.905 1150.468 1168.878 1143.250 1131.074 1146.962 1137.913 1115.137 1102.889 1112.408 1099.943 1087.153 1077.020 1068.277 1056.262 1048.562 1049.385 1045.914 1042.807 1036.137 1031.686 1028.795 1018.389 1010.158 1001.865 990.599 978.063 961.831 943.356 929.097 912.362 896.990 882.644 874.834 866.098 853.401 837.597 827.529 813.613 804.105 790.793 776.050 774.586 762.796 747.339 744.468 735.876 730.021 727.917 727.376 724.766 713.037 702.829 691.398 681.008 674.097 672.216 668.872 662.464 664.156 662.610 664.517 659.752 656.141 646.086 642.036 637.704 632.965 629.028 617.484 608.647 605.167 597.397 593.907 592.121 574.735 564.535 561.982 559.517 555.640 553.024 545.540 539.813 530.023 515.827 507.394 501.277 495.636 490.902 488.222 483.102 475.861 470.189 475.777 469.407 470.703 471.207 469.424 469.807 468.608 462.806 460.938 456.795 453.965 450.555 447.636 444.770 441.938 439.478 439.033 436.928 433.762 429.171 426.400 423.753 419.663 414.943 410.301 406.370 405.445 404.683 403.509 392.817 391.081 389.620 388.799 389.075 388.704 389.262 389.320 386.970 389.701 388.839 388.345 389.185 389.717 389.988 390.059 390.402 390.851 391.273 391.446 391.889 391.738 391.934 392.287 392.935 393.691 392.988 393.067 401.222 403.947 407.700 411.829 415.887 424.465 424.786 433.904 441.063 450.276 460.684 473.060 487.420 503.273 517.214 531.120 543.178 555.430 570.118 584.844 599.742 615.247 629.780 642.898 655.300 666.866 679.635 692.715 707.861 725.097 741.351 751.059 762.676 772.682 783.971 796.001 805.041 818.654 831.184 844.230 857.674 872.175 887.916 903.239 922.771 937.250 951.770 967.474 987.273 1011.181 1023.343
1729.910 1724.095 1721.752 1716.093 1711.023 1709.111 1711.406 1711.677 1706.960 1708.701 1710.567 1706.662 1708.535 1714.441 1718.851 1718.396 1717.422 1710.387 1701.537 1692.119 1684.726 1674.710 1664.063 1656.763 1647.870 1642.290 1630.867 1621.189 1614.904 1608.995 1608.775 1609.428 1609.462 1612.867 1623.276 1629.355 1629.677 1636.316 1647.763 1660.101 1672.672 1689.362 1698.706 1715.777 1715.784 1705.375 1699.450 1690.802 1686.177 1680.997 1678.203 1681.476 1683.591 1696.991 1709.643 1717.692 1717.159 1721.880 1729.267 1732.082 1738.847 1753.775 1759.745 1764.618 1770.071 1778.198 1786.394 1805.019 1809.681 1799.886 1794.834 1787.943 1784.230 1776.765 1762.586 1749.307 1743.981 1741.479 1706.435 1666.785 1672.977 1682.867 1648.271 1633.594 1604.259 1570.321 1537.904 1512.995 1501.534 1488.932 1485.640 1492.772 1477.132 1456.581 1440.895 1424.055 1407.595 1394.769 1391.195 1395.591 1391.747 1374.995 1352.500 1344.966 1336.213 1318.270 1316.925 1315.713 1307.338 1301.463 1297.034 1297.969 1291.671 1276.801 1262.259 1251.308 1236.310 1226.604 1227.521 1224.993 1217.478 1207.910 1200.102 1198.622 1190.445 1182.044 1185.818 1182.167 1181.259 1182.569 1193.902 1198.750 1202.668 1195.876 1190.778 1206.065 1190.284 1178.488 1168.090 1165.820 1166.503 1145.019 1149.985 1153.037 1168.480 1145.252 1119.749 1118.837 1115.378 1133.863 1149.169 1175.042 1172.444 1168.219 1163.646 1160.119 1158.123 1156.707 1153.350 1144.452 1129.897 1108.264 1093.228 1079.240 1066.164 1059.257 1056.342 1053.011 1049.088 1046.735 1037.726 1031.461 1026.357 1013.445 1002.805 991.946 977.987 968.255 947.489 929.591 913.624 897.813 882.684 875.683 865.856 849.374 834.675 823.353 809.362 802.529 787.005 773.331 774.182 756.258 748.636 743.475 733.606 728.203 726.076 724.688 720.148 711.251 701.629 690.586 680.527 673.959 670.047 672.901 666.525 662.020 662.233 663.082 660.022 655.702 646.814 639.848 634.200 630.744 625.661 615.378 605.141 601.460 594.073 588.814 588.274 578.949 569.124 564.837 562.733 558.884 554.857 546.450 539.071 530.553 523.317 515.933 509.331 499.476 496.069 492.529 491.473 485.512 474.927 474.837 474.166 475.809 476.234 472.945 469.841 469.805 465.339 462.502 454.058 453.451 450.879 448.381 447.026 443.102 441.599 441.436 438.593 435.908 432.532 429.337 424.953 420.650 415.682 409.406 406.018 405.524 403.024 401.046 396.420 391.537 390.664 389.595 389.212 388.849 389.397 389.899 387.683 389.971 388.659 388.766 389.513 389.997 390.165 390.345 390.632 391.282 391.651 391.876 392.513 392.232 392.880 393.400 392.885 393.584 393.583 393.287 395.839 401.460 404.793 408.836 414.031 417.000 428.977 435.656 445.196 456.048 471.495 486.095 497.987 511.655 524.173 536.958 546.638 561.170 586.163 594.517 603.067 616.232 630.690 644.179 657.257 672.106 683.160 695.634 714.685 726.224 738.861 751.162 764.608 778.146 792.569 804.808 814.130 825.784 835.989 847.432 862.492 879.512 893.213 907.915 923.143 935.780 950.697 967.466 1002.173 1016.770 1037.621
1730.485 1721.951 1715.896 1713.625 1707.919 1706.177 1706.658 1704.633 1706.101 1708.158 1708.076 1703.234 1706.648 1713.022 1717.371 1717.088 1717.307 1716.587 1707.912 1699.815 1692.240 1683.553 1670.384 1661.220 1651.593 1641.789 1636.172 1621.323 1610.930 1608.546 1607.683 1609.146 1609.455 1610.006 1617.645 1628.168 1625.778 1632.240 1643.670 1657.197 1668.854 1684.051 1691.943 1703.362 1709.779 1703.826 1694.786 1686.014 1678.526 1673.042 1670.421 1673.741 1675.206 1691.785 1703.448 1712.165 1713.914 1718.130 1715.301 1718.900 1725.151 1738.378 1748.284 1760.591 1761.630 1770.810 1782.291 1790.129 1801.565 1790.458 1782.295 1775.225 1775.601 1775.509 1770.971 1764.961 1760.128 1757.463 1726.659 1733.686 1727.155 1695.826 1666.007 1649.107 1611.305 1577.872 1546.834 1525.925 1526.595 1509.996 1504.795 1505.590 1486.873 1492.407 1492.073 1472.653 1450.386 1437.141 1419.851 1414.918 1399.387 1380.989 1383.675 1363.965 1345.056 1336.353 1330.950 1329.671 1319.156 1310.112 1311.318 1302.993 1295.195 1287.091 1273.041 1257.584 1244.591 1241.363 1242.724 1244.906 1239.844 1244.314 1222.594 1215.572 1209.511 1217.422 1209.497 1201.543 1198.879 1201.872 1226.260 1235.609 1220.342 1212.500 1218.429 1222.338 1215.923 1232.586 1235.036 1228.923 1216.782 1224.462 1225.517 1221.041 1210.578 1211.177 1206.486 1199.414 1185.291 1182.919 1177.766 1174.645 1169.530 1164.682 1159.838 1156.169 1152.800 1149.780 1147.256 1140.344 1135.805 1132.236 1107.163 1091.509 1077.571 1070.592 1063.265 1059.189 1055.628 1053.713 1046.783 1036.187 1025.646 1015.233 1002.982 992.264 979.656 970.575 948.655 930.638 914.523 899.515 884.767 876.554 868.838 850.497 835.152 820.368 808.853 799.861 783.854 779.873 771.821 756.598 750.756 742.979 732.821 726.171 723.929 722.371 717.216 710.500 700.821 689.827 679.893 675.257 670.681 673.700 669.142 665.868 659.972 658.989 655.159 652.783 642.592 636.216 632.002 628.381 622.863 609.002 601.875 597.024 592.006 589.673 585.657 580.715 570.285 565.993 561.766 560.168 554.733 544.880 538.321 533.518 529.170 519.939 511.788 505.456 504.032 502.794 496.475 489.588 482.537 477.696 480.606 480.473 479.556 478.818 469.770 469.248 469.521 464.650 457.841 455.783 452.967 451.289 449.114 445.979 443.975 444.725 439.072 436.183 435.617 431.571 425.294 421.079 417.031 410.535 406.605 404.707 402.215 401.454 399.759 391.052 390.942 389.752 389.435 388.478 389.477 389.979 388.164 390.420 389.355 389.804 390.993 390.664 390.915 391.079 391.243 391.543 392.409 392.293 392.400 393.147 392.885 392.972 393.272 393.673 394.024 394.458 393.738 399.512 401.862 406.110 411.486 416.831 431.779 440.777 451.180 463.483 476.796 489.535 504.336 517.214 527.324 536.157 548.953 561.626 577.838 590.870 601.910 615.059 626.636 640.536 658.883 681.269 694.724 708.832 722.668 736.078 744.717 757.491 771.138 782.388 794.363 806.577 820.993 834.472 845.620 856.400 866.489 882.961 896.004 909.887 923.339 937.413 960.395 990.504 1005.983 1021.944 1035.574
1731.129 1723.028 1716.183 1709.959 1705.449 1702.088 1701.487 1700.774 1703.394 1706.635 1703.016 1700.990 1704.851 1709.571 1712.734 1712.540 1715.370 1715.611 1710.918 1705.255 1696.098 1687.306 1675.131 1664.113 1653.935 1640.265 1633.071 1623.726 1612.676 1608.887 1607.873 1608.078 1609.122 1609.752 1611.535 1619.450 1622.837 1634.598 1642.093 1652.874 1662.470 1673.699 1683.178 1695.492 1705.237 1700.299 1689.958 1682.073 1672.399 1666.323 1660.865 1662.838 1668.457 1678.993 1691.751 1701.735 1709.487 1713.517 1706.163 1699.360 1711.615 1722.793 1728.713 1743.676 1748.555 1752.923 1767.615 1787.924 1791.346 1777.482 1767.500 1760.301 1759.240 1757.188 1762.994 1762.146 1759.564 1752.290 1743.198 1731.952 1724.635 1715.404 1679.997 1654.860 1627.807 1593.817 1560.457 1548.222 1565.340 1546.216 1528.913 1517.512 1506.656 1517.313 1500.516 1481.002 1461.512 1444.703 1435.356 1422.213 1408.484 1407.882 1402.167 1379.581 1360.281 1352.956 1345.807 1337.909 1326.814 1318.443 1323.002 1316.556 1301.644 1292.574 1285.587 1269.180 1258.003 1263.338 1263.168 1263.777 1259.379 1254.396 1240.014 1249.467 1241.933 1237.050 1233.679 1246.387 1242.659 1223.560 1241.146 1243.334 1233.393 1231.743 1263.464 1258.564 1253.187 1247.264 1241.906 1236.806 1231.530 1225.671 1221.081 1217.626 1212.729 1208.771 1203.384 1196.280 1190.193 1183.550 1178.010 1172.175 1166.203 1162.071 1157.451 1153.061 1149.454 1145.873 1142.320 1134.625 1131.569 1132.944 1128.176 1110.757 1095.447 1083.726 1071.241 1063.177 1058.831 1053.231 1049.564 1045.855 1035.814 1023.289 1005.118 992.132 979.793 968.200 950.446 930.384 913.134 896.659 882.849 872.269 865.354 849.859 834.313 819.372 809.078 799.275 785.442 784.533 769.591 760.377 751.686 745.733 736.126 727.823 724.690 720.941 717.187 707.478 697.027 688.775 680.544 674.804 670.824 671.989 670.775 668.310 660.316 653.442 651.888 648.228 640.139 634.555 630.775 627.349 618.973 604.071 595.618 592.363 588.278 589.297 587.899 583.354 577.034 569.299 565.007 563.382 558.485 552.487 545.240 538.155 531.687 524.713 518.962 513.211 507.338 503.005 500.524 493.707 488.595 482.347 482.580 482.918 482.566 480.879 475.016 469.229 469.347 469.740 465.522 459.651 455.685 452.456 450.581 448.329 445.647 445.062 441.994 437.929 434.919 431.874 426.138 420.834 416.319 413.045 409.357 405.732 404.605 402.163 401.106 397.339 391.241 389.965 389.950 389.383 390.242 389.862 388.573 390.167 390.185 389.939 390.920 391.762 391.325 391.536 391.515 392.005 392.256 392.823 392.874 393.338 393.441 393.162 393.401 393.884 394.346 394.426 394.588 397.138 399.779 403.318 408.158 411.710 425.179 438.056 451.217 465.513 479.755 488.958 503.215 516.863 529.383 538.101 549.532 559.552 571.535 582.610 594.156 606.362 620.055 641.168 663.268 684.610 703.652 714.032 729.078 749.229 761.006 771.051 782.044 791.792 796.600 806.331 818.803 832.047 845.736 858.603 871.195 880.530 893.796 909.764 927.951 952.465 975.943 992.242 1006.010 1024.025 1034.130
1732.981 1725.095 1718.164 1711.565 1706.034 1702.804 1700.968 1699.300 1697.984 1699.983 1698.864 1700.380 1704.927 1709.021 1711.072 1714.946 1716.078 1713.204 1709.604 1704.109 1699.246 1689.238 1679.864 1667.111 1657.397 1643.385 1631.108 1622.583 1613.529 1608.601 1607.353 1607.874 1608.781 1609.092 1616.041 1617.607 1624.861 1634.400 1641.682 1650.811 1659.567 1670.205 1680.173 1693.662 1702.223 1694.315 1685.115 1676.368 1664.474 1657.316 1651.835 1654.891 1660.271 1667.338 1676.846 1688.503 1698.476 1704.519 1700.723 1693.235 1695.797 1710.912 1717.477 1720.351 1736.519 1738.246 1752.556 1773.977 1782.501 1768.569 1756.750 1747.183 1741.458 1739.088 1742.601 1746.049 1745.824 1736.928 1724.688 1713.199 1708.967 1699.920 1693.669 1666.669 1637.809 1596.660 1568.325 1571.226 1585.583 1572.346 1554.325 1535.246 1530.322 1532.305 1513.404 1492.661 1476.145 1469.420 1443.947 1449.785 1445.090 1424.203 1401.858 1381.394 1376.411 1368.445 1356.458 1346.755 1338.214 1329.878 1322.223 1320.561 1307.942 1300.865 1290.739 1282.473 1269.942 1279.862 1281.720 1290.932 1286.401 1298.648 1293.276 1279.004 1262.421 1259.271 1291.526 1280.263 1261.107 1266.073 1262.183 1262.049 1250.224 1265.220 1261.651 1256.138 1250.218 1244.523 1239.575 1235.829 1229.642 1223.147 1218.708 1215.340 1210.497 1206.209 1200.842 1193.373 1186.611 1180.318 1173.378 1169.828 1164.601 1159.190 1153.826 1149.733 1145.898 1142.877 1138.800 1131.051 1129.643 1127.476 1126.078 1121.786 1109.936 1096.396 1083.456 1075.193 1066.668 1059.990 1051.712 1048.180 1039.676 1024.526 1011.289 995.667 985.043 970.888 956.782 936.458 917.018 899.738 885.437 874.113 860.292 847.428 833.507 818.416 810.127 801.767 787.750 784.402 769.514 760.695 754.376 750.740 742.559 733.411 728.790 722.615 717.896 708.032 697.472 689.001 678.949 675.106 672.305 671.110 670.872 668.375 661.830 658.512 656.649 649.492 640.916 636.135 631.555 621.780 609.363 600.326 596.766 589.982 586.874 585.578 583.928 582.454 580.086 575.478 570.129 565.035 564.575 558.129 551.050 544.411 535.488 529.180 522.070 516.999 509.757 507.957 501.071 498.445 492.654 483.191 485.354 484.748 483.649 481.524 479.858 469.708 469.355 469.790 465.966 462.997 457.319 455.453 451.975 451.723 447.854 445.040 441.295 438.117 434.932 430.332 423.814 419.838 416.811 413.465 409.438 407.119 407.473 403.633 400.800 399.604 391.937 390.086 390.300 390.195 390.297 390.219 388.744 390.558 390.352 390.338 391.463 393.256 391.720 391.843 392.052 392.089 392.503 393.296 393.578 393.298 393.839 393.342 393.696 394.115 394.544 394.782 395.425 395.096 397.851 401.520 403.971 411.067 426.568 439.942 453.317 468.224 483.878 487.858 501.219 514.599 528.171 537.438 551.034 559.835 570.852 579.520 591.142 605.478 622.921 642.983 662.613 687.006 705.555 718.576 734.387 750.199 759.145 772.294 789.990 798.426 799.758 803.473 815.126 828.244 841.690 854.825 867.877 881.729 898.279 917.984 937.144 957.535 977.870 994.824 1008.119 1020.192 1031.390
1732.766 1725.470 1719.561 1710.887 1706.196 1702.663 1698.891 1697.568 1694.606 1696.573 1698.864 1699.070 1705.740 1710.354 1712.536 1711.308 1710.694 1707.927 1705.394 1700.440 1696.190 1689.594 1678.834 1669.031 1658.982 1648.266 1637.911 1626.251 1616.436 1609.353 1607.633 1606.986 1607.400 1608.014 1614.028 1616.810 1623.496 1633.526 1642.119 1650.776 1657.733 1666.837 1678.463 1693.678 1699.151 1692.777 1681.336 1670.615 1661.570 1652.691 1646.576 1648.902 1651.411 1659.518 1670.490 1678.536 1692.636 1697.452 1694.367 1684.480 1686.661 1695.786 1705.115 1707.451 1716.474 1726.812 1736.618 1763.778 1774.424 1758.736 1747.375 1737.522 1731.735 1724.531 1727.125 1727.570 1726.888 1717.245 1705.289 1693.196 1681.409 1679.397 1675.008 1672.565 1645.270 1617.709 1607.547 1594.582 1603.176 1577.841 1564.622 1551.240 1545.977 1543.439 1526.523 1513.339 1505.022 1503.788 1485.533 1473.399 1450.475 1433.313 1412.923 1395.523 1390.441 1381.819 1373.302 1362.330 1349.517 1344.760 1333.809 1322.560 1316.732 1310.369 1299.801 1291.921 1300.290 1296.438 1293.703 1300.275 1301.168 1299.656 1297.319 1285.738 1295.334 1291.734 1287.964 1283.206 1280.208 1276.412 1272.304 1269.187 1266.098 1261.438 1258.023 1252.867 1247.917 1242.400 1237.812 1234.234 1227.628 1221.900 1217.118 1213.189 1208.296 1203.428 1197.968 1191.649 1185.806 1178.809 1173.145 1167.659 1159.457 1154.588 1149.698 1146.937 1142.293 1139.827 1134.026 1128.877 1124.964 1123.100 1123.865 1122.131 1119.879 1114.629 1104.916 1089.535 1076.558 1064.711 1054.626 1047.389 1038.555 1026.904 1013.672 999.416 986.657 973.191 957.151 939.084 921.149 906.194 886.294 877.405 858.963 844.189 831.032 815.541 809.772 799.333 787.857 780.444 766.315 763.120 756.100 753.981 748.825 735.850 730.366 723.188 716.091 707.073 695.963 688.312 680.387 675.040 673.381 670.409 669.893 665.849 661.208 656.291 653.610 648.998 642.412 636.477 631.068 619.210 610.214 604.653 600.600 594.249 589.477 586.019 584.882 582.409 581.637 579.273 575.994 565.428 564.145 560.697 554.901 544.675 536.074 530.193 527.764 522.779 517.778 513.471 505.538 501.084 494.365 486.924 486.276 486.113 486.355 483.385 479.303 469.835 469.714 469.772 466.649 462.907 459.935 456.377 451.983 451.889 451.406 446.434 440.713 436.532 434.130 429.592 423.634 420.555 418.327 413.866 410.081 408.940 409.079 406.836 402.672 400.297 392.467 391.499 391.021 390.543 390.701 390.550 389.016 390.681 391.050 391.456 391.437 391.465 391.656 391.984 391.954 392.367 393.022 393.687 393.869 393.552 393.634 393.952 394.232 394.569 394.873 395.144 395.518 396.266 396.861 398.974 400.764 407.561 423.796 439.113 452.638 467.029 482.071 492.187 499.843 512.824 525.893 535.998 548.478 560.476 569.095 578.007 590.389 605.172 625.144 647.425 663.666 679.593 699.143 712.465 734.005 752.356 763.952 784.301 792.580 799.533 798.739 802.828 812.289 823.928 837.298 852.431 866.508 883.613 902.354 924.296 943.923 971.963 988.978 995.545 1006.840 1018.554 1029.044
1733.135 1726.176 1720.863 1715.485 1709.642 1706.990 1699.772 1695.139 1693.323 1695.167 1694.683 1694.714 1703.641 1710.182 1709.461 1708.487 1707.242 1706.348 1702.594 1699.677 1697.562 1688.325 1680.504 1672.759 1663.819 1652.103 1643.449 1629.924 1619.375 1611.866 1607.257 1606.803 1606.585 1606.511 1612.452 1613.560 1620.762 1630.820 1639.434 1649.470 1656.052 1662.109 1674.072 1687.889 1692.936 1686.599 1677.670 1666.301 1658.253 1647.583 1641.101 1643.001 1644.039 1652.954 1661.066 1672.181 1686.480 1694.485 1686.706 1679.061 1681.073 1677.461 1696.219 1699.582 1706.391 1716.451 1724.478 1746.885 1766.996 1747.805 1737.458 1726.907 1721.448 1714.401 1712.285 1709.152 1702.853 1698.188 1679.008 1670.472 1668.446 1663.830 1659.074 1655.712 1660.288 1655.487 1648.192 1626.728 1613.763 1593.190 1577.239 1567.661 1565.304 1553.007 1539.453 1532.240 1520.792 1503.137 1486.967 1473.584 1455.875 1435.858 1422.214 1411.121 1403.053 1393.161 1383.490 1376.473 1362.232 1357.281 1346.945 1332.745 1319.242 1312.414 1304.758 1302.042 1301.802 1295.104 1293.684 1298.070 1300.663 1298.858 1296.600 1293.381 1291.980 1289.229 1285.158 1280.548 1276.424 1271.899 1268.701 1265.703 1261.938 1257.578 1253.996 1246.425 1240.823 1235.031 1233.774 1229.480 1223.923 1219.044 1214.224 1210.691 1206.156 1201.001 1196.045 1189.178 1183.002 1177.444 1172.033 1166.012 1158.594 1152.817 1144.339 1137.666 1137.436 1133.647 1129.663 1125.534 1123.389 1121.115 1120.167 1118.052 1117.961 1118.875 1113.784 1096.579 1084.416 1071.835 1059.341 1046.479 1040.306 1027.463 1015.384 1001.479 989.251 974.159 958.940 945.638 926.731 908.732 889.462 878.474 860.615 846.684 832.525 818.635 808.463 797.325 788.581 775.290 762.557 764.195 753.032 752.946 744.289 733.563 727.253 717.559 709.218 695.391 684.974 673.355 665.810 666.289 662.255 660.622 656.794 653.196 652.533 651.534 644.660 638.973 634.147 629.211 624.970 622.784 616.049 608.950 605.759 595.753 588.714 582.163 581.191 584.142 585.060 586.068 574.004 565.729 565.921 565.004 557.324 550.304 545.047 541.687 538.073 535.365 526.994 519.747 513.137 508.002 500.220 490.644 486.384 486.444 486.375 483.703 478.371 474.221 469.580 469.115 466.793 460.517 455.359 451.817 452.004 451.766 451.657 447.777 441.160 436.063 432.930 427.880 424.275 421.997 419.342 413.717 411.232 409.962 409.601 408.004 403.697 400.620 393.033 391.765 391.345 391.482 390.334 391.333 389.527 390.028 390.889 391.643 391.927 391.935 391.293 391.008 392.410 393.042 392.920 393.533 394.106 393.897 393.963 394.253 394.579 394.941 395.333 395.524 395.886 396.108 396.669 396.955 400.078 406.174 423.770 442.705 454.140 463.807 476.945 490.219 497.688 511.012 526.088 537.452 545.648 559.151 569.224 579.617 590.776 605.253 624.945 649.763 665.692 679.486 693.522 709.521 729.226 748.776 765.043 781.995 792.109 797.214 795.798 800.950 809.890 823.200 835.796 851.341 866.872 884.635 902.183 935.932 953.546 974.802 984.064 992.128 1009.076 1016.229 1024.231
1732.460 1726.322 1721.730 1716.603 1713.216 1710.015 1701.427 1694.578 1692.152 1690.228 1690.694 1691.774 1700.887 1705.322 1705.709 1705.727 1705.016 1704.804 1702.935 1697.999 1697.217 1691.475 1679.663 1674.411 1667.002 1657.082 1646.865 1633.458 1626.717 1615.925 1610.102 1607.383 1606.494 1606.236 1610.168 1610.704 1616.604 1626.404 1633.111 1645.596 1652.240 1655.413 1667.426 1684.930 1685.771 1679.646 1670.810 1661.058 1651.623 1642.279 1636.917 1637.277 1639.398 1642.189 1654.732 1662.027 1675.792 1686.706 1680.923 1673.779 1673.527 1667.540 1671.951 1692.752 1698.492 1707.355 1714.318 1736.578 1756.113 1740.486 1729.597 1719.467 1713.939 1706.195 1702.928 1694.892 1687.039 1676.049 1667.760 1660.409 1656.103 1651.051 1647.993 1645.028 1641.090 1642.208 1645.545 1641.140 1622.236 1605.923 1595.375 1585.512 1580.600 1570.478 1562.528 1543.351 1524.498 1505.155 1486.165 1473.859 1456.484 1444.660 1433.647 1424.969 1412.115 1400.363 1391.759 1384.270 1371.721 1363.942 1355.576 1341.908 1325.817 1318.898 1315.142 1309.321 1306.303 1300.398 1303.041 1305.911 1307.045 1304.144 1296.318 1290.780 1288.968 1286.486 1281.922 1276.917 1272.143 1268.144 1264.014 1259.930 1255.440 1245.774 1250.163 1245.265 1240.109 1234.306 1228.626 1224.008 1219.907 1216.013 1211.989 1207.386 1202.975 1198.692 1192.427 1186.190 1180.451 1174.496 1169.275 1162.383 1155.682 1149.788 1145.697 1138.191 1127.472 1126.880 1124.985 1121.320 1121.088 1120.175 1115.436 1113.456 1113.792 1114.183 1114.687 1097.617 1086.145 1073.464 1061.555 1046.481 1035.054 1023.496 1013.764 998.445 985.960 975.066 959.735 943.695 924.549 904.622 885.776 871.605 859.682 847.710 834.212 823.592 808.446 794.579 784.614 771.014 762.130 760.900 755.356 751.390 738.299 727.322 717.046 703.816 695.516 684.886 675.126 666.020 660.498 660.050 660.453 658.057 653.942 647.423 646.278 646.862 643.786 640.326 637.667 631.911 626.574 622.827 611.592 608.923 601.433 592.878 588.539 588.857 592.075 594.516 596.153 585.713 570.123 565.963 564.491 562.559 556.297 550.543 554.325 546.510 545.184 543.862 537.638 527.018 521.909 512.285 503.057 494.276 487.610 484.964 484.464 481.522 474.938 472.864 469.422 467.970 465.293 460.023 457.091 456.687 451.033 451.905 450.492 449.516 441.898 437.826 434.884 430.419 426.212 425.235 421.606 415.302 412.638 411.341 409.741 408.055 404.444 399.912 393.486 393.072 391.557 391.210 390.732 391.121 389.954 390.438 392.002 391.993 392.032 392.231 392.276 392.604 391.465 392.313 392.902 393.844 394.552 394.358 394.353 394.627 395.248 395.308 395.549 396.099 396.432 396.475 397.063 396.419 397.051 400.744 420.484 439.335 452.449 461.295 472.787 487.046 497.824 508.781 523.267 536.142 544.849 555.279 568.088 578.217 590.484 605.532 624.980 649.263 664.266 677.539 691.081 707.362 719.992 736.272 752.806 772.144 787.973 791.144 790.458 796.823 807.929 820.859 835.268 849.791 866.912 884.091 913.614 941.197 955.081 969.968 982.449 988.949 1005.520 1015.763 1019.103
1738.009 1729.107 1723.901 1721.070 1717.136 1710.331 1701.100 1695.673 1691.055 1688.932 1686.558 1688.751 1701.434 1704.010 1704.948 1703.526 1705.177 1703.956 1701.826 1695.464 1694.512 1689.335 1678.350 1673.750 1667.612 1659.323 1645.981 1633.499 1626.249 1617.265 1612.795 1608.747 1607.244 1605.926 1606.646 1606.413 1612.464 1620.634 1629.320 1637.388 1647.004 1649.801 1659.555 1673.474 1682.153 1673.519 1664.706 1654.460 1647.262 1638.824 1633.566 1631.377 1634.110 1632.389 1643.989 1652.949 1660.566 1675.870 1677.113 1667.897 1666.111 1662.830 1664.374 1678.364 1695.991 1697.999 1703.266 1721.784 1749.603 1733.127 1722.508 1709.544 1702.673 1698.898 1695.113 1686.431 1675.796 1667.948 1661.219 1650.486 1643.610 1640.968 1638.450 1636.267 1629.823 1627.373 1630.010 1631.647 1631.094 1615.015 1605.741 1596.265 1593.534 1576.290 1558.585 1544.439 1526.866 1504.897 1490.636 1479.018 1468.450 1454.255 1441.976 1431.219 1424.782 1413.713 1409.831 1395.622 1380.971 1370.039 1360.224 1346.906 1331.237 1326.431 1320.687 1312.334 1307.893 1308.711 1306.321 1310.847 1314.253 1315.057 1306.448 1299.587 1286.828 1282.559 1277.651 1272.794 1267.115 1263.159 1258.543 1247.876 1239.833 1238.977 1237.327 1239.101 1231.186 1227.778 1225.299 1222.494 1217.164 1213.858 1209.111 1204.753 1199.935 1194.677 1187.961 1181.604 1175.492 1170.003 1164.516 1158.168 1151.518 1146.485 1141.798 1137.779 1132.992 1123.742 1117.826 1117.250 1117.405 1118.088 1115.152 1112.244 1112.191 1114.149 1112.200 1100.226 1085.699 1077.743 1067.509 1056.652 1043.203 1032.465 1020.370 1004.778 990.085 977.736 956.834 937.208 921.107 905.740 890.005 875.379 862.097 848.171 833.456 820.689 809.621 796.777 785.797 771.178 761.807 756.303 755.236 744.275 731.052 720.160 707.287 693.797 686.756 679.523 673.353 666.468 663.908 664.492 661.548 656.688 649.773 649.381 649.218 648.624 644.819 641.376 638.477 631.323 624.021 618.523 613.279 614.814 609.711 600.189 602.548 605.735 604.591 601.979 596.929 583.074 571.049 569.126 563.162 557.854 550.652 551.052 551.536 552.497 551.152 550.622 544.648 532.169 524.801 515.263 506.269 496.019 489.306 483.226 482.490 481.606 473.062 470.511 469.280 468.532 468.354 469.028 459.538 460.538 459.473 456.275 455.195 450.850 444.509 439.122 436.447 434.160 428.674 425.591 422.302 416.246 413.642 413.290 410.203 407.255 404.680 400.587 392.763 392.678 391.660 391.609 391.734 392.204 391.751 390.069 392.338 392.124 392.494 392.672 393.184 392.805 392.284 392.413 393.826 393.832 393.619 394.822 394.883 395.074 395.413 395.883 396.264 396.661 396.885 396.974 397.292 396.959 396.798 400.750 419.907 436.208 448.347 459.929 471.029 484.599 498.219 506.308 520.694 535.156 544.066 554.402 567.382 578.965 590.428 605.734 625.135 647.611 660.541 674.699 687.000 699.410 713.703 729.328 745.379 762.415 782.334 786.027 784.557 791.432 803.622 816.661 830.553 845.277 862.537 880.070 912.614 937.687 948.584 965.086 975.909 985.726 1003.464 1010.010 1017.138
1742.711 1732.549 1725.471 1722.473 1717.601 1711.096 1700.658 1695.427 1692.012 1689.150 1688.945 1685.094 1700.476 1701.999 1701.786 1702.115 1701.902 1700.770 1699.254 1692.852 1693.238 1689.084 1680.413 1672.073 1667.994 1655.200 1642.903 1633.885 1624.950 1619.300 1613.299 1610.385 1607.973 1609.511 1602.314 1602.875 1609.340 1617.209 1627.576 1635.959 1643.662 1646.164 1654.884 1669.472 1677.335 1667.144 1659.722 1649.521 1640.126 1635.073 1630.094 1625.506 1629.635 1626.663 1637.390 1644.144 1651.118 1660.302 1668.887 1661.525 1656.808 1656.656 1656.488 1663.203 1683.376 1688.863 1692.854 1711.218 1737.091 1730.611 1716.081 1704.643 1696.729 1691.272 1688.041 1682.179 1670.125 1662.977 1654.021 1642.800 1636.305 1633.069 1627.841 1623.064 1618.998 1616.499 1619.245 1618.167 1618.857 1617.936 1614.198 1607.398 1594.922 1577.305 1562.332 1545.425 1526.562 1509.553 1495.489 1485.176 1473.292 1463.188 1449.376 1437.205 1432.600 1423.775 1419.873 1401.806 1383.496 1373.976 1362.076 1350.387 1335.334 1330.248 1323.906 1319.670 1312.251 1308.261 1307.526 1312.597 1316.944 1318.037 1315.889 1312.851 1303.179 1293.329 1279.836 1273.009 1272.071 1262.808 1257.316 1253.758 1258.162 1267.784 1262.318 1255.584 1246.672 1237.789 1231.761 1225.997 1218.199 1212.691 1206.671 1202.266 1196.948 1191.039 1184.812 1178.268 1172.817 1166.925 1160.468 1153.192 1146.603 1141.573 1136.522 1132.367 1129.102 1123.424 1119.644 1116.140 1115.772 1116.361 1116.258 1112.245 1112.711 1114.101 1113.516 1097.406 1083.751 1076.537 1067.411 1055.909 1047.257 1043.005 1033.406 1022.017 1002.166 983.414 965.953 948.862 924.150 907.416 891.620 876.202 864.289 850.273 836.630 822.572 811.402 798.577 785.774 772.577 761.989 758.069 752.233 739.875 727.288 714.642 702.124 688.053 681.130 677.589 673.608 668.688 664.969 663.596 660.621 659.719 656.880 656.538 654.341 649.985 645.202 637.725 631.511 628.420 620.791 614.512 615.626 619.658 616.916 611.667 609.614 607.193 607.063 602.120 593.058 579.264 570.781 565.256 561.420 555.846 549.722 547.662 549.179 554.533 554.313 556.127 550.504 537.226 525.746 514.981 507.447 496.150 489.149 482.710 481.929 480.260 473.669 473.201 469.875 469.096 469.165 468.936 469.141 466.035 463.003 460.736 453.351 451.256 450.125 440.766 437.949 435.672 431.759 426.875 423.589 417.808 414.701 412.962 409.959 406.408 404.377 401.528 392.657 392.915 392.954 392.029 391.025 392.357 392.586 390.753 392.595 393.025 392.930 393.040 393.574 393.241 393.707 393.442 394.344 394.727 394.987 394.353 395.756 395.897 395.798 396.319 396.666 397.015 397.283 397.438 397.654 397.419 397.369 399.387 418.546 430.282 441.509 454.479 467.631 480.664 494.420 504.898 518.103 531.278 543.757 553.451 567.109 579.063 589.926 606.176 626.009 644.282 658.794 672.140 682.613 696.716 713.459 726.999 739.490 762.358 768.043 774.273 777.761 787.498 800.553 813.878 826.829 841.867 859.608 877.548 906.826 928.656 938.781 956.564 967.995 979.820 994.381 1003.504 1014.809
1746.259 1736.200 1728.028 1722.454 1715.968 1709.724 1703.014 1695.240 1691.068 1688.628 1686.968 1681.508 1697.134 1701.273 1699.333 1700.170 1700.319 1699.375 1692.909 1690.841 1688.998 1685.333 1678.333 1672.384 1665.559 1649.893 1640.410 1631.845 1622.709 1618.552 1614.344 1612.705 1611.235 1607.453 1601.647 1599.572 1606.580 1614.503 1623.823 1630.528 1636.831 1641.631 1648.039 1661.995 1675.400 1664.365 1654.841 1645.451 1636.891 1629.523 1625.415 1620.329 1622.407 1618.563 1623.659 1633.543 1643.552 1653.221 1662.103 1656.600 1650.538 1650.804 1650.136 1653.609 1675.310 1679.475 1683.752 1698.667 1726.912 1730.718 1715.462 1704.148 1694.504 1688.215 1681.683 1676.220 1666.383 1658.996 1648.082 1634.930 1628.758 1624.572 1618.571 1614.116 1611.207 1607.643 1609.812 1607.497 1607.840 1604.664 1601.933 1600.755 1595.936 1579.008 1561.325 1544.297 1531.260 1516.252 1500.539 1491.124 1479.521 1466.775 1456.562 1441.684 1434.271 1425.777 1422.788 1408.198 1387.869 1373.448 1366.796 1357.452 1349.350 1341.070 1332.543 1322.009 1317.058 1310.162 1312.727 1317.121 1316.949 1315.010 1315.391 1314.396 1311.054 1298.995 1294.432 1283.407 1275.280 1269.050 1261.796 1264.388 1269.828 1265.683 1259.535 1252.297 1242.952 1234.866 1228.144 1222.464 1217.562 1211.436 1204.811 1199.920 1194.155 1188.210 1182.335 1176.327 1170.779 1163.911 1157.857 1151.523 1144.723 1138.261 1133.313 1130.464 1126.944 1122.520 1120.796 1116.205 1117.342 1117.699 1118.264 1114.342 1113.706 1115.541 1108.230 1098.015 1084.388 1074.738 1064.969 1055.867 1047.484 1043.358 1032.379 1023.530 1008.665 992.394 976.798 951.784 928.592 909.871 895.865 879.363 865.380 850.350 834.663 821.521 809.299 796.873 783.598 771.290 759.394 760.509 746.491 733.639 723.027 709.509 696.657 683.622 680.307 675.500 669.964 668.824 663.719 660.907 662.431 661.172 663.033 659.824 656.532 651.912 644.903 640.031 627.052 624.415 620.521 615.693 616.946 615.833 614.810 612.702 609.769 607.992 606.753 599.510 590.885 577.478 569.483 566.371 561.365 556.799 550.141 547.907 553.769 557.271 556.121 555.777 548.232 538.624 526.763 514.520 509.060 496.638 489.543 483.065 482.356 478.953 474.305 473.063 469.559 469.239 469.156 469.186 469.243 469.308 463.918 462.201 455.922 452.263 448.366 443.477 439.930 437.474 433.336 429.382 424.874 419.966 414.581 412.354 410.241 406.966 405.381 402.610 393.260 393.201 393.550 392.121 391.986 392.022 392.771 390.247 393.632 393.083 392.969 393.406 393.797 394.395 394.447 394.758 393.629 393.676 395.416 395.826 396.084 396.372 396.757 397.062 397.437 397.595 397.608 397.903 398.006 398.162 398.157 400.422 418.289 424.315 435.277 448.428 462.284 476.426 489.565 503.400 514.328 520.886 533.995 549.054 565.974 578.229 589.580 606.647 626.717 643.368 657.392 669.636 676.914 690.370 706.076 717.040 727.795 741.515 751.271 760.315 769.227 780.441 792.495 806.776 821.487 836.934 855.245 881.761 914.018 925.571 933.377 945.112 959.885 970.137 983.570 995.856 1008.681
1748.575 1737.469 1728.557 1725.907 1716.983 1708.008 1702.472 1696.485 1691.095 1687.660 1684.400 1676.170 1691.416 1697.002 1696.977 1697.404 1697.990 1697.551 1690.923 1690.057 1686.398 1680.936 1674.751 1669.729 1657.487 1645.099 1635.390 1626.911 1620.323 1615.944 1614.449 1614.270 1613.129 1604.899 1597.803 1593.893 1602.538 1611.534 1620.145 1628.683 1633.574 1636.024 1642.378 1654.865 1669.603 1661.416 1652.155 1641.341 1634.283 1624.815 1621.324 1615.567 1612.677 1612.809 1613.674 1622.852 1629.468 1640.625 1650.883 1652.590 1645.965 1639.948 1644.438 1650.085 1655.679 1671.114 1674.625 1688.396 1709.166 1734.771 1720.454 1708.446 1697.505 1689.379 1681.953 1674.087 1664.740 1658.524 1646.323 1631.468 1622.728 1617.448 1612.996 1609.831 1605.035 1602.330 1603.369 1600.035 1597.423 1594.909 1593.613 1590.205 1588.389 1576.482 1561.459 1544.495 1530.928 1514.409 1502.031 1491.768 1476.471 1466.757 1454.477 1442.527 1436.641 1429.750 1416.367 1408.633 1392.142 1378.570 1374.248 1360.719 1350.452 1343.238 1335.645 1327.831 1316.293 1313.416 1314.471 1309.999 1307.940 1312.264 1311.077 1313.348 1310.206 1309.382 1300.430 1292.240 1278.532 1279.362 1277.830 1272.834 1268.021 1263.138 1255.285 1251.012 1241.182 1232.587 1226.583 1220.138 1214.109 1208.571 1202.409 1197.182 1191.374 1186.346 1180.585 1174.507 1168.268 1162.381 1157.207 1151.333 1145.474 1138.999 1132.891 1129.463 1125.189 1122.943 1122.455 1120.157 1118.691 1120.370 1119.316 1115.347 1113.847 1115.048 1107.313 1093.882 1081.914 1074.257 1065.403 1056.543 1048.252 1043.401 1029.575 1017.120 1005.438 991.778 971.360 952.913 936.165 916.694 904.549 887.389 870.403 853.345 834.335 822.052 809.019 795.199 782.554 769.806 759.627 757.608 741.510 728.645 717.865 706.038 691.762 680.515 676.596 671.293 668.212 665.940 663.401 661.160 661.343 666.105 659.921 656.955 653.448 649.698 645.651 641.292 628.400 627.288 620.838 615.299 617.129 617.083 617.766 615.050 610.294 604.867 603.163 597.302 587.384 575.954 570.119 565.764 560.333 551.878 548.986 549.418 555.768 560.090 556.855 553.959 548.452 538.131 526.976 515.852 510.697 498.296 494.920 487.459 483.816 480.416 475.647 474.182 473.757 470.523 470.260 472.965 471.315 466.427 467.416 462.450 459.646 455.236 451.617 446.655 440.665 438.873 436.125 431.167 426.647 421.255 415.231 412.906 411.493 408.950 406.477 402.179 393.526 393.534 394.067 392.416 392.722 392.807 393.743 390.813 394.204 395.143 393.191 393.537 394.307 394.542 395.223 395.491 394.788 395.312 395.764 394.974 396.228 396.812 397.210 397.540 397.945 398.165 398.323 398.456 398.313 398.202 398.293 399.638 414.054 420.464 430.820 442.844 455.945 470.089 482.903 493.924 501.141 512.949 529.041 547.539 563.371 576.550 589.059 605.167 623.104 642.672 656.036 666.719 675.131 687.535 699.417 707.123 719.273 729.257 737.544 751.487 759.096 772.112 786.039 798.191 814.536 835.542 863.977 889.592 913.717 923.799 933.551 941.479 949.909 961.203 975.348 990.145 1002.234
1746.199 1736.123 1729.212 1724.853 1716.129 1707.003 1701.762 1697.682 1690.450 1685.686 1681.540 1675.223 1685.031 1692.547 1696.815 1694.840 1695.757 1695.977 1690.383 1688.955 1684.236 1679.069 1673.124 1667.300 1656.660 1643.024 1630.625 1623.512 1619.580 1613.577 1613.522 1612.771 1609.305 1601.435 1594.364 1589.430 1599.447 1607.890 1615.165 1622.499 1628.891 1631.807 1637.349 1647.553 1660.701 1660.177 1648.260 1636.450 1628.810 1619.010 1611.764 1608.504 1604.429 1606.226 1601.882 1610.246 1614.301 1631.891 1638.738 1645.130 1641.781 1634.339 1638.753 1644.012 1651.663 1660.377 1666.893 1679.327 1710.055 1732.303 1727.245 1714.063 1703.245 1693.856 1684.143 1674.605 1665.069 1656.877 1644.515 1630.725 1618.414 1611.905 1607.955 1604.253 1599.979 1593.779 1595.693 1594.377 1592.755 1591.826 1589.088 1587.391 1584.889 1576.286 1560.558 1546.015 1531.868 1515.337 1503.658 1494.002 1481.916 1468.637 1456.489 1449.708 1438.700 1430.331 1417.871 1407.007 1395.391 1382.687 1370.737 1363.393 1358.389 1344.058 1340.646 1331.696 1331.432 1325.101 1317.634 1319.062 1312.846 1311.199 1306.782 1300.166 1303.198 1296.905 1295.331 1292.130 1295.402 1286.066 1277.733 1272.128 1266.583 1260.022 1254.634 1247.348 1238.816 1230.799 1225.180 1218.492 1211.741 1206.766 1201.236 1196.208 1189.513 1184.615 1179.512 1174.243 1168.054 1162.665 1157.235 1152.620 1147.122 1141.678 1135.478 1130.714 1126.485 1124.812 1125.392 1127.774 1125.923 1124.273 1122.397 1119.337 1113.080 1112.239 1102.167 1093.362 1082.829 1072.218 1065.437 1053.538 1047.090 1037.548 1024.521 1013.304 1002.444 988.070 970.538 954.966 938.586 921.342 907.010 891.291 873.395 854.374 835.474 822.253 807.839 791.109 779.099 767.190 756.483 751.985 737.038 724.214 712.149 701.169 689.006 679.073 674.941 670.343 666.600 666.940 665.808 659.557 658.120 660.183 655.616 655.826 651.750 648.185 645.772 641.937 629.947 630.363 627.441 614.545 613.861 614.687 617.901 616.480 612.593 606.302 600.228 593.135 583.711 574.187 568.868 567.492 559.665 554.496 550.366 549.925 553.344 557.571 556.833 550.198 545.684 533.121 528.644 519.928 510.815 501.314 495.725 490.333 487.398 482.241 478.743 474.196 473.224 471.853 472.220 473.284 473.271 473.056 469.151 464.140 458.968 456.443 454.958 448.550 442.746 439.068 437.485 433.944 428.971 422.839 416.193 414.018 412.379 409.887 406.431 402.996 394.402 394.151 393.979 392.444 393.154 393.249 393.537 390.896 394.452 397.137 394.729 397.094 394.274 395.554 395.388 396.104 395.546 396.032 396.054 396.603 396.720 397.351 397.642 397.802 398.135 398.731 398.942 398.923 398.811 398.729 398.770 399.121 410.969 422.480 429.869 439.578 450.077 462.264 470.756 483.678 499.952 515.855 530.723 546.105 559.441 570.868 582.198 598.501 612.543 635.662 651.331 661.245 671.035 683.323 691.845 697.790 707.916 719.079 728.908 738.518 751.951 764.712 776.486 791.172 815.424 834.762 861.341 882.159 908.033 918.058 933.318 939.602 945.745 963.342 972.830 985.134 995.903
1750.252 1741.974 1733.239 1725.052 1716.477 1708.940 1702.050 1696.443 1690.812 1683.694 1680.217 1673.249 1682.370 1687.879 1692.942 1692.392 1693.267 1693.445 1689.440 1687.177 1682.385 1679.084 1670.555 1661.008 1649.695 1636.712 1626.940 1621.809 1617.646 1613.118 1610.132 1608.409 1604.172 1595.683 1589.573 1584.263 1593.081 1602.590 1609.827 1617.537 1622.508 1626.896 1636.583 1648.367 1658.686 1654.402 1641.611 1631.125 1622.324 1613.766 1605.423 1600.413 1600.132 1597.108 1594.914 1598.231 1603.261 1611.291 1629.967 1637.335 1636.497 1625.738 1630.801 1637.351 1648.028 1653.697 1659.625 1671.964 1690.522 1715.586 1738.156 1723.310 1708.795 1696.757 1687.253 1675.796 1664.797 1655.666 1645.167 1630.375 1619.753 1611.812 1605.149 1600.224 1595.900 1587.237 1585.707 1585.587 1587.286 1586.340 1585.311 1584.972 1581.382 1574.794 1559.824 1544.989 1533.303 1524.554 1514.762 1502.895 1488.777 1481.872 1465.176 1460.224 1446.155 1432.637 1420.758 1409.438 1398.247 1393.351 1377.256 1373.543 1362.851 1352.236 1341.514 1339.409 1332.333 1324.175 1313.431 1310.151 1307.528 1305.142 1308.940 1305.524 1299.246 1296.936 1296.920 1302.936 1298.309 1288.135 1278.028 1270.637 1264.399 1258.170 1251.134 1242.255 1234.100 1227.028 1221.845 1214.981 1208.928 1204.345 1199.668 1192.929 1187.117 1181.394 1176.175 1170.230 1164.491 1159.841 1156.723 1153.661 1148.787 1144.050 1139.461 1132.906 1129.322 1128.160 1128.740 1128.460 1127.844 1125.061 1121.149 1119.023 1115.859 1110.366 1099.734 1087.832 1079.733 1071.667 1064.766 1052.847 1045.170 1034.111 1022.652 1012.305 999.930 984.470 967.354 951.331 938.124 921.720 906.735 892.707 873.343 854.866 839.564 825.101 809.863 793.703 778.925 764.894 754.387 752.062 735.475 719.769 708.954 699.108 687.061 677.893 671.945 665.746 663.879 665.661 660.899 657.288 655.568 656.128 650.221 649.828 646.678 645.328 646.161 640.723 629.728 630.618 631.229 622.024 611.609 611.874 616.582 616.670 614.381 607.338 599.664 590.034 581.569 574.133 570.951 567.066 562.367 557.482 553.569 550.516 553.703 554.959 553.792 547.564 539.501 532.542 526.755 520.389 512.035 501.365 495.118 490.834 487.889 481.322 479.882 474.645 473.215 473.129 478.546 475.158 474.786 473.223 471.645 465.865 461.360 458.271 456.108 451.267 445.190 441.154 437.306 434.108 429.960 423.664 416.403 414.237 411.703 409.569 406.070 403.461 394.409 394.338 394.107 392.849 393.522 393.473 393.928 391.385 395.192 394.856 394.713 404.463 401.640 395.249 395.552 396.132 396.143 396.003 396.758 396.719 397.284 397.148 398.345 398.373 398.539 398.890 399.081 399.372 399.157 399.251 399.523 400.037 411.441 420.858 426.473 434.466 447.052 458.497 472.774 487.026 502.767 515.960 527.792 539.443 549.673 561.707 576.798 593.267 609.479 633.077 645.430 654.296 665.259 676.439 684.794 693.950 703.039 710.387 718.811 733.521 745.357 755.798 768.931 786.775 815.382 830.794 856.089 876.012 901.915 911.894 925.856 934.834 943.002 952.775 968.005 980.204 988.193
1755.846 1747.659 1738.538 1728.264 1719.035 1711.280 1703.967 1696.578 1690.559 1686.038 1677.599 1672.196 1683.970 1689.315 1689.287 1691.846 1691.148 1690.861 1682.939 1682.962 1680.254 1675.068 1667.573 1658.624 1647.335 1635.935 1628.019 1621.613 1617.097 1614.690 1610.877 1606.365 1598.428 1589.815 1583.947 1584.691 1589.677 1597.279 1605.371 1613.268 1618.853 1623.513 1637.461 1651.698 1659.509 1646.673 1635.276 1624.836 1615.857 1609.266 1600.864 1595.606 1592.337 1589.294 1589.866 1593.171 1593.439 1601.402 1610.215 1615.965 1623.141 1618.189 1623.900 1630.140 1638.648 1651.117 1656.067 1669.004 1682.896 1702.181 1736.874 1738.734 1717.917 1703.179 1690.777 1679.611 1667.628 1656.958 1648.044 1634.904 1623.814 1614.410 1606.088 1602.935 1594.713 1586.932 1585.079 1583.011 1581.536 1580.858 1579.080 1579.096 1577.039 1573.418 1563.737 1544.608 1530.126 1519.639 1512.080 1503.943 1486.626 1481.651 1478.164 1468.563 1459.372 1440.867 1428.081 1414.767 1407.679 1395.190 1390.178 1378.904 1375.362 1362.684 1354.014 1350.237 1342.815 1326.948 1318.048 1313.392 1308.446 1311.108 1310.801 1311.047 1309.604 1307.467 1306.174 1299.629 1298.157 1289.348 1278.743 1268.433 1263.008 1256.782 1249.161 1238.781 1230.635 1223.791 1218.351 1212.156 1206.709 1201.927 1197.340 1191.575 1186.496 1180.073 1173.455 1168.846 1164.126 1160.443 1156.513 1153.575 1149.191 1145.363 1141.215 1136.137 1132.463 1130.845 1129.554 1129.422 1126.883 1123.749 1121.562 1118.422 1115.181 1104.758 1095.559 1086.954 1078.759 1071.784 1063.530 1051.444 1042.297 1029.210 1021.343 1007.384 992.995 976.766 959.472 945.378 930.791 914.241 898.850 884.219 867.516 850.815 836.008 820.985 809.156 793.993 778.854 766.082 758.470 754.564 736.853 718.282 707.591 699.635 688.267 681.055 675.729 671.319 664.759 660.865 656.112 653.859 649.985 648.212 644.392 641.771 641.107 641.572 643.079 638.464 628.496 628.872 629.244 627.145 613.481 608.755 613.484 614.553 611.333 603.393 596.306 588.864 583.905 574.682 569.123 566.750 560.155 555.493 554.286 555.052 555.415 554.604 551.661 542.998 536.565 528.881 525.031 518.316 511.366 498.934 492.422 490.189 487.850 484.627 481.960 478.740 477.645 477.255 476.019 477.638 475.593 474.753 472.821 469.906 465.185 460.390 458.172 454.750 449.412 443.999 439.454 434.994 430.082 424.019 416.209 412.930 411.438 410.069 407.793 404.173 396.394 394.738 394.535 393.335 393.743 394.571 394.525 391.997 395.067 395.264 395.398 397.179 397.670 395.877 396.009 395.908 397.128 396.779 397.053 397.555 397.698 398.207 399.106 399.035 399.002 399.302 399.460 399.721 399.674 399.828 400.586 400.248 402.717 416.236 426.454 434.548 442.087 453.831 468.516 481.128 493.441 506.330 517.293 527.768 541.101 554.922 569.502 585.380 605.392 625.751 637.523 646.139 658.718 667.307 678.726 688.368 695.508 696.321 706.620 723.666 737.307 748.379 765.081 789.865 812.795 824.714 840.410 868.519 899.891 911.692 924.239 932.247 938.327 943.195 958.694 972.825 984.607
1759.390 1750.188 1739.702 1729.756 1720.671 1712.336 1703.867 1695.975 1688.642 1682.518 1677.215 1672.167 1680.778 1687.358 1690.976 1687.345 1689.573 1681.929 1680.561 1680.018 1676.855 1672.562 1661.813 1656.522 1643.383 1634.432 1625.572 1620.542 1619.122 1617.585 1613.596 1603.826 1595.191 1586.089 1578.902 1582.761 1586.639 1592.805 1600.826 1608.958 1614.491 1618.972 1633.358 1646.975 1652.675 1642.320 1633.003 1622.297 1612.824 1605.813 1597.532 1590.344 1586.601 1586.104 1583.898 1587.015 1584.981 1593.921 1596.840 1604.443 1609.670 1613.271 1619.017 1625.722 1635.361 1648.166 1651.514 1662.593 1674.846 1696.248 1726.404 1749.708 1732.572 1711.542 1696.176 1683.591 1669.504 1660.209 1650.542 1639.003 1626.471 1617.761 1608.040 1603.578 1598.696 1589.754 1585.830 1582.224 1581.271 1579.187 1574.292 1569.643 1567.773 1564.770 1558.782 1545.188 1530.606 1520.120 1513.553 1497.947 1486.562 1481.459 1477.446 1468.674 1463.396 1445.739 1430.824 1419.813 1421.556 1419.940 1413.456 1394.008 1383.442 1374.057 1365.331 1357.378 1349.386 1344.424 1332.346 1320.500 1312.794 1307.253 1306.401 1303.663 1302.761 1302.200 1299.398 1295.292 1292.947 1286.391 1276.478 1266.579 1261.850 1253.675 1247.173 1237.499 1228.109 1221.533 1216.276 1209.064 1202.940 1197.814 1193.731 1189.969 1184.291 1177.552 1171.889 1167.288 1163.630 1161.079 1156.573 1154.390 1149.623 1144.987 1141.355 1136.728 1133.517 1130.750 1129.750 1128.847 1125.438 1122.462 1119.956 1117.285 1111.754 1098.580 1094.187 1086.848 1077.665 1070.081 1063.452 1052.602 1041.965 1030.809 1019.640 1006.679 990.883 971.763 955.451 938.749 924.534 908.609 890.304 876.053 861.139 844.748 829.976 818.154 808.581 793.355 778.670 765.081 764.654 750.908 734.410 717.473 704.509 694.561 688.723 685.106 678.445 673.127 667.849 660.231 651.848 646.330 642.804 640.559 638.687 634.803 638.333 640.843 644.625 634.286 626.803 625.109 627.365 626.080 613.671 605.243 606.639 608.921 609.309 602.051 591.787 586.734 582.795 576.478 568.765 564.807 560.964 557.516 557.131 557.958 557.033 554.869 551.285 540.597 534.047 527.466 521.977 515.130 505.431 496.568 494.265 490.199 488.226 488.262 487.111 486.600 479.774 479.711 477.677 477.333 476.431 475.567 472.919 471.360 468.448 462.365 458.470 455.013 450.477 445.154 441.533 436.633 431.546 424.570 416.474 412.685 411.338 409.822 408.947 406.135 400.595 395.062 394.885 394.086 393.960 394.478 394.410 393.588 394.442 395.032 395.074 397.238 395.830 395.936 398.203 396.596 397.436 397.521 397.569 398.032 398.194 398.469 399.622 399.558 399.646 399.693 399.780 400.415 400.184 400.740 400.769 400.773 400.628 417.523 427.111 433.450 441.286 450.549 462.109 474.307 487.017 499.224 512.934 527.183 541.604 557.753 573.385 587.054 601.438 615.988 628.184 638.987 649.278 659.260 670.292 680.813 681.285 683.608 692.631 712.110 731.764 740.184 755.156 783.481 807.886 819.239 827.261 869.297 898.232 912.341 919.460 926.709 933.443 938.575 953.552 971.403 983.218
1764.012 1753.214 1742.498 1731.763 1722.313 1713.085 1704.685 1695.843 1689.162 1682.521 1676.974 1672.632 1675.328 1683.300 1687.767 1683.271 1681.534 1678.798 1679.010 1676.242 1674.044 1666.949 1657.683 1654.783 1641.669 1630.647 1625.354 1621.202 1620.812 1616.982 1608.627 1599.920 1590.591 1580.726 1572.828 1578.233 1583.841 1590.272 1597.685 1605.432 1609.553 1614.438 1628.523 1643.918 1646.177 1637.694 1628.066 1618.749 1609.602 1601.752 1593.478 1586.327 1581.452 1579.336 1579.104 1579.648 1581.812 1582.982 1587.094 1595.297 1603.888 1606.631 1609.420 1618.762 1626.317 1642.382 1644.385 1654.799 1667.629 1689.248 1714.193 1742.914 1744.370 1723.843 1708.116 1690.304 1676.825 1664.334 1653.965 1642.054 1628.802 1619.260 1610.534 1608.812 1603.171 1594.271 1586.426 1584.478 1584.822 1580.742 1573.347 1566.026 1560.724 1555.121 1549.080 1540.517 1525.363 1516.228 1511.123 1495.687 1481.925 1479.534 1473.030 1461.151 1454.364 1444.406 1430.867 1427.681 1431.708 1422.085 1413.030 1403.419 1388.672 1378.532 1365.746 1353.119 1346.522 1335.011 1327.541 1319.632 1312.786 1309.776 1308.424 1297.960 1298.828 1296.302 1291.690 1289.426 1282.682 1283.562 1275.225 1265.663 1259.803 1253.766 1245.373 1236.415 1226.678 1219.129 1214.805 1207.131 1200.619 1194.840 1189.443 1186.489 1182.575 1176.627 1169.814 1164.683 1161.550 1158.838 1156.004 1153.145 1149.094 1145.976 1140.382 1136.117 1132.904 1129.922 1127.552 1125.595 1122.549 1120.652 1117.761 1113.360 1111.618 1097.464 1092.515 1084.753 1076.325 1069.580 1064.625 1056.294 1047.193 1032.981 1020.941 1004.535 984.854 965.918 951.816 933.455 917.936 901.681 886.241 871.458 858.122 842.831 826.977 817.063 807.481 795.462 778.548 765.443 764.109 750.171 732.613 717.075 706.004 692.938 692.068 688.152 680.245 673.393 666.913 663.760 652.707 645.174 644.051 641.401 641.783 641.030 640.285 639.917 637.573 626.518 624.450 621.962 625.388 622.627 611.812 602.168 600.270 605.929 603.610 595.396 586.798 581.559 577.770 572.515 565.446 562.385 561.790 560.924 559.401 560.998 558.116 551.758 549.016 539.857 530.282 522.976 519.794 510.170 504.442 498.726 494.782 492.579 489.933 488.924 485.933 486.081 483.461 480.063 482.008 478.570 477.106 476.896 475.534 472.024 467.001 463.802 459.277 454.924 451.517 446.484 443.432 438.304 432.863 424.798 415.792 412.042 410.467 409.579 408.928 406.451 400.986 395.482 395.317 394.516 394.101 394.790 395.490 393.444 394.182 396.920 395.613 395.275 395.731 395.806 397.330 397.146 397.302 397.803 398.298 398.369 398.625 399.200 398.458 399.991 400.209 400.166 400.188 400.161 400.859 401.216 401.312 401.809 401.229 412.071 425.573 431.444 438.918 448.552 460.549 471.401 483.646 496.018 509.526 524.979 540.463 556.211 569.613 582.977 596.013 609.331 616.435 627.115 641.333 653.661 665.814 669.591 669.802 674.716 689.304 706.990 725.346 738.947 771.342 791.539 809.523 815.760 830.952 870.729 901.174 909.963 917.055 927.240 938.600 969.130 969.828 980.610 988.249
1764.215 1753.492 1743.464 1733.648 1724.573 1714.957 1705.832 1696.862 1688.891 1683.065 1677.602 1671.086 1671.316 1677.270 1678.240 1677.157 1675.942 1675.063 1676.100 1673.395 1670.777 1663.294 1655.886 1647.572 1636.697 1628.222 1622.905 1619.438 1619.066 1613.095 1606.159 1594.506 1587.293 1577.915 1570.794 1573.165 1578.409 1586.135 1593.067 1599.985 1603.068 1608.967 1620.074 1639.060 1645.465 1634.088 1624.632 1615.820 1607.359 1599.669 1591.115 1583.167 1578.098 1576.705 1573.724 1574.725 1577.030 1577.030 1581.802 1584.997 1595.983 1600.565 1604.372 1612.593 1619.458 1635.247 1637.696 1646.365 1665.633 1677.701 1702.983 1730.346 1743.590 1734.551 1715.311 1695.968 1681.424 1669.912 1656.919 1643.581 1629.688 1618.763 1609.744 1607.890 1603.533 1597.612 1589.996 1588.841 1588.157 1581.851 1574.085 1567.282 1560.299 1555.011 1544.839 1538.733 1524.412 1513.324 1507.414 1500.999 1484.094 1477.692 1473.578 1462.911 1460.199 1441.776 1429.233 1415.643 1414.896 1411.596 1406.683 1398.731 1386.731 1374.662 1362.639 1349.079 1331.066 1331.546 1321.503 1316.229 1308.530 1309.117 1304.759 1299.901 1291.909 1287.531 1281.259 1281.368 1275.770 1276.539 1269.316 1262.450 1256.494 1252.264 1243.573 1233.830 1223.985 1216.383 1213.110 1206.677 1199.794 1193.921 1189.048 1184.499 1180.836 1175.721 1169.694 1163.169 1160.610 1158.575 1156.397 1152.228 1148.073 1143.284 1138.092 1134.791 1130.351 1127.822 1125.857 1124.356 1120.976 1118.623 1116.765 1113.013 1111.564 1100.204 1091.161 1082.358 1075.818 1064.861 1065.936 1054.883 1046.614 1034.111 1018.757 999.718 981.413 959.929 944.292 927.346 912.214 895.842 880.517 865.123 852.754 834.831 823.635 815.917 804.856 794.960 777.697 766.249 758.510 746.631 728.983 716.362 703.372 692.639 693.421 689.625 683.156 673.034 666.600 663.727 653.710 643.510 643.518 639.099 636.119 633.288 631.843 628.376 623.272 621.119 622.455 617.520 621.150 618.866 610.917 600.661 595.999 600.891 597.602 590.199 583.034 578.884 574.659 569.452 563.842 561.722 562.593 561.183 560.634 560.473 558.105 548.970 546.073 535.098 524.349 520.821 515.798 509.746 505.292 499.214 496.958 493.987 492.740 491.951 490.440 485.987 486.857 486.290 483.519 480.961 479.214 477.109 474.209 471.295 466.691 461.994 459.047 454.916 450.193 447.028 444.587 439.580 434.221 424.367 416.321 412.356 409.672 408.515 407.044 405.390 401.818 396.185 396.109 394.976 394.886 394.575 395.676 393.480 394.175 395.098 399.076 395.831 395.906 400.135 399.572 397.991 397.714 398.163 398.609 398.788 399.134 399.657 399.734 400.914 400.944 400.785 400.514 401.192 400.971 401.929 402.281 402.382 401.949 414.454 423.342 430.814 438.592 448.402 456.657 466.617 479.423 493.537 506.691 524.091 538.921 552.948 566.948 578.349 590.258 601.688 612.172 622.173 637.683 647.782 656.552 656.962 657.376 666.915 679.878 705.730 720.087 736.851 778.588 798.164 810.439 823.222 830.507 867.487 896.517 905.764 915.999 926.555 960.909 970.828 975.592 983.562 991.900
1768.658 1758.466 1748.488 1738.236 1728.316 1717.870 1705.717 1698.180 1690.630 1684.490 1679.001 1672.808 1668.651 1670.921 1673.236 1674.256 1674.179 1672.118 1672.285 1669.550 1666.653 1658.527 1655.047 1647.249 1636.438 1630.633 1623.690 1619.309 1616.518 1611.093 1603.951 1591.488 1582.559 1574.075 1565.478 1566.052 1573.215 1581.656 1588.115 1595.081 1598.608 1604.661 1615.024 1633.182 1647.376 1634.066 1621.943 1613.125 1604.978 1597.724 1590.307 1580.823 1574.174 1570.151 1568.612 1570.090 1571.385 1571.769 1575.011 1578.070 1581.004 1592.145 1597.699 1605.474 1614.643 1625.191 1629.121 1636.575 1649.577 1676.716 1692.864 1716.718 1736.050 1737.915 1727.347 1707.857 1688.465 1671.228 1657.182 1645.180 1630.936 1620.128 1609.814 1605.923 1602.414 1595.533 1594.528 1590.700 1589.121 1582.414 1573.559 1566.857 1560.873 1554.437 1548.389 1534.693 1521.306 1514.696 1510.297 1492.957 1481.185 1471.520 1468.711 1460.808 1453.255 1438.624 1424.481 1410.228 1392.319 1392.188 1387.853 1381.708 1373.072 1361.131 1351.908 1338.365 1321.025 1313.830 1314.210 1314.983 1308.418 1305.287 1302.273 1289.969 1291.304 1279.534 1274.720 1274.607 1271.004 1270.347 1264.066 1258.033 1252.898 1248.111 1242.219 1232.928 1222.669 1213.703 1210.989 1205.148 1198.351 1192.665 1188.115 1184.050 1179.243 1174.179 1168.532 1163.441 1161.297 1158.063 1153.901 1149.130 1144.992 1139.303 1134.174 1131.230 1127.432 1124.640 1123.136 1121.735 1119.151 1116.786 1115.189 1112.244 1110.405 1098.979 1098.228 1081.516 1071.341 1063.173 1064.452 1056.042 1043.235 1031.432 1019.850 1003.426 983.789 961.035 941.842 923.084 905.626 890.578 874.830 859.352 845.772 833.854 821.507 813.215 804.542 794.444 777.953 765.655 756.554 742.648 728.853 714.508 703.638 696.135 695.080 687.049 677.673 670.802 665.101 656.860 651.294 646.771 642.523 636.126 629.518 624.048 618.633 616.018 614.687 618.912 618.976 615.577 617.346 617.364 611.836 600.949 593.404 594.706 594.349 583.908 579.758 577.105 570.258 565.429 563.279 561.700 561.211 560.532 560.652 559.203 553.542 546.797 541.417 533.156 525.448 519.737 514.904 511.438 505.247 502.037 498.847 496.235 494.609 494.355 489.954 489.836 486.294 486.450 485.457 480.736 480.454 477.071 474.117 471.003 466.896 459.878 457.133 454.553 450.480 448.505 444.521 439.598 435.044 425.014 418.366 413.312 408.957 407.043 405.537 405.285 399.949 396.749 395.566 395.422 395.493 395.258 395.443 393.768 395.788 396.438 397.208 395.791 401.842 406.249 408.461 399.177 398.660 398.540 399.167 399.277 399.559 399.658 400.401 399.656 401.598 401.289 401.058 400.888 401.172 402.456 402.385 403.183 402.444 412.601 421.289 427.973 434.385 442.259 451.928 460.784 477.238 497.060 513.651 522.953 539.172 552.316 563.735 574.674 583.895 595.827 606.852 618.662 633.162 641.345 645.245 647.645 646.576 657.569 674.235 705.791 713.003 744.637 781.936 798.209 811.917 827.356 837.421 858.093 887.673 904.253 914.869 925.758 954.808 968.232 975.885 985.863 996.048
1772.123 1760.938 1749.310 1739.238 1728.361 1717.923 1710.010 1700.212 1694.487 1685.280 1679.465 1673.938 1667.591 1667.929 1672.187 1672.526 1670.733 1667.567 1669.528 1666.423 1664.446 1657.897 1654.244 1647.760 1641.769 1636.958 1629.736 1621.697 1614.788 1610.317 1602.429 1594.284 1579.023 1568.756 1563.069 1555.342 1564.023 1573.292 1580.964 1587.883 1593.970 1598.780 1608.366 1627.822 1645.900 1632.679 1617.527 1609.399 1603.415 1595.632 1588.544 1578.723 1573.983 1568.397 1566.445 1565.473 1566.003 1566.181 1568.766 1568.760 1573.873 1579.719 1593.360 1602.333 1609.477 1617.719 1620.094 1627.591 1635.568 1650.295 1672.305 1692.872 1717.809 1731.498 1729.768 1712.850 1692.257 1675.566 1661.881 1646.372 1631.499 1620.770 1609.594 1604.356 1601.765 1597.198 1594.679 1591.270 1586.441 1580.778 1571.861 1565.639 1560.571 1555.739 1542.408 1530.264 1520.063 1508.368 1505.703 1501.794 1486.315 1475.586 1464.939 1455.002 1444.623 1428.651 1414.175 1401.805 1399.273 1392.556 1380.884 1373.838 1363.452 1353.564 1345.649 1334.243 1317.070 1317.195 1309.598 1313.393 1308.461 1294.927 1303.021 1292.576 1283.892 1269.543 1265.085 1264.691 1266.431 1266.191 1261.290 1253.378 1247.893 1242.908 1240.247 1231.374 1221.415 1212.219 1208.440 1203.015 1196.324 1191.803 1187.475 1182.404 1177.065 1172.081 1167.721 1162.976 1159.756 1155.179 1150.525 1144.353 1139.108 1133.996 1130.777 1128.417 1124.537 1122.372 1121.656 1120.762 1118.057 1114.943 1111.045 1109.397 1105.399 1093.725 1100.447 1084.116 1071.051 1064.018 1058.432 1051.177 1037.188 1028.172 1015.349 996.482 982.966 961.755 937.718 919.247 901.599 883.607 868.950 855.352 841.754 830.224 820.180 812.672 802.511 792.440 777.448 765.466 756.602 742.844 725.229 713.795 702.674 697.082 692.739 684.767 677.401 672.305 663.433 654.195 651.316 648.380 641.085 636.965 628.431 623.620 620.079 618.629 615.897 617.804 617.055 613.241 612.631 614.015 610.249 600.769 593.977 590.968 589.486 580.331 577.297 574.144 567.101 564.767 562.958 562.083 561.407 561.352 558.543 556.259 552.281 545.277 533.659 527.002 523.355 519.397 516.224 514.643 509.478 505.363 502.123 501.144 501.414 498.853 493.707 491.676 486.331 485.969 485.916 485.868 480.451 478.124 475.798 470.432 466.429 459.757 457.687 455.043 451.186 448.257 444.786 439.205 436.322 425.543 418.722 413.673 409.810 407.015 405.866 405.698 401.758 397.235 395.908 395.956 396.149 395.995 396.218 396.774 396.204 394.753 398.413 400.752 406.425 405.835 398.945 398.668 398.846 399.076 399.327 399.521 399.994 400.257 400.887 401.090 401.356 401.580 401.225 401.497 401.972 402.449 402.913 403.470 403.340 403.095 413.938 421.717 430.320 438.273 444.364 458.289 474.539 491.064 516.765 522.513 537.695 553.851 562.069 570.655 579.468 590.819 599.225 611.278 622.821 634.167 635.577 635.844 645.265 655.852 666.470 693.599 706.999 721.167 787.482 802.522 814.798 825.852 838.734 849.572 883.749 897.121 917.153 931.877 957.359 971.648 980.464 990.608 997.449
1771.717 1762.176 1750.477 1737.544 1730.820 1720.914 1712.427 1703.772 1695.296 1687.485 1680.689 1674.775 1667.773 1665.101 1667.529 1670.127 1672.059 1664.735 1665.783 1665.633 1657.615 1653.880 1649.333 1645.313 1640.021 1635.007 1630.481 1623.692 1614.762 1608.652 1600.076 1591.776 1578.632 1570.332 1561.249 1554.768 1554.948 1559.312 1569.803 1579.453 1588.134 1592.473 1601.289 1619.351 1632.943 1634.131 1615.725 1605.624 1600.730 1593.495 1586.541 1578.805 1571.507 1567.014 1565.684 1564.732 1562.991 1561.202 1562.829 1563.242 1566.858 1570.730 1581.887 1596.774 1605.278 1612.775 1611.730 1618.373 1628.564 1638.494 1653.729 1675.579 1697.291 1723.185 1721.350 1717.953 1703.879 1677.198 1660.849 1647.495 1631.592 1619.841 1608.719 1602.051 1600.112 1600.171 1594.224 1590.349 1583.460 1577.336 1569.878 1565.278 1559.616 1553.297 1533.645 1521.438 1513.562 1501.261 1501.450 1498.895 1493.887 1486.564 1466.148 1449.441 1437.088 1422.679 1408.033 1400.786 1387.268 1385.255 1373.715 1362.877 1354.302 1345.449 1338.832 1330.760 1321.398 1312.039 1311.655 1311.835 1311.177 1303.751 1297.247 1287.425 1281.287 1268.761 1261.641 1259.376 1260.196 1262.484 1258.525 1249.168 1241.800 1237.428 1234.165 1227.330 1218.833 1210.121 1207.298 1200.340 1194.892 1190.236 1185.103 1179.401 1173.536 1168.009 1161.886 1158.582 1155.695 1148.828 1144.081 1139.060 1134.264 1131.112 1128.412 1124.870 1121.425 1121.127 1120.496 1118.723 1115.952 1110.669 1108.914 1107.826 1103.344 1095.830 1095.205 1086.807 1072.833 1062.836 1055.015 1041.841 1029.332 1021.955 1003.442 990.123 975.853 962.957 936.008 917.776 900.134 883.393 865.100 849.839 837.020 824.793 818.469 809.495 799.205 788.013 773.494 761.191 752.155 739.768 726.041 713.196 700.747 698.463 694.188 687.111 679.971 674.752 665.062 654.428 650.302 646.698 638.868 634.793 627.934 623.219 619.920 618.088 616.510 615.677 614.396 611.183 609.226 609.233 608.315 597.110 591.332 588.113 584.877 580.600 576.961 574.460 568.857 565.544 563.598 563.086 559.418 559.730 556.939 554.160 549.830 538.272 531.016 528.199 523.362 522.797 519.175 516.889 513.685 511.245 509.164 507.528 506.878 504.112 499.847 493.609 487.655 484.882 485.668 485.698 482.861 480.026 476.123 471.479 466.628 462.706 458.346 453.922 449.990 446.452 444.044 439.486 433.605 425.693 418.868 414.209 411.963 409.597 407.450 405.812 402.394 397.671 396.452 396.312 396.497 396.425 396.333 397.790 395.537 397.567 395.802 402.371 404.057 399.806 399.534 399.366 399.363 399.804 399.771 400.351 400.408 400.478 401.041 401.725 401.788 401.230 402.024 401.541 402.568 403.053 403.922 404.161 404.125 404.333 411.942 422.741 428.555 433.892 441.344 456.609 472.326 487.886 510.742 523.697 537.038 549.812 555.843 566.857 573.672 582.520 589.673 600.038 613.735 623.959 626.606 634.002 646.038 659.115 670.354 688.386 700.775 716.768 788.882 802.619 814.877 827.313 840.587 870.216 885.457 899.770 916.987 934.724 959.408 977.742 986.902 995.176 1002.498
1774.438 1763.527 1753.067 1742.895 1732.884 1723.539 1712.342 1702.872 1695.833 1687.685 1679.307 1674.484 1669.886 1666.387 1663.369 1667.792 1669.491 1664.429 1661.637 1661.517 1652.322 1651.032 1645.253 1641.654 1639.582 1634.921 1631.237 1623.572 1614.081 1606.219 1597.713 1589.181 1579.194 1568.574 1558.246 1552.525 1547.419 1554.379 1560.594 1570.250 1583.252 1587.446 1596.201 1611.324 1620.368 1628.346 1612.631 1603.671 1597.504 1592.305 1584.266 1576.913 1569.257 1566.960 1565.709 1565.295 1561.112 1554.169 1558.068 1559.960 1560.711 1563.369 1573.566 1592.076 1600.306 1609.860 1605.948 1610.713 1620.129 1631.675 1644.803 1667.137 1689.873 1713.484 1712.274 1708.335 1704.004 1683.164 1662.983 1649.905 1635.557 1620.650 1608.984 1601.210 1600.754 1597.127 1591.339 1586.749 1582.717 1577.214 1568.722 1560.127 1553.568 1549.911 1526.898 1514.913 1504.934 1495.584 1493.496 1486.777 1489.722 1489.195 1468.573 1442.867 1431.549 1419.043 1406.949 1396.464 1391.891 1380.726 1360.705 1349.755 1342.908 1336.583 1332.498 1323.749 1316.398 1311.358 1310.587 1308.157 1305.064 1301.273 1291.903 1286.783 1278.452 1266.463 1258.043 1252.375 1254.562 1255.916 1254.154 1244.629 1235.956 1231.299 1228.051 1222.607 1216.671 1207.609 1204.478 1198.208 1191.956 1188.619 1183.227 1177.528 1171.056 1164.613 1159.672 1155.945 1150.058 1145.771 1140.630 1135.460 1131.355 1128.166 1124.970 1120.923 1119.591 1119.225 1118.352 1116.378 1112.028 1108.544 1107.335 1104.651 1100.862 1097.411 1094.494 1085.181 1074.329 1056.456 1047.804 1038.289 1024.415 1012.865 995.969 978.674 966.329 955.916 939.915 915.302 900.220 886.628 865.414 849.083 832.320 821.637 814.631 805.330 796.045 783.482 771.364 762.254 752.106 736.989 721.511 711.702 702.326 701.448 695.738 690.187 683.641 675.130 662.917 650.747 644.086 642.590 635.938 632.016 628.986 626.276 621.738 616.671 614.329 613.901 610.895 608.531 610.213 606.912 604.685 593.986 589.764 588.007 587.309 582.725 578.473 576.928 572.271 571.284 568.032 562.304 559.557 558.164 553.721 549.986 541.453 536.601 534.053 528.898 527.774 522.815 521.068 518.875 514.759 513.483 514.982 512.814 511.320 511.311 507.914 500.554 494.795 483.942 485.683 486.017 484.337 480.685 476.889 476.000 467.864 464.159 460.549 454.784 450.041 445.741 443.137 439.594 434.002 428.720 420.224 417.988 416.182 413.503 408.413 405.055 401.286 398.496 396.459 396.739 396.770 396.956 396.985 397.201 395.764 397.935 399.350 396.372 401.063 400.036 400.130 400.324 400.211 400.260 400.541 400.812 400.951 401.439 401.589 402.241 402.690 401.910 402.189 402.063 403.095 403.269 404.230 404.953 404.986 404.652 405.442 418.833 422.105 429.563 438.124 452.914 467.792 483.653 500.390 516.327 531.480 542.950 548.549 551.409 559.530 568.513 577.345 588.857 602.977 615.172 623.235 638.542 650.466 664.172 673.884 687.199 700.643 713.281 792.043 803.307 816.816 829.622 844.856 874.234 888.194 905.636 922.361 939.878 968.469 981.293 993.711 1003.810 1010.469
1776.239 1765.656 1755.364 1744.771 1734.570 1725.458 1713.752 1706.123 1700.569 1692.454 1681.037 1674.819 1670.373 1667.354 1663.306 1663.786 1665.131 1663.857 1657.255 1653.642 1650.490 1644.306 1641.663 1639.868 1637.418 1633.245 1630.307 1623.287 1612.296 1602.645 1595.830 1587.645 1577.413 1568.120 1559.906 1552.062 1541.785 1548.508 1555.380 1560.833 1570.558 1581.878 1587.198 1603.905 1610.301 1623.838 1610.005 1601.473 1595.491 1591.556 1584.952 1576.236 1569.640 1568.524 1569.236 1564.273 1558.647 1552.539 1552.904 1554.784 1554.669 1555.917 1566.119 1577.244 1595.400 1606.380 1600.228 1604.635 1613.331 1623.563 1634.146 1663.098 1691.262 1704.888 1701.963 1696.968 1692.094 1679.562 1663.693 1651.265 1638.079 1622.135 1610.418 1604.425 1602.438 1598.045 1594.777 1588.299 1580.203 1573.178 1566.922 1558.170 1550.398 1540.861 1523.578 1510.858 1499.067 1493.134 1486.556 1476.772 1476.995 1480.515 1463.465 1439.611 1425.333 1415.636 1409.554 1398.978 1388.806 1377.610 1365.362 1360.013 1343.806 1335.902 1327.199 1319.182 1310.541 1311.451 1306.730 1301.992 1302.512 1295.397 1287.857 1280.651 1270.845 1258.498 1250.011 1248.419 1247.263 1245.903 1245.236 1238.491 1230.274 1223.843 1220.722 1216.685 1210.681 1203.682 1202.475 1194.871 1189.654 1185.684 1180.184 1173.902 1167.962 1160.908 1156.329 1151.374 1144.671 1140.938 1137.030 1131.593 1127.797 1126.042 1122.286 1118.920 1117.432 1117.056 1115.069 1111.746 1109.637 1107.527 1105.785 1101.372 1097.240 1095.404 1090.418 1081.871 1071.102 1058.280 1045.304 1033.165 1024.084 1010.161 992.036 974.311 962.807 949.440 930.789 910.654 895.903 882.457 864.291 847.862 831.125 819.093 808.218 801.405 791.254 778.430 773.165 763.702 748.269 733.518 717.491 707.453 704.437 701.715 696.592 688.911 681.083 671.483 661.559 655.318 648.708 645.573 643.567 637.297 632.972 625.939 620.201 614.581 611.379 611.625 609.307 608.510 606.813 604.846 599.073 592.228 593.337 592.416 590.146 587.375 583.700 579.170 574.711 572.741 566.773 561.826 558.680 554.774 549.710 547.273 543.358 538.250 536.527 531.366 529.646 524.830 522.109 519.575 517.706 519.318 520.039 517.974 518.457 515.672 512.106 503.298 496.458 487.640 485.941 485.905 485.810 480.860 477.895 475.750 470.836 467.349 462.417 457.628 451.755 448.030 443.500 439.499 434.559 428.245 423.610 421.547 418.369 414.946 409.730 405.374 400.713 398.802 396.555 396.833 396.979 397.171 397.186 397.239 396.439 398.221 398.686 400.213 396.900 400.342 400.903 400.880 400.869 400.904 401.282 401.165 401.497 401.919 402.663 402.972 403.420 403.153 403.056 403.863 403.930 404.574 404.893 404.848 405.382 405.443 405.669 411.712 416.461 424.441 434.771 448.123 462.012 476.667 491.584 507.115 521.310 527.654 532.346 541.846 549.094 554.430 565.478 579.723 592.841 612.394 628.238 639.496 650.849 662.871 674.614 688.092 701.249 716.195 792.255 803.448 817.369 830.612 848.520 867.649 885.532 907.780 924.178 941.097 963.215 983.702 996.386 1008.833 1021.196
1782.955 1771.597 1759.938 1750.126 1738.498 1726.744 1718.854 1710.143 1699.562 1691.308 1683.975 1678.569 1672.999 1668.470 1663.594 1659.445 1656.512 1655.277 1653.205 1650.541 1647.852 1645.996 1640.081 1637.145 1632.198 1631.652 1624.236 1619.133 1608.863 1600.962 1592.531 1584.677 1574.538 1567.065 1557.947 1548.397 1536.857 1541.811 1549.144 1553.504 1560.979 1573.876 1577.968 1592.626 1603.862 1613.162 1606.361 1599.783 1594.018 1589.326 1582.899 1576.903 1573.442 1573.741 1568.091 1563.371 1557.024 1551.077 1549.218 1551.120 1550.794 1549.627 1556.890 1567.816 1582.635 1597.896 1595.597 1597.744 1604.530 1613.583 1624.291 1647.660 1675.613 1695.142 1692.223 1686.300 1681.169 1672.499 1663.804 1653.179 1642.843 1627.080 1616.863 1606.590 1601.463 1597.368 1592.897 1582.859 1578.087 1573.148 1565.227 1556.525 1547.347 1535.053 1518.838 1505.744 1495.554 1490.269 1484.927 1475.746 1469.714 1469.420 1453.053 1435.681 1421.667 1413.723 1407.099 1398.869 1389.117 1375.728 1365.154 1357.874 1348.765 1334.246 1318.939 1313.867 1310.852 1309.593 1308.299 1303.821 1296.762 1289.984 1286.000 1279.172 1267.546 1255.969 1244.447 1241.527 1240.361 1235.998 1234.153 1230.059 1224.617 1216.445 1211.772 1209.514 1204.270 1199.428 1197.496 1191.229 1187.259 1183.085 1177.379 1171.432 1165.593 1159.242 1152.436 1148.103 1140.248 1135.804 1133.372 1127.266 1123.907 1122.123 1117.895 1116.097 1114.720 1113.592 1111.393 1109.220 1106.968 1104.491 1101.845 1096.820 1092.835 1091.934 1086.257 1078.987 1070.599 1058.607 1042.707 1031.205 1016.544 1002.637 985.839 969.375 957.490 945.023 926.633 906.734 891.675 881.735 865.467 848.735 832.122 820.021 806.251 795.681 787.042 781.520 776.091 762.604 749.057 734.017 723.526 715.473 707.540 702.384 695.825 688.119 683.669 678.772 674.951 669.675 662.928 659.407 656.723 649.419 643.713 637.999 630.219 622.485 616.658 611.988 609.638 607.300 604.082 600.214 595.237 594.689 596.055 595.174 592.692 587.765 582.669 577.971 572.400 567.271 565.162 561.374 558.701 554.316 549.863 547.731 544.480 541.490 540.342 537.089 539.488 531.128 524.417 520.268 521.626 523.374 523.228 522.762 520.577 516.400 511.111 504.592 498.293 489.380 486.000 485.337 485.224 480.274 476.401 475.026 472.527 469.528 465.327 458.643 452.623 448.952 445.077 438.940 433.429 430.345 425.964 423.087 418.544 415.380 409.473 404.742 400.109 398.222 397.219 397.184 397.381 397.747 397.358 397.904 396.801 397.683 398.925 398.993 400.730 397.754 401.688 401.543 401.683 401.580 401.809 401.768 401.953 402.770 403.338 403.953 404.259 404.141 403.668 403.808 404.670 405.192 404.670 405.588 405.765 406.239 406.714 411.116 417.737 421.566 429.918 441.868 456.452 463.782 475.983 496.959 498.439 522.763 535.125 547.815 557.261 563.584 572.386 581.247 594.036 613.631 629.978 637.665 651.518 662.992 675.356 689.260 696.611 730.767 749.318 793.287 819.687 827.428 850.219 864.703 878.745 907.081 924.563 939.864 964.133 983.225 994.451 1005.945 1019.461
1788.330 1776.242 1765.748 1753.224 1739.744 1730.369 1721.367 1710.930 1697.713 1690.907 1686.380 1681.085 1674.406 1668.398 1662.787 1659.818 1656.041 1654.231 1650.155 1648.650 1648.981 1645.928 1639.107 1633.302 1626.072 1618.337 1612.821 1609.574 1601.558 1592.912 1586.560 1580.728 1570.045 1557.833 1550.698 1539.836 1531.228 1534.694 1541.858 1544.185 1552.696 1560.362 1570.925 1578.219 1594.464 1601.943 1602.643 1595.214 1589.461 1584.558 1580.853 1577.734 1580.326 1573.270 1565.999 1561.280 1555.375 1550.681 1547.319 1549.315 1548.765 1546.589 1551.897 1561.958 1575.382 1590.590 1593.567 1593.512 1597.443 1606.615 1617.198 1638.370 1665.582 1685.885 1682.308 1675.558 1670.308 1663.846 1657.210 1651.890 1645.274 1634.895 1621.011 1607.708 1600.201 1595.100 1589.229 1581.417 1576.807 1572.465 1564.562 1556.382 1545.464 1529.710 1514.585 1502.788 1493.582 1489.591 1487.405 1476.394 1463.963 1461.200 1450.507 1433.063 1421.203 1410.989 1403.973 1393.066 1379.315 1366.190 1358.026 1356.052 1353.432 1335.671 1320.297 1321.740 1316.828 1314.057 1308.017 1296.118 1291.151 1286.631 1275.820 1273.083 1263.341 1252.441 1245.675 1240.501 1231.812 1225.501 1222.517 1221.344 1216.448 1211.028 1206.512 1202.672 1198.737 1194.437 1190.602 1185.942 1183.767 1179.348 1174.686 1167.893 1163.645 1158.222 1151.298 1143.232 1138.283 1131.728 1128.485 1123.925 1120.239 1117.778 1115.199 1114.161 1112.480 1110.816 1109.019 1106.101 1102.882 1100.891 1097.976 1093.106 1090.135 1088.381 1082.329 1075.814 1066.485 1056.157 1047.505 1024.082 1008.105 991.913 975.889 961.658 948.188 936.935 923.210 901.991 886.042 877.898 860.868 847.559 833.949 826.596 811.268 797.448 786.382 783.650 776.854 761.585 749.650 737.104 731.159 724.794 715.350 707.257 703.015 695.569 689.072 683.492 679.200 673.816 669.461 665.035 661.677 656.064 650.249 646.142 642.866 632.380 624.889 618.829 612.011 607.185 603.884 601.901 599.065 598.158 595.429 592.802 586.117 581.589 579.302 577.116 566.917 560.629 558.745 556.871 554.507 551.788 550.220 547.806 546.477 544.657 545.221 544.977 544.824 536.096 527.959 524.603 525.834 525.529 528.330 529.222 522.198 513.585 508.148 502.151 497.573 491.407 486.435 485.505 483.283 480.202 477.153 474.478 473.568 471.722 466.978 461.491 454.627 449.488 445.916 440.213 435.140 431.050 428.830 423.494 418.470 414.814 410.189 404.884 399.827 397.476 397.587 397.804 398.036 397.989 397.922 399.052 397.053 398.112 399.187 399.850 400.584 401.843 398.502 402.544 402.416 402.924 403.000 402.682 403.183 403.469 404.092 404.737 404.803 404.674 404.761 403.770 405.337 405.896 405.752 406.323 406.601 406.963 408.447 414.154 411.442 418.939 423.088 438.183 447.315 449.211 455.715 486.120 508.595 525.547 542.463 550.761 558.821 567.212 578.497 591.656 605.901 617.188 629.347 637.789 648.624 660.294 671.775 682.501 686.618 735.121 751.961 801.739 818.541 831.759 850.402 863.393 877.268 902.870 916.443 931.693 959.333 986.329 993.913 1006.886 1022.942
1794.482 1783.323 1769.442 1757.075 1744.021 1736.908 1725.278 1713.702 1700.219 1694.645 1690.022 1682.345 1679.207 1670.045 1662.964 1658.645 1655.573 1654.007 1651.886 1650.177 1644.612 1639.659 1634.939 1627.637 1623.074 1618.546 1615.764 1610.406 1604.990 1595.402 1587.602 1577.729 1569.940 1557.183 1546.259 1537.596 1528.307 1527.638 1535.219 1538.361 1546.146 1552.851 1558.318 1565.687 1575.666 1590.397 1595.782 1587.189 1582.036 1581.321 1580.021 1580.148 1578.299 1572.517 1565.241 1559.878 1554.613 1550.227 1543.628 1548.208 1547.148 1545.101 1546.962 1554.832 1568.212 1581.709 1588.763 1587.457 1589.766 1599.075 1610.614 1625.185 1651.522 1672.395 1669.838 1662.133 1659.956 1655.115 1651.343 1648.463 1643.433 1634.508 1621.130 1607.430 1600.998 1597.859 1587.021 1576.552 1573.135 1567.840 1560.867 1552.453 1541.518 1524.248 1510.354 1497.949 1488.155 1484.505 1483.938 1477.126 1464.792 1459.415 1446.008 1433.342 1419.483 1414.116 1395.379 1386.782 1372.968 1361.677 1351.103 1347.620 1346.420 1342.241 1330.996 1320.851 1316.213 1313.967 1306.303 1292.320 1284.744 1283.705 1276.083 1267.161 1258.087 1251.014 1243.525 1236.177 1227.620 1221.090 1213.716 1212.067 1210.078 1205.850 1201.789 1198.465 1194.807 1190.266 1185.578 1181.492 1178.122 1176.109 1171.447 1165.850 1159.904 1155.423 1148.484 1140.228 1132.759 1127.101 1122.001 1117.733 1114.759 1112.888 1113.178 1112.273 1108.053 1105.786 1104.389 1102.360 1099.754 1097.222 1094.230 1090.313 1085.383 1083.154 1077.890 1070.228 1061.203 1051.438 1043.760 1033.769 1012.730 993.170 970.275 957.074 942.367 929.277 914.142 898.228 884.869 876.879 861.179 845.621 835.453 826.833 816.198 802.275 791.555 789.601 778.460 762.661 752.551 743.250 736.704 730.146 724.755 719.298 705.570 694.311 687.525 682.579 679.076 676.160 672.265 667.772 663.964 657.676 652.985 648.537 643.343 637.164 631.906 624.846 615.672 609.006 605.290 604.509 600.261 595.306 590.145 586.620 582.821 580.130 576.233 572.361 565.390 560.670 558.415 557.253 555.927 554.017 553.204 551.505 553.613 550.652 546.495 549.910 544.080 536.168 531.050 526.394 527.663 531.925 535.511 533.182 525.633 515.076 508.122 501.300 497.433 495.101 490.267 487.202 486.633 478.750 478.094 474.084 474.196 471.906 466.733 460.563 453.566 449.565 447.008 440.478 437.222 432.854 428.645 424.254 419.989 414.862 410.483 406.023 401.003 398.336 398.069 398.480 398.563 398.569 398.443 399.910 397.476 399.289 398.550 400.246 400.781 401.253 402.859 399.332 403.121 403.444 403.421 403.771 403.966 404.345 404.694 404.634 404.939 405.295 404.996 404.668 405.175 406.105 406.822 406.719 406.915 408.053 409.062 408.082 415.698 421.755 433.407 437.985 446.218 455.896 462.928 479.363 502.344 517.215 530.852 542.539 553.690 561.270 571.880 586.609 597.933 609.247 619.019 629.558 644.769 657.904 666.397 677.519 721.003 740.578 755.093 807.844 819.416 830.600 845.549 865.689 874.292 888.252 916.134 928.926 951.518 982.245 997.700 1011.068 1026.400
1801.177 1786.342 1772.566 1758.578 1747.240 1735.852 1728.897 1717.989 1707.330 1701.071 1693.363 1685.773 1679.923 1676.270 1668.984 1660.926 1654.198 1650.910 1649.296 1648.176 1645.952 1639.031 1631.402 1626.316 1620.183 1616.485 1613.726 1609.207 1603.226 1593.800 1583.439 1573.671 1565.042 1554.805 1544.914 1534.873 1525.996 1522.408 1526.650 1532.424 1539.072 1545.384 1549.329 1556.004 1561.942 1572.871 1585.998 1578.773 1576.146 1579.694 1579.414 1579.402 1576.429 1567.888 1563.885 1556.944 1554.754 1549.816 1544.173 1543.113 1545.421 1544.194 1546.288 1548.176 1559.713 1572.314 1582.873 1580.645 1583.180 1592.685 1603.020 1615.417 1635.842 1656.252 1658.066 1655.021 1650.799 1645.300 1644.579 1642.556 1639.171 1634.399 1623.985 1612.458 1602.969 1597.046 1584.807 1575.654 1567.475 1564.920 1557.644 1549.052 1540.270 1521.361 1507.028 1495.984 1483.475 1478.470 1477.394 1475.401 1463.341 1460.708 1445.592 1432.621 1415.648 1406.337 1392.564 1376.256 1364.214 1356.789 1348.945 1344.208 1343.282 1338.165 1329.798 1322.557 1312.807 1307.036 1297.935 1290.427 1282.949 1275.370 1276.029 1264.973 1255.530 1240.710 1243.534 1232.940 1224.365 1220.742 1215.943 1211.968 1206.485 1202.094 1198.596 1195.663 1190.637 1186.735 1182.114 1178.285 1174.445 1170.879 1168.615 1163.310 1157.805 1152.911 1144.826 1138.808 1131.132 1123.498 1117.555 1113.545 1110.552 1109.378 1110.140 1107.863 1104.490 1102.741 1101.665 1099.560 1096.356 1094.178 1090.330 1085.162 1082.569 1078.260 1072.125 1064.207 1056.476 1047.674 1038.957 1025.330 1009.309 976.399 960.900 950.614 936.044 922.195 910.521 893.980 886.432 873.261 860.487 847.570 835.613 827.197 816.958 805.005 797.290 795.560 779.422 767.494 755.898 748.819 742.598 735.333 729.481 719.538 701.743 691.880 684.954 679.779 675.735 670.652 669.222 665.934 664.610 663.875 653.440 641.953 632.789 627.253 622.816 618.778 612.671 608.820 606.724 603.960 598.207 594.525 589.776 586.048 582.010 579.584 575.658 568.988 565.143 562.026 560.086 559.032 557.105 558.593 557.889 557.711 556.255 553.304 549.278 545.689 536.332 534.726 529.556 529.207 529.983 534.967 536.392 535.224 527.158 515.395 505.587 499.757 497.219 496.526 491.580 490.161 487.956 478.483 475.219 473.827 472.437 471.331 468.633 464.290 456.857 452.574 448.162 442.253 437.702 434.384 429.918 425.336 422.253 416.333 412.407 408.892 401.700 400.100 398.781 399.064 399.087 398.976 399.145 400.305 398.321 400.023 398.833 400.209 401.065 401.487 401.955 403.680 400.239 403.350 403.920 404.289 404.551 404.950 405.459 405.751 405.704 405.935 406.327 406.160 405.033 406.185 406.300 407.630 407.583 408.292 410.426 412.184 413.888 418.322 433.056 440.888 445.509 454.323 465.293 474.016 491.089 514.408 527.190 538.888 541.900 554.372 564.908 576.885 587.891 597.210 611.822 631.095 644.653 654.797 666.810 681.255 691.263 744.448 796.192 807.826 820.987 831.467 859.986 869.896 881.710 910.351 922.377 939.737 972.661 992.418 1005.819 1017.998 1032.131
1805.436 1789.814 1775.259 1763.909 1751.611 1741.420 1731.044 1718.764 1708.309 1696.504 1691.944 1685.927 1681.266 1676.688 1672.888 1663.477 1654.208 1649.083 1646.205 1644.622 1643.954 1635.956 1626.408 1622.010 1616.452 1613.131 1610.495 1600.295 1596.580 1585.172 1577.163 1568.932 1559.975 1551.290 1542.209 1532.486 1522.794 1519.363 1520.899 1527.402 1531.321 1534.802 1539.951 1547.917 1553.513 1562.715 1569.470 1573.650 1568.293 1566.045 1569.641 1569.406 1568.750 1561.317 1556.001 1559.388 1553.731 1548.680 1543.064 1541.846 1539.742 1542.855 1539.324 1540.330 1551.604 1565.189 1575.086 1576.844 1579.048 1587.258 1596.904 1608.685 1627.047 1643.341 1647.178 1646.939 1643.390 1639.253 1638.344 1638.274 1634.988 1630.483 1622.036 1613.643 1603.336 1594.240 1580.954 1574.949 1565.848 1564.361 1556.810 1548.091 1536.111 1519.124 1502.891 1487.916 1479.698 1474.441 1471.807 1472.696 1463.939 1460.140 1446.971 1431.521 1414.195 1401.825 1389.417 1373.928 1365.526 1355.990 1350.851 1344.003 1344.973 1332.528 1327.719 1319.522 1312.630 1297.875 1288.592 1280.252 1275.098 1271.697 1267.440 1266.610 1254.561 1243.706 1233.818 1221.243 1218.995 1207.109 1206.221 1206.556 1206.989 1202.208 1196.742 1192.129 1187.057 1183.041 1179.036 1173.983 1169.556 1165.386 1162.184 1156.956 1152.946 1148.908 1143.116 1135.260 1128.157 1120.976 1116.490 1111.380 1106.900 1102.763 1101.026 1099.925 1099.577 1099.531 1098.214 1096.782 1093.806 1090.568 1084.629 1080.370 1078.547 1074.379 1067.750 1060.779 1051.752 1043.845 1032.718 1019.233 1001.727 979.614 960.329 948.331 932.205 917.505 905.357 892.010 882.493 869.943 860.570 847.407 834.119 825.639 811.895 804.896 797.071 796.732 786.215 775.602 764.208 759.343 745.206 729.534 721.689 714.542 707.059 697.135 685.384 679.042 672.483 672.264 673.889 673.052 674.709 666.956 650.948 638.324 633.178 626.363 620.647 618.038 608.195 606.732 605.854 606.067 606.209 603.265 594.704 587.580 584.066 580.042 576.532 569.627 566.241 563.232 561.919 560.727 559.862 562.542 562.096 561.676 559.696 556.868 546.835 539.074 535.871 536.216 536.058 537.074 540.048 540.130 539.570 535.632 526.304 515.404 507.616 500.129 497.609 494.890 492.485 489.581 487.451 479.774 475.873 473.971 471.984 469.614 467.451 465.647 461.963 456.801 453.743 445.438 440.611 434.578 429.379 426.769 423.530 419.792 414.504 410.482 403.003 400.682 400.274 399.736 399.640 399.786 399.775 400.934 398.513 400.323 400.162 400.804 401.208 401.891 402.252 402.746 404.910 401.489 404.528 405.222 405.095 405.229 405.676 406.228 406.377 407.345 406.884 407.426 407.162 406.010 407.399 407.887 408.571 408.990 410.119 411.778 411.815 418.204 437.646 439.766 444.676 451.195 459.173 468.408 485.576 508.487 519.497 524.439 536.122 545.052 556.256 569.886 585.512 600.588 615.010 629.686 640.445 651.715 664.788 680.154 723.292 751.287 796.487 807.656 819.397 833.487 865.120 874.897 885.522 916.041 929.281 955.406 984.130 1000.928 1012.487 1022.759 1035.183
1808.205 1795.252 1781.495 1769.083 1757.815 1746.085 1733.498 1721.022 1709.823 1699.548 1691.569 1686.177 1681.501 1676.593 1671.439 1660.238 1653.535 1649.080 1642.336 1638.870 1634.987 1631.911 1622.591 1616.991 1613.725 1606.865 1602.286 1592.294 1587.069 1580.053 1571.132 1563.096 1554.905 1546.758 1538.777 1528.887 1520.867 1519.760 1518.298 1523.023 1525.677 1528.619 1533.937 1542.408 1545.831 1555.290 1562.624 1568.374 1561.678 1556.207 1556.505 1560.163 1558.506 1554.165 1550.280 1548.595 1552.415 1547.443 1542.100 1541.919 1537.235 1539.381 1537.198 1534.721 1543.097 1555.531 1569.379 1575.581 1574.108 1578.928 1588.603 1603.417 1626.042 1634.629 1637.098 1638.132 1636.034 1632.818 1632.949 1632.347 1629.261 1626.396 1620.441 1614.142 1607.456 1595.658 1583.728 1574.605 1565.401 1565.625 1565.825 1557.426 1539.024 1519.912 1503.296 1490.719 1477.641 1468.888 1465.347 1466.095 1461.000 1455.923 1441.267 1425.772 1412.928 1400.126 1388.801 1377.105 1364.045 1357.962 1347.391 1340.061 1335.609 1330.976 1322.335 1313.175 1303.435 1292.405 1290.255 1284.663 1273.498 1262.016 1255.836 1246.795 1241.655 1236.401 1227.276 1219.764 1213.410 1207.530 1198.564 1192.837 1194.736 1194.045 1193.102 1192.137 1185.548 1180.009 1177.071 1173.554 1168.979 1163.635 1159.776 1156.345 1151.829 1147.919 1142.534 1135.153 1128.112 1120.220 1115.138 1109.243 1104.874 1100.919 1096.949 1094.185 1093.833 1094.875 1094.390 1092.830 1089.549 1083.981 1077.888 1074.844 1072.983 1068.416 1062.454 1054.779 1047.147 1039.669 1026.430 1011.801 993.112 971.214 958.377 946.732 934.463 919.556 902.279 891.526 882.393 870.514 857.779 848.241 838.181 822.197 809.727 802.165 798.417 792.820 784.545 777.223 769.498 756.091 744.664 733.432 725.944 720.537 713.680 701.077 687.004 676.195 673.038 672.714 675.537 673.968 670.540 663.920 651.579 640.091 633.972 625.061 618.361 614.740 607.897 607.351 606.583 607.336 606.150 601.690 592.851 587.521 581.891 579.503 576.674 572.636 568.280 564.785 564.006 565.755 568.648 568.574 565.777 562.522 557.542 551.434 545.928 542.260 539.895 540.662 543.081 544.778 543.811 542.766 539.665 536.122 527.911 516.386 512.955 501.719 499.631 496.612 492.297 489.350 486.225 480.483 474.239 472.844 471.920 467.739 466.400 466.073 463.678 461.873 458.384 452.227 446.926 439.290 430.414 428.076 425.070 420.751 415.414 412.576 406.945 401.933 400.952 400.456 400.185 400.137 400.302 400.946 398.938 400.891 400.771 400.417 401.293 401.906 402.892 403.200 403.779 405.623 402.369 405.878 405.824 406.352 406.169 406.735 407.066 407.265 407.539 408.060 408.226 408.151 407.586 407.611 409.042 409.463 410.140 410.402 411.401 420.481 432.691 437.584 440.971 447.564 455.344 465.104 476.535 499.409 506.110 516.278 531.476 544.091 557.284 570.361 582.588 595.936 610.963 626.792 641.012 652.254 665.140 679.957 727.955 757.783 797.677 810.786 821.366 834.602 868.323 880.737 893.234 908.904 931.172 952.577 985.182 1002.683 1021.759 1029.455 1039.904
1811.674 1799.535 1787.642 1774.291 1761.379 1749.455 1736.283 1723.182 1712.688 1704.375 1695.460 1688.957 1681.855 1676.306 1669.756 1656.760 1649.642 1644.403 1640.640 1635.305 1630.652 1629.033 1622.864 1617.281 1609.821 1603.384 1598.436 1591.130 1584.637 1577.726 1569.994 1561.714 1552.297 1544.212 1534.302 1525.060 1519.148 1518.757 1517.101 1517.973 1520.572 1522.331 1528.022 1534.897 1538.978 1544.503 1554.664 1564.884 1557.930 1551.410 1546.707 1546.075 1552.294 1550.473 1544.160 1538.615 1538.510 1544.233 1543.478 1540.821 1535.313 1525.059 1534.942 1529.919 1535.950 1546.053 1558.273 1566.072 1566.586 1573.005 1578.462 1590.320 1622.059 1627.155 1627.861 1628.624 1628.563 1627.352 1625.983 1626.312 1622.786 1620.926 1617.697 1613.155 1607.458 1598.247 1587.430 1575.758 1567.029 1567.582 1566.878 1555.883 1537.532 1519.383 1503.416 1490.548 1477.316 1466.374 1460.216 1456.651 1458.004 1450.591 1440.016 1425.678 1413.088 1397.386 1390.093 1373.505 1364.005 1358.177 1346.931 1343.893 1335.555 1326.194 1318.538 1309.439 1297.211 1290.129 1285.560 1277.767 1271.742 1263.044 1256.978 1246.344 1239.310 1231.208 1223.121 1218.606 1211.552 1205.539 1199.925 1196.273 1186.638 1181.675 1182.478 1183.167 1182.318 1176.773 1175.023 1170.839 1167.970 1163.441 1158.335 1155.356 1151.087 1146.702 1140.373 1133.935 1125.831 1118.010 1112.022 1106.421 1101.938 1099.001 1095.746 1093.714 1090.288 1088.594 1089.364 1090.080 1082.969 1077.367 1071.801 1069.765 1067.757 1063.610 1058.703 1050.715 1043.532 1034.625 1021.486 1007.300 988.618 965.526 952.127 949.365 928.077 917.237 900.910 890.431 881.854 870.761 854.720 842.623 832.232 820.864 810.805 802.129 791.935 785.009 778.053 770.251 760.125 753.203 746.197 742.314 729.657 718.968 708.477 703.478 693.544 685.022 677.530 671.975 665.657 666.949 662.494 656.119 646.297 641.569 636.249 623.148 617.687 612.239 609.625 608.654 609.209 607.648 600.539 594.481 589.130 584.834 580.160 577.822 576.117 573.165 569.071 568.566 570.184 573.003 574.707 574.068 569.337 564.933 558.731 550.904 547.945 546.825 546.521 547.010 548.317 548.262 544.255 541.240 537.211 533.796 527.150 519.791 511.803 505.325 497.881 493.994 490.738 488.732 485.789 479.827 475.330 472.157 471.751 466.816 466.414 466.123 466.361 466.456 464.138 456.635 449.732 442.087 433.209 428.113 426.451 422.857 417.222 414.016 410.033 402.727 401.718 401.232 401.064 400.557 400.613 401.352 399.255 401.385 400.887 400.643 400.790 402.827 402.615 403.264 404.003 404.639 405.348 402.713 404.907 407.179 406.892 407.473 407.424 407.735 408.277 409.195 409.302 409.410 408.233 408.699 409.464 409.196 411.021 411.562 415.297 417.611 425.782 431.975 438.307 446.117 454.979 463.812 471.042 482.381 499.812 515.031 528.682 542.532 553.964 566.614 579.692 592.290 606.072 620.510 636.979 650.279 664.570 679.412 727.749 764.092 800.241 811.717 824.399 846.895 868.203 883.075 897.646 912.217 929.733 948.227 982.126 1001.243 1021.385 1036.138 1045.115
1824.453 1809.906 1794.066 1780.741 1765.937 1752.272 1737.594 1724.855 1717.119 1708.884 1699.033 1694.748 1687.409 1677.121 1670.207 1657.933 1647.120 1644.343 1639.603 1634.499 1629.901 1625.784 1618.678 1613.376 1606.915 1599.446 1596.352 1590.164 1583.038 1574.849 1567.312 1558.494 1549.163 1539.646 1529.634 1520.794 1518.605 1518.097 1516.298 1515.890 1516.721 1518.546 1523.311 1529.151 1534.189 1539.983 1547.372 1557.792 1553.111 1545.809 1540.301 1535.870 1538.874 1544.250 1541.052 1537.070 1531.357 1533.137 1537.625 1534.919 1527.416 1524.297 1530.248 1528.244 1530.286 1538.556 1548.437 1552.390 1555.733 1561.413 1568.115 1581.135 1602.152 1620.576 1617.282 1617.896 1622.748 1621.175 1620.121 1620.937 1616.857 1616.010 1612.977 1609.842 1604.997 1597.379 1587.580 1578.076 1571.526 1568.041 1564.918 1556.977 1534.369 1517.712 1501.589 1487.887 1474.714 1463.455 1455.215 1450.154 1450.563 1446.381 1432.888 1420.590 1410.174 1395.090 1386.747 1376.747 1362.270 1352.147 1345.906 1340.845 1332.866 1319.559 1311.054 1302.137 1297.652 1287.374 1283.845 1275.429 1271.159 1261.659 1254.527 1246.881 1237.974 1226.214 1223.747 1218.832 1211.579 1205.743 1200.211 1196.064 1191.175 1183.301 1174.473 1173.751 1176.573 1173.315 1170.737 1167.788 1164.368 1160.541 1156.177 1151.123 1146.122 1141.380 1136.397 1130.066 1122.586 1115.537 1109.926 1103.079 1098.498 1094.007 1091.925 1089.931 1088.217 1086.255 1084.002 1083.200 1078.598 1073.596 1068.291 1066.101 1063.959 1061.204 1055.889 1045.843 1039.929 1030.298 1017.642 1003.578 981.072 957.790 947.179 941.703 921.881 910.295 903.510 889.992 873.908 861.046 845.272 835.099 826.038 816.688 806.546 794.880 786.338 778.113 773.976 769.980 761.153 758.720 751.730 748.854 741.031 725.221 714.624 706.395 694.382 683.362 673.082 666.921 663.829 662.222 659.718 649.722 644.138 642.740 639.358 629.650 618.464 613.694 612.296 611.002 610.147 604.982 597.078 588.383 584.495 580.039 577.967 577.040 575.143 570.838 569.080 570.084 574.410 578.580 579.584 576.142 570.548 564.138 557.370 551.925 548.661 549.754 552.801 552.669 549.863 543.785 541.731 539.638 536.187 531.705 526.498 518.918 514.783 507.763 498.852 494.039 491.618 489.920 486.149 479.276 474.425 472.497 472.358 467.383 466.551 466.530 466.603 466.285 462.861 456.093 449.723 442.097 433.993 431.095 428.067 423.497 417.590 413.491 408.152 403.089 402.342 401.939 401.221 401.192 401.353 402.859 401.021 401.723 400.732 400.990 401.439 402.227 403.333 403.652 404.159 404.735 405.397 406.133 404.692 403.802 408.398 408.278 408.294 408.156 409.409 409.372 409.917 410.258 409.061 410.615 409.970 410.091 410.669 412.178 413.212 415.264 420.484 426.675 433.663 443.509 452.973 459.281 468.855 477.856 492.271 508.742 524.323 536.396 551.822 563.829 576.965 589.603 603.120 618.404 633.542 647.381 663.081 674.128 745.394 764.849 796.579 813.451 825.434 838.241 872.220 889.686 899.987 920.547 936.396 953.774 987.045 1002.228 1019.294 1039.955 1055.651
1832.478 1814.905 1801.345 1786.698 1767.441 1751.831 1740.280 1728.386 1717.521 1707.888 1699.957 1694.782 1690.380 1676.819 1669.665 1657.870 1644.777 1641.908 1638.623 1632.542 1628.580 1623.106 1615.710 1610.881 1604.197 1597.419 1592.529 1586.289 1580.640 1571.781 1563.035 1554.529 1544.648 1535.970 1526.635 1520.597 1518.316 1517.613 1516.431 1515.934 1514.888 1515.176 1519.283 1522.679 1525.421 1529.357 1538.234 1548.486 1543.194 1537.118 1533.056 1527.397 1526.123 1529.258 1533.898 1535.056 1529.637 1527.528 1529.035 1523.581 1518.245 1517.549 1516.879 1524.849 1523.537 1531.064 1541.253 1547.947 1545.420 1551.580 1560.540 1570.356 1586.034 1609.746 1608.737 1606.323 1610.965 1611.708 1610.623 1610.481 1609.762 1610.092 1605.805 1605.983 1603.107 1599.291 1590.933 1580.071 1572.906 1567.512 1564.751 1555.717 1531.700 1515.021 1499.666 1486.730 1474.457 1461.820 1451.976 1445.366 1443.450 1438.989 1428.037 1416.611 1404.354 1397.314 1383.695 1374.660 1359.360 1348.455 1341.730 1337.054 1327.437 1314.349 1305.947 1299.429 1293.202 1281.656 1280.914 1275.571 1267.874 1259.260 1251.739 1242.901 1234.823 1227.495 1217.584 1216.167 1210.650 1205.479 1199.989 1195.563 1191.868 1185.260 1177.578 1172.883 1166.864 1166.507 1164.917 1162.718 1159.006 1156.814 1154.187 1148.645 1143.597 1138.674 1133.384 1127.396 1119.891 1110.887 1105.834 1101.261 1095.498 1091.547 1088.811 1087.600 1086.945 1085.989 1083.577 1077.200 1073.289 1070.077 1065.533 1063.519 1060.781 1057.994 1050.161 1042.649 1036.586 1024.699 1012.009 994.854 974.198 953.020 944.845 933.812 914.677 905.304 900.172 882.367 867.254 852.003 841.005 835.302 825.171 819.125 809.087 797.382 784.199 782.432 780.572 775.771 769.764 765.965 759.532 752.230 745.667 729.247 713.360 704.144 693.376 682.429 669.702 666.082 664.555 662.162 656.731 646.939 645.192 641.054 639.038 628.336 618.762 616.949 615.603 614.827 612.633 604.592 593.881 588.383 581.566 579.314 576.056 575.753 574.353 571.264 571.143 577.053 579.958 579.495 579.057 574.179 567.778 563.926 557.976 552.935 551.818 553.451 554.825 551.507 546.228 541.384 540.201 537.940 534.523 528.688 523.512 516.285 510.808 504.409 498.165 496.121 493.448 489.067 485.634 480.592 475.670 475.009 472.629 467.961 466.856 466.510 465.827 465.192 460.562 455.285 448.999 442.454 434.974 432.534 429.503 424.075 418.927 414.244 408.114 403.973 403.040 402.238 402.099 401.755 401.604 403.166 403.042 402.309 401.192 401.454 401.875 401.999 403.631 403.567 404.250 405.034 405.670 406.034 407.076 408.338 404.316 406.763 409.575 410.160 409.506 409.748 413.073 412.750 410.644 411.800 411.089 411.747 411.023 412.899 414.099 415.196 417.767 425.012 431.183 438.141 446.951 451.775 460.228 471.585 484.117 500.711 520.472 532.822 544.623 557.762 572.018 585.340 597.990 610.360 624.237 639.313 654.656 667.312 754.440 781.548 806.690 815.928 827.422 865.151 875.310 890.176 900.412 920.757 942.943 958.632 984.746 1003.933 1029.248 1043.764 1057.417
1842.626 1828.133 1818.374 1798.564 1776.241 1758.360 1744.812 1733.259 1723.622 1711.875 1700.796 1693.230 1686.828 1675.413 1667.419 1653.852 1644.543 1639.648 1639.568 1633.516 1625.508 1619.260 1613.302 1608.189 1600.234 1593.796 1590.243 1583.420 1575.382 1568.156 1558.939 1550.274 1540.685 1531.196 1524.409 1519.768 1518.186 1517.198 1516.380 1515.972 1515.509 1514.899 1515.691 1516.917 1518.918 1521.539 1528.529 1540.998 1535.862 1529.327 1523.176 1519.760 1518.167 1515.649 1520.460 1525.784 1524.532 1521.299 1520.351 1524.153 1514.926 1511.409 1507.400 1516.450 1519.312 1522.790 1531.207 1540.520 1540.444 1543.355 1549.250 1559.981 1573.504 1599.067 1598.413 1597.717 1599.446 1602.489 1601.592 1602.838 1603.303 1602.136 1600.208 1599.589 1600.280 1597.711 1590.505 1579.911 1572.435 1567.370 1564.949 1551.884 1532.072 1511.266 1497.760 1484.417 1474.818 1463.112 1451.794 1442.336 1433.597 1432.583 1422.166 1410.372 1401.385 1391.993 1380.494 1375.188 1360.438 1348.774 1341.464 1334.805 1327.528 1314.111 1303.557 1299.115 1286.038 1275.645 1267.906 1272.080 1266.257 1258.850 1251.631 1245.063 1232.670 1225.562 1218.292 1215.157 1208.963 1204.917 1201.763 1196.181 1191.651 1186.564 1180.244 1170.527 1165.484 1159.204 1157.597 1158.484 1156.277 1151.434 1146.584 1143.079 1140.643 1136.374 1129.534 1123.374 1116.708 1109.066 1102.516 1096.438 1092.216 1089.088 1087.345 1086.529 1085.986 1085.384 1083.949 1079.149 1071.954 1067.101 1062.708 1060.631 1057.680 1053.110 1044.179 1040.140 1031.811 1020.107 1007.946 988.751 970.272 954.288 943.776 930.416 912.088 899.925 898.482 881.584 861.558 846.312 838.260 833.042 826.803 822.012 815.285 803.029 793.077 788.092 785.999 781.869 772.988 767.083 760.274 749.142 733.517 720.074 707.554 697.379 689.447 683.777 671.701 671.948 667.938 656.736 648.969 644.491 645.684 642.941 635.478 625.193 620.583 618.899 617.919 616.790 610.230 601.037 591.964 586.782 584.225 578.206 576.885 577.992 577.718 578.378 581.659 583.038 580.924 578.720 576.935 572.337 567.913 564.382 559.994 555.865 555.428 554.251 549.494 547.956 546.948 542.492 541.662 539.710 534.092 528.746 524.719 514.961 508.297 501.021 497.740 495.241 490.063 489.463 485.549 482.939 477.102 475.580 474.605 469.653 467.270 466.411 465.367 463.219 458.353 452.199 446.570 441.410 435.860 432.325 429.124 424.943 419.991 414.983 407.590 404.506 404.110 402.635 402.679 402.263 402.378 402.598 403.050 402.259 401.821 402.178 402.717 402.953 403.139 403.735 404.335 405.486 406.257 406.714 407.607 407.996 408.705 408.585 406.603 410.416 410.062 410.415 410.353 413.133 413.657 413.193 413.396 413.676 412.588 413.760 414.355 416.697 418.638 420.461 426.835 435.773 442.213 447.683 456.554 471.902 487.279 502.297 524.394 534.632 540.960 553.345 566.528 578.977 591.537 604.917 619.735 632.172 646.777 746.995 759.764 775.749 807.883 818.471 853.725 866.120 877.481 889.629 902.178 918.037 940.289 954.699 973.472 997.468 1032.416 1046.033 1053.866
1845.553 1833.522 1820.853 1801.510 1779.480 1763.613 1750.531 1739.396 1725.246 1713.464 1705.600 1695.810 1687.002 1675.470 1667.263 1657.111 1642.751 1636.563 1633.591 1630.457 1624.046 1617.071 1610.725 1607.471 1598.670 1592.341 1587.212 1579.770 1572.637 1566.030 1556.718 1547.634 1537.105 1529.120 1523.318 1521.098 1518.544 1518.092 1517.543 1516.273 1515.248 1514.800 1514.448 1514.488 1515.394 1517.222 1521.572 1534.066 1529.235 1521.752 1517.668 1512.431 1509.030 1506.700 1507.714 1513.618 1516.512 1519.250 1515.511 1517.708 1513.750 1509.167 1505.375 1506.418 1515.226 1518.560 1526.738 1533.445 1537.638 1534.299 1539.706 1549.527 1561.254 1589.477 1591.801 1590.085 1592.945 1594.931 1596.213 1595.799 1597.015 1595.828 1594.498 1594.610 1597.566 1595.525 1590.139 1579.806 1571.977 1565.578 1562.510 1551.200 1533.458 1511.962 1498.334 1484.118 1471.577 1461.486 1451.868 1439.101 1428.453 1426.951 1416.094 1407.565 1399.776 1386.622 1376.843 1371.363 1358.361 1348.623 1342.516 1332.309 1325.980 1316.069 1304.160 1294.373 1291.456 1281.557 1266.049 1258.631 1263.931 1258.173 1252.456 1242.618 1234.611 1226.182 1219.161 1215.659 1212.595 1207.018 1200.425 1199.470 1193.587 1187.020 1180.490 1174.391 1168.123 1161.312 1155.391 1153.594 1154.067 1151.547 1146.021 1142.009 1138.131 1133.180 1126.950 1120.214 1113.045 1106.461 1099.123 1094.199 1089.740 1086.662 1084.614 1083.323 1083.391 1082.748 1081.032 1076.712 1070.661 1064.433 1055.669 1054.045 1050.792 1043.717 1037.731 1032.992 1023.915 1013.242 1002.877 989.962 974.129 950.321 936.062 925.958 912.534 907.664 886.343 875.991 859.998 844.257 836.105 829.471 825.466 818.287 808.412 803.742 794.029 788.758 783.185 778.126 772.000 763.931 754.651 739.785 726.544 712.920 698.248 691.364 685.416 679.836 674.397 670.504 661.705 649.911 646.215 644.504 643.809 642.464 632.753 626.328 621.628 621.644 618.802 616.137 609.453 598.409 591.378 587.514 585.909 586.168 589.600 586.228 580.872 579.792 581.595 580.943 578.906 577.157 573.417 573.466 569.286 564.550 561.182 558.598 557.660 554.508 550.308 548.581 549.070 543.017 542.712 537.394 532.927 528.478 524.390 514.073 504.446 497.904 496.657 493.040 490.001 489.352 485.679 482.997 478.828 476.685 474.358 470.610 467.102 466.825 464.116 461.890 455.708 449.705 444.910 441.949 437.433 433.533 429.233 424.780 419.230 416.158 408.282 405.069 403.664 403.284 403.307 403.150 403.037 401.053 403.926 402.340 402.456 402.392 403.283 403.517 403.960 404.206 404.795 404.985 406.398 407.323 407.906 408.099 410.007 410.347 408.423 407.960 411.130 410.452 410.854 412.255 414.422 414.525 413.096 415.063 417.965 413.651 413.870 418.698 419.465 419.667 421.763 427.256 434.072 442.343 453.880 479.302 497.132 506.989 523.303 540.987 539.727 546.990 558.084 570.271 583.294 596.970 610.203 624.655 638.505 741.872 755.794 770.632 800.504 814.401 838.788 861.811 876.094 889.838 908.273 919.757 936.409 955.631 970.354 995.244 1018.335 1043.864 1054.920
1840.572 1830.835 1820.436 1800.647 1781.157 1767.512 1752.625 1736.119 1725.341 1715.785 1709.611 1699.848 1689.050 1678.802 1666.208 1656.695 1642.498 1633.096 1629.565 1626.396 1618.261 1611.060 1606.637 1602.280 1595.210 1588.468 1583.742 1576.359 1567.387 1561.263 1554.436 1545.883 1535.549 1526.964 1523.562 1522.059 1519.631 1522.040 1522.092 1520.734 1516.058 1515.325 1514.166 1512.003 1512.682 1514.086 1517.253 1526.559 1525.559 1518.742 1510.409 1506.764 1504.618 1501.696 1501.250 1509.698 1508.769 1512.271 1510.404 1511.745 1511.143 1505.087 1503.796 1504.536 1512.277 1516.989 1523.315 1526.047 1534.123 1529.506 1533.134 1542.289 1555.152 1582.046 1584.854 1583.316 1587.420 1589.304 1590.728 1587.809 1590.186 1587.955 1590.498 1591.780 1593.001 1592.829 1588.505 1580.829 1570.047 1560.132 1554.774 1545.058 1530.818 1515.144 1500.516 1484.911 1472.687 1461.434 1450.057 1437.046 1425.699 1420.392 1413.422 1404.944 1399.482 1386.211 1375.597 1366.999 1354.766 1348.782 1343.008 1331.662 1321.051 1318.677 1305.830 1293.590 1280.980 1274.667 1266.529 1259.487 1251.335 1257.959 1251.910 1242.882 1237.165 1227.368 1221.686 1216.664 1210.095 1211.961 1208.042 1204.051 1198.942 1191.529 1181.840 1173.520 1168.837 1162.430 1156.833 1152.947 1147.570 1142.818 1139.822 1135.605 1132.965 1131.124 1127.753 1122.248 1113.936 1105.561 1098.009 1092.881 1087.112 1085.379 1084.876 1080.830 1077.249 1076.828 1075.436 1073.485 1065.759 1060.663 1053.281 1047.518 1042.654 1037.530 1033.007 1025.539 1017.413 1008.211 997.509 985.192 968.573 957.918 932.017 919.636 913.020 892.168 882.485 873.472 858.387 846.294 828.389 823.799 819.802 811.300 805.700 802.128 791.753 785.396 775.812 769.851 766.560 758.403 746.623 731.223 715.078 703.046 691.479 682.256 677.479 674.760 672.902 665.279 655.806 648.570 646.574 644.804 643.502 638.111 629.273 626.730 624.419 623.880 620.454 616.416 610.510 602.228 593.982 592.246 595.133 598.439 591.533 584.257 579.148 576.722 577.128 578.894 577.676 576.365 575.167 574.223 570.782 565.913 562.565 561.417 561.336 558.292 554.315 550.043 548.998 543.848 539.751 535.030 532.296 527.705 521.065 512.808 502.704 497.115 494.786 493.727 489.327 488.385 484.163 480.820 481.625 477.417 473.462 470.835 466.300 466.103 463.241 459.123 452.634 446.992 444.041 440.184 437.254 434.365 428.889 423.479 419.146 416.879 407.430 406.346 403.839 403.896 403.878 403.515 403.537 401.623 403.183 402.959 401.736 402.564 403.261 404.097 404.619 405.192 405.394 405.816 406.134 407.537 408.409 409.600 410.068 410.580 410.417 407.991 409.117 412.925 412.874 411.938 412.258 414.026 419.130 416.267 415.216 415.263 417.085 415.455 417.656 419.238 421.047 425.688 437.335 438.301 454.615 498.967 505.714 515.134 527.694 536.425 537.890 543.325 552.310 564.102 576.122 587.937 602.973 618.576 634.436 739.968 753.911 767.830 784.036 803.753 819.112 855.966 871.114 890.853 903.505 918.639 940.992 954.261 968.200 984.340 1011.292 1032.485 1054.215
1834.603 1826.219 1818.014 1803.121 1785.489 1771.441 1754.766 1739.295 1728.076 1717.414 1710.636 1702.642 1692.179 1679.695 1665.376 1653.981 1640.399 1632.463 1626.353 1620.551 1611.935 1606.740 1603.136 1598.356 1590.488 1587.649 1582.148 1573.013 1566.517 1559.729 1550.623 1542.753 1534.071 1526.186 1523.568 1521.248 1522.915 1523.878 1525.662 1521.865 1517.512 1517.080 1515.106 1511.518 1510.339 1511.547 1514.154 1525.101 1523.295 1518.021 1510.541 1503.349 1501.130 1499.709 1499.156 1500.696 1504.193 1503.601 1506.980 1506.884 1505.339 1502.152 1502.779 1502.670 1506.303 1516.633 1518.684 1522.027 1525.110 1523.566 1526.788 1534.825 1544.251 1574.290 1579.474 1576.762 1577.459 1582.459 1584.740 1580.044 1582.666 1583.234 1585.618 1586.260 1588.261 1589.156 1586.377 1580.125 1568.516 1556.539 1545.588 1535.686 1525.894 1520.175 1505.849 1486.052 1471.253 1458.781 1446.918 1433.711 1423.979 1416.354 1412.562 1402.553 1395.712 1382.881 1369.182 1360.876 1353.091 1345.514 1338.440 1326.125 1319.798 1311.373 1302.458 1292.273 1281.030 1271.871 1263.669 1251.658 1245.790 1239.544 1244.163 1237.411 1229.474 1221.280 1214.994 1209.013 1201.565 1190.686 1188.244 1190.295 1192.426 1194.303 1184.731 1174.098 1166.950 1162.060 1157.273 1152.249 1145.645 1139.776 1134.140 1130.326 1126.147 1124.283 1119.072 1115.983 1111.243 1101.475 1093.519 1089.599 1083.361 1083.319 1083.741 1084.060 1079.840 1071.761 1068.474 1066.083 1055.283 1048.904 1047.912 1044.602 1039.062 1034.117 1028.415 1018.866 1009.728 1001.188 992.350 980.325 966.415 952.332 937.995 912.805 900.424 887.287 877.148 867.682 856.423 843.301 835.393 820.543 812.572 809.542 804.754 797.729 790.004 780.330 768.640 762.698 759.618 753.302 741.700 723.013 710.185 699.056 685.927 677.574 673.150 671.809 667.255 660.435 655.261 653.714 649.187 646.158 641.130 634.677 631.727 629.857 625.071 621.693 618.302 613.937 606.696 597.787 594.683 602.670 607.786 601.509 591.713 582.564 577.012 575.420 574.626 576.332 576.357 576.006 574.979 573.862 571.500 567.360 565.620 564.250 563.726 562.061 558.693 551.513 547.384 542.588 537.511 537.111 532.386 525.761 517.862 507.139 498.906 497.149 491.587 486.751 486.324 484.368 482.494 484.143 482.094 475.857 474.178 470.829 466.746 466.672 464.024 458.095 453.808 447.258 443.085 437.840 435.612 433.117 427.319 423.382 419.358 417.265 407.434 406.894 404.423 404.474 404.581 404.396 405.053 402.376 403.916 403.308 402.495 403.232 403.908 404.287 404.803 405.625 406.194 406.426 406.947 407.903 409.205 410.239 410.732 410.976 411.270 411.214 408.931 410.280 414.599 415.544 415.167 415.479 415.946 415.742 416.000 416.879 416.766 417.038 416.504 418.294 420.219 422.759 431.274 442.620 452.632 496.489 505.373 515.684 521.746 528.764 531.787 538.330 548.351 559.337 569.951 583.677 596.157 615.525 645.083 740.852 752.300 764.956 778.835 799.547 814.388 846.623 866.544 889.200 902.838 917.785 936.340 952.245 967.096 985.958 1009.856 1038.287 1060.346
1828.155 1817.629 1809.457 1796.696 1786.685 1772.922 1756.490 1741.551 1730.756 1720.498 1711.515 1701.766 1692.005 1680.957 1667.562 1654.812 1642.805 1632.283 1624.202 1616.779 1609.740 1604.515 1599.735 1594.476 1589.773 1585.736 1580.905 1571.948 1566.244 1558.630 1550.431 1540.802 1531.912 1525.590 1522.260 1520.651 1523.703 1524.882 1526.714 1523.058 1518.278 1516.085 1515.573 1511.524 1509.395 1509.572 1512.290 1524.518 1523.929 1522.943 1512.311 1503.228 1499.138 1498.176 1498.537 1498.767 1497.557 1499.799 1502.559 1502.062 1500.062 1500.685 1501.646 1502.369 1503.773 1513.703 1516.965 1520.286 1519.717 1518.220 1520.174 1526.660 1536.436 1555.068 1569.673 1568.182 1571.161 1574.031 1578.107 1573.646 1576.023 1573.885 1574.535 1577.441 1580.885 1582.956 1582.728 1577.596 1566.694 1554.575 1543.999 1529.806 1517.053 1508.521 1501.877 1484.934 1470.222 1456.984 1445.187 1431.320 1423.623 1418.082 1412.145 1402.681 1396.141 1380.732 1366.204 1356.280 1348.164 1338.316 1333.114 1322.359 1312.330 1306.335 1295.842 1286.155 1276.613 1267.660 1258.264 1249.265 1245.019 1237.935 1229.698 1231.383 1227.066 1221.425 1217.456 1212.708 1205.857 1197.238 1188.529 1181.063 1176.747 1173.321 1180.622 1175.137 1161.710 1156.468 1155.104 1149.692 1144.077 1137.102 1133.399 1129.449 1124.555 1118.518 1110.484 1107.653 1103.707 1098.839 1093.490 1084.060 1082.684 1083.172 1084.726 1085.375 1085.050 1083.230 1077.905 1067.986 1058.307 1046.231 1035.005 1038.106 1036.730 1032.518 1029.488 1017.173 1005.554 993.030 985.816 973.318 962.797 943.816 922.480 907.701 893.354 882.574 873.836 861.574 854.345 841.307 833.848 825.618 810.214 804.824 798.295 791.291 784.119 774.175 763.915 759.784 756.949 747.770 736.395 720.616 710.656 698.884 682.107 677.536 676.198 674.078 670.655 665.539 659.737 656.996 654.611 647.171 641.454 635.704 633.479 631.305 625.603 620.307 616.833 609.771 602.907 597.092 598.767 606.174 606.113 601.176 592.316 581.901 576.054 576.116 572.840 573.994 574.482 575.162 574.595 573.424 569.468 568.621 568.791 568.055 567.400 563.468 556.788 550.104 545.607 538.896 536.377 535.154 529.517 518.517 509.186 499.142 496.257 495.647 489.978 486.205 484.595 483.480 483.031 483.933 482.161 478.819 475.473 472.406 469.286 465.699 461.326 456.662 452.105 446.134 441.799 437.644 435.079 431.375 427.997 423.704 419.583 416.315 408.061 407.170 405.117 404.990 404.867 405.079 405.045 404.000 404.402 403.365 402.657 402.885 403.775 404.995 405.039 406.589 406.799 407.340 407.599 408.816 410.362 411.022 411.741 411.669 411.957 412.083 414.691 409.340 414.461 416.136 415.663 417.248 420.874 416.288 418.694 417.207 419.735 423.177 418.093 417.857 420.584 422.415 427.888 439.324 451.585 496.179 502.114 513.206 518.945 523.903 528.772 536.784 546.267 555.886 566.936 578.189 593.663 610.127 631.653 732.198 741.810 754.514 772.753 797.437 811.891 830.676 855.500 886.562 900.340 913.857 936.663 950.105 965.874 981.978 1001.211 1037.602 1059.135
1822.526 1814.704 1805.720 1792.896 1784.264 1775.083 1758.975 1743.789 1732.995 1723.099 1710.686 1700.765 1690.796 1682.760 1672.825 1660.171 1650.264 1639.367 1625.361 1614.676 1606.570 1603.497 1598.491 1592.917 1588.564 1584.014 1579.182 1569.604 1562.478 1556.578 1549.153 1539.215 1530.298 1524.089 1520.230 1518.814 1523.999 1525.619 1526.356 1522.098 1519.475 1516.752 1513.536 1511.815 1511.132 1509.162 1512.122 1523.158 1521.572 1514.184 1507.953 1502.508 1497.126 1496.629 1502.468 1497.286 1494.458 1490.470 1490.402 1496.558 1498.322 1503.911 1505.669 1503.204 1502.668 1504.450 1512.838 1515.913 1516.385 1514.887 1510.610 1518.345 1524.199 1544.030 1561.788 1563.625 1564.506 1570.705 1571.542 1567.360 1567.345 1565.044 1566.821 1568.384 1572.469 1574.551 1575.455 1568.808 1559.654 1548.591 1540.556 1527.083 1514.019 1503.368 1494.518 1484.007 1466.141 1453.096 1440.992 1428.977 1421.295 1419.391 1413.840 1402.897 1391.322 1374.407 1362.473 1352.796 1342.548 1335.135 1331.584 1318.160 1309.044 1302.558 1293.036 1280.775 1272.634 1263.795 1258.242 1248.841 1245.005 1235.640 1227.851 1228.660 1225.691 1222.199 1219.839 1215.345 1210.550 1202.047 1195.977 1191.950 1185.771 1170.599 1160.544 1164.337 1154.519 1151.126 1150.647 1145.182 1140.500 1134.932 1130.874 1123.791 1119.203 1114.789 1107.797 1103.180 1097.489 1094.692 1091.337 1087.078 1082.774 1081.261 1081.735 1079.604 1078.963 1077.698 1075.268 1069.519 1063.932 1063.895 1058.261 1029.469 1032.245 1029.961 1026.305 1012.733 1002.016 990.855 979.806 964.940 951.670 938.586 920.975 900.580 888.586 876.914 867.549 858.954 852.546 836.255 826.557 818.585 812.581 801.408 792.084 784.784 778.231 770.662 764.989 756.570 753.483 743.313 732.276 719.220 710.000 695.760 684.927 677.275 675.219 673.704 672.897 667.614 662.011 656.613 653.835 648.623 638.624 637.473 634.303 630.810 624.024 619.569 616.441 611.224 605.981 601.229 606.471 606.231 606.436 600.636 592.990 583.234 576.107 575.904 574.708 573.023 573.744 573.857 574.174 571.362 569.873 570.419 569.992 569.616 567.399 562.044 552.745 543.677 540.114 538.824 536.318 532.302 523.911 512.437 502.467 498.320 496.575 495.984 492.540 487.338 484.104 483.657 483.592 484.009 483.993 483.527 477.637 474.997 469.126 462.683 460.483 455.743 449.034 446.305 441.136 438.157 434.703 431.225 426.898 422.323 419.939 414.746 408.514 407.227 407.223 406.688 406.136 406.310 403.001 404.845 404.200 403.960 402.744 403.837 404.283 405.006 405.776 406.394 407.133 407.701 408.225 408.732 409.651 410.823 411.623 412.475 413.067 414.674 415.221 410.447 410.095 416.027 415.657 417.809 418.841 420.803 417.816 421.745 422.894 428.128 422.677 419.246 420.870 422.558 426.737 437.755 451.798 489.565 501.138 505.268 515.941 520.824 528.914 537.754 547.834 559.700 570.940 582.988 597.889 611.657 633.626 651.273 746.092 758.652 781.992 797.628 811.665 826.897 846.005 874.711 895.533 906.803 923.478 944.518 962.270 978.196 1010.482 1047.504 1065.927
1819.469 1813.006 1802.389 1790.072 1779.775 1773.746 1762.707 1749.294 1737.871 1726.225 1712.364 1701.210 1692.748 1683.680 1676.340 1667.646 1657.107 1644.814 1630.616 1618.181 1610.956 1601.074 1597.000 1591.833 1587.475 1583.103 1577.453 1570.294 1562.836 1555.344 1547.395 1539.569 1531.830 1525.896 1520.111 1516.542 1520.904 1524.740 1525.182 1522.413 1520.566 1518.194 1513.925 1511.376 1507.861 1513.014 1517.732 1525.134 1525.179 1516.680 1511.607 1506.077 1497.220 1494.071 1497.506 1490.856 1487.898 1483.619 1481.308 1481.585 1492.760 1498.041 1503.814 1502.846 1500.922 1500.451 1507.888 1512.149 1511.173 1512.074 1507.413 1511.174 1516.504 1527.187 1549.108 1559.010 1560.326 1566.417 1565.874 1560.617 1561.839 1560.671 1559.514 1564.068 1566.473 1569.066 1566.394 1555.293 1546.930 1538.097 1534.405 1527.408 1518.043 1506.633 1493.358 1477.253 1459.802 1450.933 1439.989 1427.951 1420.118 1417.262 1412.235 1401.338 1390.904 1371.192 1358.133 1348.908 1337.569 1331.296 1325.353 1311.772 1308.321 1298.888 1287.681 1281.489 1272.390 1267.229 1255.958 1245.451 1244.866 1236.100 1230.136 1226.035 1219.598 1222.901 1220.087 1217.432 1212.016 1203.470 1197.705 1192.367 1183.093 1168.950 1167.067 1163.254 1161.189 1148.771 1147.707 1142.758 1138.473 1133.620 1127.835 1120.883 1116.913 1113.225 1106.229 1101.676 1092.687 1087.017 1081.246 1080.125 1080.017 1075.267 1075.119 1073.811 1075.026 1071.397 1069.414 1062.480 1057.991 1056.104 1050.611 1044.518 1027.202 1023.228 1021.550 1007.419 995.571 985.293 974.574 958.526 945.118 935.529 912.503 891.950 878.162 868.647 859.342 856.227 841.010 826.306 816.537 809.105 804.242 798.073 799.162 786.765 773.514 766.538 759.897 753.006 747.537 735.392 721.814 713.892 706.164 695.642 688.170 682.846 680.452 678.976 674.117 666.719 661.531 659.364 653.675 648.321 642.967 636.645 633.463 631.325 622.552 620.295 618.163 618.148 612.197 604.176 606.227 607.432 607.198 600.122 592.240 584.125 576.825 575.553 575.318 574.881 574.768 574.094 573.183 571.767 571.005 570.418 568.896 567.570 563.412 554.990 546.101 539.475 536.450 533.864 530.069 524.841 515.875 505.156 497.184 496.507 496.975 494.210 492.434 488.701 485.620 483.710 483.959 482.749 481.089 480.142 479.158 474.962 470.667 463.854 461.543 456.493 451.155 444.952 440.217 436.606 432.701 429.218 425.958 421.982 419.217 411.678 408.917 410.083 409.515 408.776 407.467 407.072 403.668 405.354 404.641 404.184 404.023 404.486 404.375 405.304 406.375 406.858 407.264 408.177 408.539 409.381 410.046 411.191 411.976 412.952 414.878 415.119 416.942 411.927 411.453 412.836 417.816 422.222 420.496 419.517 418.066 420.481 424.192 425.536 424.860 420.173 420.388 423.610 428.745 434.689 448.403 483.868 499.402 500.626 504.822 520.796 527.535 535.484 545.650 557.116 569.547 583.621 599.108 615.474 626.024 639.945 735.257 768.481 783.090 796.857 811.439 822.860 837.748 860.225 880.194 894.939 916.993 951.090 964.220 980.697 1023.073 1058.877 1074.389
1815.212 1810.059 1799.364 1787.055 1778.271 1774.431 1770.997 1758.683 1743.310 1728.278 1716.016 1705.220 1695.863 1684.920 1677.099 1669.832 1663.135 1651.132 1631.554 1624.019 1615.204 1602.649 1595.623 1590.292 1584.412 1579.723 1575.589 1570.293 1562.951 1554.995 1546.531 1540.890 1533.837 1525.305 1518.322 1514.931 1517.513 1520.126 1522.773 1521.049 1519.467 1517.900 1515.548 1512.938 1511.701 1517.611 1524.366 1527.323 1523.054 1522.153 1518.253 1512.400 1501.269 1493.593 1488.669 1484.848 1482.458 1477.372 1475.282 1478.343 1487.734 1494.073 1498.973 1500.102 1497.905 1496.888 1499.744 1508.538 1506.418 1509.733 1503.093 1507.948 1511.398 1520.722 1545.036 1554.067 1553.926 1558.964 1559.620 1557.243 1556.016 1549.803 1549.595 1559.110 1558.110 1558.780 1545.182 1538.077 1531.764 1522.406 1521.377 1518.846 1512.426 1504.682 1491.461 1475.700 1461.334 1448.819 1437.573 1428.140 1419.880 1413.793 1406.725 1399.034 1389.019 1368.889 1354.870 1346.437 1334.811 1326.196 1319.301 1306.467 1304.127 1295.912 1285.350 1279.636 1272.135 1267.955 1260.681 1253.568 1241.717 1231.880 1230.473 1221.177 1220.353 1217.765 1212.463 1215.389 1208.010 1199.473 1196.581 1192.191 1185.326 1175.084 1160.487 1157.433 1159.971 1149.138 1146.554 1138.722 1135.602 1130.434 1124.109 1118.268 1109.442 1103.978 1101.730 1095.921 1088.724 1082.919 1076.010 1074.198 1074.556 1070.827 1069.062 1069.059 1069.360 1067.377 1065.152 1057.301 1052.719 1048.938 1045.596 1043.494 1037.239 1023.164 1023.191 1009.092 997.307 985.750 973.522 955.606 938.638 925.867 901.882 887.479 874.982 864.277 858.928 848.239 832.246 819.655 809.178 803.517 797.960 800.966 802.028 800.586 781.244 763.542 753.519 745.287 740.209 729.107 716.422 706.971 698.897 691.344 684.035 683.706 682.131 678.141 675.279 670.021 665.680 660.445 652.839 647.198 640.297 634.264 630.650 626.760 623.429 624.368 614.486 613.740 609.396 603.861 605.855 608.942 609.091 603.798 593.838 583.568 578.152 575.318 574.187 574.662 574.790 574.783 573.796 573.098 573.043 570.570 566.785 563.847 558.502 551.834 546.526 541.730 537.926 534.887 528.167 519.669 513.174 507.214 498.021 497.072 496.252 493.653 491.844 489.634 486.109 483.260 483.697 482.218 480.789 480.105 476.448 474.882 468.440 464.288 461.120 456.825 451.576 443.318 438.112 433.772 429.606 426.641 425.047 421.633 418.404 410.912 409.328 410.605 410.015 409.235 407.552 406.433 406.026 405.978 405.206 405.111 404.071 404.696 405.295 406.176 406.831 407.438 408.079 408.757 409.421 409.674 410.474 411.210 411.707 414.252 413.831 415.387 416.104 417.024 411.930 411.466 413.398 418.665 422.526 419.871 419.568 418.764 423.516 428.643 425.725 420.689 421.198 423.527 428.983 435.553 449.301 462.598 472.881 484.674 513.441 522.378 528.266 534.558 545.097 555.854 569.439 584.097 598.873 613.025 627.529 639.262 651.319 767.805 784.462 798.283 811.634 825.154 838.081 849.963 867.389 890.525 944.010 956.391 966.132 981.226 1032.743 1060.208 1078.872
1811.302 1806.991 1794.314 1783.583 1776.083 1772.331 1774.793 1764.709 1748.368 1733.210 1720.559 1709.690 1698.387 1685.936 1676.841 1672.354 1667.705 1658.000 1642.558 1633.584 1622.145 1610.128 1600.506 1592.987 1584.846 1579.030 1573.218 1566.748 1562.249 1555.937 1549.534 1541.520 1529.764 1521.320 1515.295 1513.278 1515.093 1516.924 1518.176 1518.582 1518.748 1515.517 1515.021 1512.766 1515.271 1522.115 1527.502 1531.886 1528.083 1525.741 1520.409 1512.159 1502.607 1492.030 1485.084 1479.165 1476.749 1470.948 1466.125 1472.035 1481.148 1489.069 1491.743 1497.096 1493.629 1492.257 1493.049 1497.177 1500.100 1503.705 1496.378 1500.966 1505.477 1515.835 1538.122 1548.731 1548.693 1553.041 1551.903 1551.211 1547.819 1542.034 1538.655 1548.957 1547.736 1538.426 1534.606 1525.872 1516.982 1509.196 1502.625 1505.055 1500.790 1496.071 1489.857 1475.549 1460.221 1446.507 1435.655 1426.908 1420.425 1412.554 1399.799 1394.168 1384.860 1367.258 1349.372 1340.754 1329.624 1320.943 1312.392 1303.509 1297.940 1290.402 1281.930 1277.646 1269.899 1264.944 1260.760 1258.574 1250.046 1238.851 1228.556 1226.153 1220.729 1216.022 1215.160 1208.040 1208.041 1195.505 1193.344 1186.194 1176.945 1172.060 1163.251 1153.505 1141.021 1154.014 1147.137 1135.789 1126.609 1124.225 1120.417 1114.343 1107.428 1099.279 1093.067 1088.837 1084.328 1078.551 1071.672 1065.979 1064.992 1064.246 1062.115 1062.601 1062.702 1062.023 1059.801 1051.772 1047.298 1043.494 1040.412 1037.661 1032.584 1028.382 1014.386 1004.966 993.968 983.078 967.195 946.284 930.970 912.954 894.403 881.033 871.642 863.072 858.544 844.629 827.146 813.766 805.119 799.944 797.065 801.682 802.593 806.211 795.134 771.667 752.597 736.855 732.484 723.506 713.183 700.724 696.114 688.092 682.225 682.867 682.481 678.690 674.385 667.277 660.474 655.536 650.136 644.909 639.907 634.774 628.633 627.179 625.659 620.138 610.079 605.464 604.029 601.919 603.285 607.443 606.252 602.790 592.633 582.070 575.579 575.015 572.792 572.594 575.213 575.241 574.631 573.867 571.378 566.198 564.085 562.984 558.955 554.901 550.497 546.506 541.735 537.096 534.825 527.659 516.392 510.416 503.638 499.032 492.988 491.325 491.294 489.035 485.956 482.271 483.014 481.135 480.062 480.172 475.144 473.865 467.392 465.686 462.613 457.615 454.812 445.884 439.840 433.553 429.285 427.047 424.634 422.349 415.107 410.586 409.982 410.846 410.137 408.788 407.550 404.731 406.762 406.017 406.061 405.421 404.934 404.900 405.560 406.367 407.420 407.975 408.406 409.101 409.856 410.889 411.149 411.330 412.318 415.403 414.767 415.310 416.385 417.100 417.739 412.780 413.615 414.916 420.322 420.352 420.343 419.641 421.942 427.596 426.735 422.131 421.944 424.978 429.133 433.644 444.900 456.038 470.332 506.127 518.048 526.478 530.502 537.903 545.670 555.455 566.157 580.272 594.263 607.672 621.033 631.386 643.784 778.437 789.951 799.839 811.608 825.245 839.490 854.627 871.749 916.241 955.570 962.930 973.751 1002.936 1035.091 1053.903 1069.347
1807.851 1800.286 1790.007 1780.379 1773.716 1769.744 1772.617 1770.529 1754.513 1740.252 1726.988 1713.001 1699.398 1687.949 1679.553 1669.747 1666.080 1664.462 1652.775 1640.528 1627.965 1617.602 1606.472 1596.974 1589.329 1579.894 1574.294 1568.581 1562.124 1555.194 1549.032 1538.136 1528.381 1518.296 1514.522 1511.860 1514.770 1517.542 1516.201 1515.618 1518.660 1515.790 1513.261 1510.708 1515.512 1522.583 1531.638 1536.897 1534.294 1525.399 1518.187 1512.565 1504.076 1494.368 1486.123 1477.294 1470.608 1466.063 1464.253 1472.127 1474.223 1480.796 1484.112 1489.490 1490.112 1489.531 1486.948 1487.686 1491.256 1491.931 1489.273 1494.498 1499.656 1508.569 1520.053 1544.167 1543.760 1546.140 1547.058 1546.086 1540.976 1535.197 1530.924 1536.932 1529.646 1525.875 1520.621 1514.955 1508.698 1502.671 1491.230 1488.596 1486.579 1483.581 1478.305 1469.257 1457.124 1443.377 1433.016 1428.744 1421.677 1410.398 1396.354 1387.329 1382.033 1366.495 1348.932 1334.016 1324.137 1317.698 1311.152 1300.800 1295.556 1285.810 1278.363 1273.878 1266.670 1266.148 1260.443 1258.082 1250.823 1245.720 1235.021 1224.331 1221.570 1214.710 1211.835 1209.745 1199.520 1195.466 1190.408 1176.949 1183.608 1172.986 1160.125 1151.905 1140.002 1127.612 1131.127 1135.523 1125.198 1116.759 1113.654 1109.020 1102.087 1096.849 1088.825 1081.825 1076.038 1071.697 1063.870 1060.490 1055.396 1053.678 1053.275 1055.129 1056.069 1056.615 1051.921 1047.547 1041.965 1037.566 1035.608 1030.862 1024.458 1020.709 1009.639 999.925 988.032 976.162 961.266 944.193 926.227 906.535 890.934 877.048 868.435 861.587 854.879 839.718 823.360 812.186 804.954 800.254 796.369 800.140 803.672 798.613 780.920 767.018 747.679 732.634 724.168 716.228 706.658 700.816 695.816 688.716 683.925 684.013 680.365 674.112 668.615 663.992 656.582 648.668 646.021 644.200 642.807 637.544 629.844 624.932 624.163 623.509 613.334 606.979 604.772 603.001 603.322 605.597 603.492 599.831 592.799 582.802 578.782 575.060 571.848 572.455 575.667 575.113 574.106 572.284 570.247 565.808 564.237 561.673 559.700 556.819 553.784 550.756 545.947 536.341 529.919 522.813 515.284 512.607 506.097 499.295 494.867 491.013 491.605 489.167 483.861 480.868 478.447 479.387 478.939 476.810 475.120 472.200 469.662 466.150 459.634 457.372 451.784 447.707 441.660 434.337 430.784 427.693 424.614 422.498 413.806 410.480 411.642 411.192 410.273 408.100 407.812 405.934 407.257 406.402 406.372 405.664 405.648 405.306 405.865 406.538 407.446 408.001 408.758 409.437 410.702 410.981 411.891 412.700 413.532 414.570 416.854 415.783 417.096 417.492 418.198 418.074 414.392 414.333 419.007 421.749 421.282 420.963 423.379 429.307 427.543 423.417 422.754 425.754 431.935 434.960 448.891 452.853 466.590 504.869 516.095 522.032 531.802 537.373 546.454 556.178 566.218 579.345 589.160 600.114 610.317 622.005 631.894 761.748 792.640 802.859 818.515 828.343 840.873 858.216 875.501 929.971 960.950 971.106 981.055 997.714 1021.173 1044.015 1063.203
1807.096 1798.288 1791.014 1780.646 1770.853 1766.074 1767.189 1770.545 1762.636 1750.605 1736.755 1717.797 1704.841 1694.151 1682.139 1670.678 1664.068 1665.064 1658.905 1646.745 1634.634 1622.152 1612.456 1598.828 1590.163 1582.025 1573.931 1565.017 1558.330 1551.500 1542.791 1533.816 1523.632 1516.377 1514.121 1511.951 1511.375 1515.927 1515.339 1514.436 1515.747 1514.245 1511.093 1504.930 1517.078 1525.851 1534.954 1542.509 1535.151 1527.764 1520.842 1512.069 1505.051 1497.354 1486.764 1474.939 1469.095 1464.938 1463.556 1464.948 1468.635 1474.538 1477.991 1484.843 1485.685 1485.225 1480.504 1479.607 1482.678 1483.437 1481.992 1486.149 1492.396 1498.162 1508.696 1534.552 1537.571 1536.627 1540.521 1539.295 1536.640 1525.055 1517.778 1519.452 1518.524 1515.563 1508.298 1502.376 1499.358 1492.653 1485.683 1479.388 1469.741 1466.308 1460.885 1453.562 1447.430 1438.430 1428.637 1426.623 1418.956 1405.854 1391.008 1379.869 1375.300 1364.125 1348.010 1332.638 1320.261 1314.498 1307.754 1299.025 1294.883 1284.729 1278.441 1273.527 1265.210 1260.155 1259.277 1255.517 1250.189 1246.341 1240.487 1231.662 1221.752 1210.244 1205.113 1202.718 1194.151 1184.924 1180.841 1176.385 1171.399 1164.657 1159.776 1148.356 1136.422 1122.132 1109.154 1105.148 1103.499 1113.431 1106.311 1094.586 1094.890 1090.781 1084.608 1075.842 1068.135 1064.250 1058.214 1052.288 1047.571 1046.166 1044.118 1044.141 1046.672 1046.712 1042.920 1041.705 1037.106 1032.172 1027.376 1023.206 1017.522 1012.083 1002.333 992.799 983.815 969.338 953.931 938.503 922.362 905.686 887.423 873.299 866.594 858.208 854.287 835.809 821.764 812.374 805.717 801.521 800.979 800.780 797.155 781.705 771.993 758.645 742.396 728.979 720.909 710.898 703.903 691.770 687.608 686.430 685.698 684.429 679.397 671.698 665.055 660.022 654.700 650.681 645.900 643.365 641.431 635.278 630.140 623.381 622.752 621.202 612.972 608.763 606.593 604.318 603.132 603.358 603.335 598.938 592.248 585.552 580.121 575.348 571.358 570.496 572.551 574.693 574.376 571.613 568.328 563.421 561.907 561.129 559.577 557.157 554.970 551.183 544.816 535.086 527.502 526.900 518.719 513.270 504.281 496.323 492.103 491.235 487.627 486.459 481.911 479.601 479.427 478.872 476.075 471.505 470.129 469.937 469.303 464.612 457.582 454.882 450.418 446.527 441.442 436.310 431.952 427.469 423.860 418.213 411.711 409.148 409.353 409.464 408.276 409.109 405.592 408.027 407.729 406.932 406.625 406.232 405.807 405.717 406.544 407.245 407.749 408.463 409.196 409.616 411.714 411.519 412.372 413.201 414.800 417.989 417.732 416.417 420.623 422.065 421.589 418.943 422.003 417.988 415.452 421.156 422.235 422.672 423.489 427.027 427.227 423.907 427.505 427.660 439.385 445.706 450.971 451.179 462.346 497.539 516.280 524.885 534.793 544.087 553.152 558.863 566.541 574.556 583.358 592.810 604.293 617.191 628.386 766.992 803.421 814.888 824.421 831.153 842.537 859.753 880.972 922.960 939.279 969.198 977.194 997.807 1014.626 1033.850 1054.973
1805.798 1797.288 1788.362 1778.346 1769.538 1763.175 1760.280 1766.332 1757.918 1747.712 1739.042 1727.877 1715.920 1701.400 1688.329 1675.884 1666.156 1659.655 1652.305 1644.487 1639.291 1627.043 1614.309 1602.850 1594.737 1583.718 1574.746 1563.806 1554.312 1547.296 1539.798 1530.973 1522.863 1517.226 1513.866 1511.681 1509.022 1512.710 1513.907 1514.683 1512.241 1511.863 1509.066 1510.121 1517.882 1527.915 1536.846 1543.521 1537.649 1530.037 1522.092 1512.932 1502.841 1496.986 1486.989 1476.828 1467.103 1463.960 1462.760 1461.370 1463.380 1468.451 1474.420 1479.885 1478.246 1475.677 1472.988 1473.364 1473.795 1476.720 1476.165 1479.604 1485.792 1488.773 1499.889 1521.998 1530.276 1528.001 1535.303 1535.034 1529.865 1517.818 1510.343 1506.202 1502.928 1502.253 1499.980 1493.359 1487.159 1484.482 1478.190 1470.329 1464.198 1457.572 1451.460 1443.945 1436.977 1432.107 1425.725 1419.001 1413.204 1399.832 1385.666 1376.091 1368.274 1361.601 1344.653 1327.494 1316.119 1311.880 1304.419 1301.639 1292.141 1284.808 1277.240 1268.025 1259.404 1251.517 1247.284 1243.712 1242.380 1239.407 1235.104 1231.575 1218.988 1207.709 1194.727 1193.079 1189.957 1182.404 1174.620 1167.805 1166.779 1159.022 1149.965 1146.731 1136.407 1120.799 1104.286 1096.681 1092.139 1085.980 1092.532 1089.026 1091.776 1086.307 1081.062 1073.387 1067.565 1059.745 1053.290 1045.927 1043.380 1040.951 1039.672 1038.662 1034.286 1036.688 1038.906 1037.868 1032.740 1026.865 1021.819 1016.691 1010.230 1005.360 996.263 986.876 978.102 964.920 947.358 929.898 914.307 900.256 884.304 872.580 859.718 855.511 845.549 830.361 818.988 810.837 808.223 800.460 802.484 798.832 783.631 772.024 758.344 747.052 737.055 726.324 714.531 710.176 706.042 699.623 693.347 690.487 688.350 688.505 687.160 676.325 663.983 659.622 654.452 650.924 645.495 642.948 639.879 636.129 630.241 621.195 621.085 619.595 613.408 609.837 609.257 606.337 601.816 600.058 601.868 600.947 593.154 588.326 580.413 575.441 570.903 569.152 569.026 572.512 573.110 568.969 564.373 559.178 559.470 560.660 560.143 557.221 554.675 550.032 542.048 533.179 526.173 526.662 525.680 515.503 506.603 497.517 493.258 492.091 485.882 483.089 478.209 477.143 476.366 475.613 474.385 468.126 467.613 467.481 463.128 461.196 456.340 452.884 449.441 445.751 443.177 439.338 434.882 429.658 422.607 414.528 410.831 409.050 408.846 408.989 409.089 406.476 409.044 408.083 407.703 407.124 406.985 406.568 406.031 406.167 407.034 407.850 408.173 409.000 410.210 410.472 411.308 413.466 413.244 416.134 416.431 417.940 420.095 421.648 424.216 425.446 423.803 420.189 424.360 425.548 420.321 416.271 424.199 422.738 423.211 423.976 428.136 432.283 431.913 437.833 447.522 451.080 451.288 451.358 461.115 505.228 521.817 533.759 538.387 548.748 554.741 560.233 565.507 570.815 577.992 588.668 598.323 611.620 625.515 774.386 818.214 827.340 833.908 838.082 845.739 860.739 899.530 919.284 927.930 939.051 951.212 970.209 1005.394 1020.286 1034.221
1803.285 1795.032 1787.304 1779.040 1769.090 1761.209 1754.763 1760.001 1753.764 1743.105 1734.505 1727.926 1721.635 1710.265 1695.977 1680.548 1669.907 1658.390 1649.857 1644.212 1637.050 1627.110 1619.477 1609.316 1598.369 1586.497 1578.783 1567.675 1558.122 1546.442 1537.433 1530.135 1521.622 1515.555 1513.022 1510.797 1507.174 1510.448 1511.668 1512.881 1510.674 1508.167 1506.039 1507.370 1513.783 1525.359 1535.627 1543.076 1539.628 1533.170 1524.154 1514.929 1501.821 1494.625 1488.670 1477.578 1466.893 1463.930 1462.392 1460.481 1460.898 1461.352 1466.625 1469.000 1465.122 1468.288 1467.976 1468.173 1469.951 1470.363 1472.009 1471.805 1476.434 1480.646 1489.116 1513.918 1519.306 1519.908 1526.284 1529.377 1522.613 1512.156 1504.717 1498.995 1495.369 1493.761 1490.097 1485.664 1480.811 1475.328 1472.044 1463.989 1457.173 1450.715 1445.239 1438.631 1431.906 1426.543 1422.558 1414.639 1403.280 1395.340 1381.365 1371.027 1363.963 1356.761 1341.450 1323.635 1314.827 1308.696 1306.412 1301.775 1295.992 1286.814 1276.957 1268.439 1259.253 1251.763 1245.066 1239.971 1234.064 1227.928 1222.019 1219.160 1217.480 1207.917 1198.186 1187.062 1180.819 1177.016 1172.790 1172.336 1160.549 1150.041 1138.309 1135.967 1127.577 1122.462 1116.486 1107.928 1096.032 1086.193 1074.964 1073.022 1076.007 1079.367 1074.099 1067.058 1063.608 1058.254 1049.318 1039.858 1034.992 1034.599 1036.716 1034.178 1033.711 1032.416 1034.674 1032.512 1027.252 1022.294 1017.084 1010.401 1003.819 999.018 992.219 980.691 970.891 956.822 941.897 922.925 909.641 897.663 881.949 869.113 854.150 850.514 843.788 830.303 817.186 810.240 807.558 802.604 803.786 789.228 776.609 765.231 750.058 741.430 730.874 720.275 717.563 713.488 711.036 705.383 697.275 694.161 689.079 688.869 685.416 675.621 665.337 660.168 655.211 651.431 644.651 643.626 640.040 633.316 624.443 620.929 621.672 618.356 610.193 609.130 608.343 604.801 600.324 598.138 600.952 602.034 595.250 591.085 582.091 575.704 572.081 568.658 567.963 568.466 567.871 565.115 560.803 559.470 558.650 558.528 558.709 556.980 554.226 546.827 540.830 535.105 531.352 528.664 523.755 518.660 509.832 501.538 495.594 489.940 486.011 484.899 477.036 473.673 471.086 468.607 468.206 467.841 463.802 460.401 458.942 456.826 453.603 450.924 448.486 445.180 442.535 437.851 435.197 432.263 424.692 416.026 410.041 409.488 409.807 409.992 407.382 410.566 408.498 408.232 407.864 407.493 407.321 406.976 407.507 406.556 407.689 408.342 408.954 409.415 410.540 411.092 412.660 413.966 414.245 416.870 420.135 420.741 421.172 422.318 424.742 425.217 424.650 421.379 421.678 424.018 426.402 419.739 419.554 423.975 425.728 430.468 436.502 440.085 444.295 449.809 450.685 450.844 451.178 451.472 460.130 481.871 523.474 542.207 550.761 554.452 557.695 563.828 574.410 573.849 578.665 589.956 600.457 611.873 626.837 789.411 824.625 838.328 841.284 845.368 852.376 867.254 905.439 912.710 919.628 928.179 938.442 948.263 960.841 1008.280 1023.191
1799.094 1790.048 1782.917 1774.603 1768.562 1760.432 1754.145 1750.511 1748.628 1741.917 1734.412 1725.737 1718.651 1712.988 1700.598 1688.413 1676.279 1663.263 1652.090 1643.429 1638.184 1634.275 1625.997 1611.452 1602.701 1594.932 1586.192 1572.287 1559.890 1547.199 1536.379 1527.271 1523.564 1518.145 1513.162 1509.162 1506.715 1510.075 1510.422 1510.607 1508.838 1504.533 1499.741 1504.787 1509.724 1519.785 1526.927 1536.759 1535.854 1532.270 1526.486 1517.057 1505.476 1492.456 1484.087 1474.622 1469.089 1468.002 1466.314 1461.787 1459.027 1456.984 1460.544 1461.620 1460.801 1463.637 1463.789 1464.851 1467.773 1466.873 1467.972 1466.881 1472.032 1471.780 1480.047 1505.492 1507.285 1510.748 1509.317 1514.878 1515.923 1504.509 1499.440 1496.012 1491.888 1489.527 1487.374 1482.471 1477.740 1471.743 1463.643 1457.007 1452.401 1446.123 1439.590 1434.487 1428.266 1422.727 1420.096 1411.467 1398.834 1389.042 1375.318 1366.597 1360.015 1350.996 1334.512 1322.101 1312.503 1305.039 1299.223 1297.735 1292.772 1285.795 1275.179 1262.635 1255.867 1249.137 1243.475 1236.385 1229.997 1224.230 1218.840 1215.154 1206.170 1200.710 1192.872 1182.959 1175.793 1158.901 1158.361 1157.615 1154.524 1147.745 1139.670 1121.592 1110.453 1110.428 1110.098 1101.833 1090.774 1085.522 1075.755 1067.684 1057.870 1053.592 1063.479 1060.157 1054.314 1052.314 1044.999 1040.934 1035.997 1034.001 1032.390 1031.611 1031.160 1030.953 1029.276 1027.865 1021.673 1016.672 1009.848 1003.595 999.262 994.357 986.488 973.248 962.358 947.307 932.445 918.315 903.555 894.236 878.776 864.735 849.115 845.942 836.018 823.933 813.698 807.859 804.288 805.655 790.474 777.974 767.327 758.317 746.909 734.316 724.799 721.660 716.462 713.400 711.028 705.042 700.045 694.110 691.995 683.955 675.812 673.736 669.228 661.731 655.362 651.296 643.205 642.280 638.308 628.227 619.794 617.530 617.243 613.605 606.500 606.244 605.707 604.784 601.846 598.137 597.577 599.204 597.419 591.789 583.913 575.815 570.078 567.901 566.821 566.436 565.636 560.665 559.332 560.145 558.757 557.254 557.411 556.862 551.094 542.547 539.380 538.478 537.703 535.404 530.398 522.667 512.415 503.498 498.299 495.815 490.424 484.016 477.158 471.809 470.057 468.441 468.130 467.923 463.071 460.402 457.432 455.771 454.584 451.374 448.804 446.487 443.150 439.394 437.279 433.183 426.080 416.795 410.621 410.027 410.338 412.139 410.739 410.220 408.740 408.310 408.289 407.765 407.647 408.044 408.027 406.544 407.217 408.004 409.038 410.164 410.476 411.753 413.241 413.998 415.490 418.222 419.053 420.735 421.889 424.847 424.298 424.444 424.392 423.551 423.307 423.081 424.777 425.589 421.614 426.389 427.714 436.883 441.261 447.718 449.628 449.720 450.186 450.540 451.342 455.511 466.604 468.305 514.907 537.184 549.942 561.615 564.202 567.385 575.985 578.342 583.145 591.419 602.987 614.174 627.667 645.512 824.926 837.326 846.426 853.386 861.545 872.190 891.279 910.714 916.836 923.134 930.249 939.204 951.265 963.968 1005.401
1803.266 1793.208 1783.951 1775.399 1767.993 1760.692 1753.514 1747.077 1742.016 1739.047 1736.764 1731.621 1723.157 1714.043 1704.535 1692.490 1681.544 1668.257 1657.282 1646.280 1638.413 1631.948 1629.916 1621.337 1612.878 1602.729 1591.603 1576.403 1563.041 1551.181 1539.294 1529.087 1523.689 1518.238 1512.235 1508.334 1503.533 1508.146 1508.781 1508.798 1506.712 1501.913 1498.120 1504.044 1506.996 1511.998 1523.029 1534.620 1533.471 1528.163 1522.677 1516.848 1508.295 1501.041 1489.331 1484.580 1477.819 1473.143 1466.841 1460.986 1457.057 1451.202 1454.961 1455.964 1459.310 1459.746 1461.179 1462.307 1466.204 1462.937 1461.278 1464.079 1468.273 1466.687 1471.873 1496.074 1497.992 1502.571 1499.323 1503.050 1505.626 1499.888 1494.600 1491.698 1489.449 1486.896 1485.755 1478.882 1471.307 1465.672 1457.483 1451.563 1447.982 1439.007 1432.400 1430.988 1427.362 1420.886 1418.295 1408.909 1395.380 1383.845 1374.248 1363.212 1357.067 1349.942 1333.619 1319.766 1310.605 1301.526 1297.185 1295.694 1293.453 1281.403 1272.270 1262.192 1252.269 1244.581 1242.904 1234.808 1226.984 1218.330 1213.992 1210.178 1199.961 1186.863 1181.397 1172.778 1166.619 1156.378 1141.539 1135.717 1140.520 1136.876 1132.741 1123.233 1116.040 1099.185 1093.353 1092.618 1082.168 1074.538 1069.344 1061.588 1057.475 1050.560 1048.108 1046.829 1045.262 1044.630 1041.564 1037.042 1032.889 1031.109 1030.021 1028.858 1028.154 1027.427 1026.007 1023.531 1020.065 1016.183 1007.815 1000.630 996.264 988.556 978.624 967.236 954.516 939.631 926.605 911.834 899.507 890.214 874.056 860.674 846.975 840.402 829.049 819.113 811.265 801.112 806.597 795.079 784.974 771.824 762.558 755.822 744.770 737.461 727.413 721.062 717.937 713.893 706.840 705.748 701.408 696.588 690.750 686.500 680.776 675.815 665.215 662.354 659.679 649.853 645.746 641.525 634.345 622.611 617.548 614.699 611.010 605.637 599.552 602.029 601.510 602.214 600.961 598.353 595.738 597.769 594.817 590.245 576.048 574.307 569.565 566.802 565.056 564.756 564.879 562.502 560.357 558.589 558.071 557.905 560.146 550.706 544.261 540.986 535.269 537.224 539.266 540.324 532.259 524.208 512.432 503.045 501.234 498.805 493.125 486.932 479.174 474.607 471.259 469.421 468.485 466.067 465.330 460.378 456.985 454.648 454.506 452.038 449.781 448.333 444.917 441.527 438.385 432.786 424.106 415.624 411.000 411.206 411.247 408.519 412.492 409.794 409.253 408.966 408.795 408.533 408.729 408.500 408.593 407.406 407.172 407.867 409.157 410.390 411.402 412.495 413.674 415.081 415.898 417.418 419.276 420.608 421.237 422.482 423.092 423.618 424.074 424.046 424.457 425.796 428.994 430.690 422.834 426.006 431.514 440.455 446.912 448.581 449.865 450.064 450.361 450.858 451.000 456.343 467.102 470.279 480.553 529.889 546.276 560.443 570.307 573.542 580.122 583.273 592.774 603.439 607.712 616.929 632.045 654.157 833.645 842.022 852.105 859.298 866.255 875.466 887.853 907.392 915.027 920.266 925.753 933.858 945.004 958.630 970.493
1806.241 1793.763 1783.877 1774.786 1766.945 1759.499 1752.876 1746.896 1741.252 1736.956 1735.069 1731.742 1725.784 1718.334 1709.292 1699.083 1688.313 1675.151 1662.668 1651.746 1639.656 1634.474 1631.375 1627.995 1620.366 1609.755 1592.793 1579.633 1564.053 1556.164 1543.969 1529.618 1523.224 1517.682 1510.167 1505.790 1502.319 1505.926 1505.947 1505.766 1502.770 1498.277 1497.818 1502.521 1504.016 1508.431 1520.912 1531.604 1528.338 1522.361 1517.403 1512.366 1509.250 1502.085 1493.967 1486.040 1478.819 1472.401 1465.899 1460.764 1454.391 1450.201 1451.530 1452.401 1455.817 1455.736 1458.634 1457.912 1459.787 1459.708 1459.447 1463.225 1464.914 1461.290 1462.801 1474.846 1488.573 1494.690 1491.889 1485.505 1497.574 1495.353 1487.263 1485.262 1483.683 1480.560 1479.203 1470.764 1462.454 1455.773 1450.317 1445.286 1440.183 1433.632 1427.897 1428.450 1424.577 1421.028 1413.977 1403.681 1391.462 1381.568 1371.952 1361.401 1353.023 1346.333 1330.264 1317.897 1307.544 1299.800 1295.227 1287.965 1287.342 1280.177 1269.399 1260.167 1252.017 1244.728 1237.130 1231.716 1224.423 1213.836 1206.071 1198.893 1188.826 1178.616 1165.531 1161.817 1152.891 1147.438 1135.344 1125.583 1116.641 1113.449 1116.304 1109.005 1101.595 1099.995 1095.844 1083.849 1076.360 1065.289 1061.406 1055.309 1050.216 1044.256 1037.361 1034.738 1032.303 1030.395 1033.240 1031.390 1029.117 1026.239 1025.848 1026.456 1025.406 1024.745 1020.428 1019.902 1017.418 1009.915 1001.574 996.694 990.322 983.306 971.872 960.177 946.982 930.925 919.366 905.715 894.014 884.486 868.188 856.918 846.755 836.042 824.499 815.784 806.139 797.383 799.069 790.565 784.339 770.281 756.904 751.975 744.394 733.753 725.800 722.037 715.740 711.516 706.735 701.902 702.121 698.104 691.261 686.613 685.301 680.594 669.796 663.583 660.930 655.151 651.169 645.330 632.367 622.534 616.715 609.086 606.591 601.927 599.649 599.669 599.139 598.640 598.109 594.639 592.312 594.712 593.211 584.971 574.909 573.157 569.908 566.705 565.529 564.083 564.137 560.738 556.518 555.136 556.132 558.299 555.678 550.773 543.093 539.585 535.471 535.530 534.341 533.288 529.845 520.189 512.966 505.670 501.562 499.538 491.659 486.797 480.945 477.539 472.554 469.413 469.157 466.013 465.605 460.329 457.196 453.846 452.919 451.479 450.529 449.091 446.685 443.146 439.093 433.312 422.599 414.452 412.033 412.011 412.886 409.660 410.851 410.585 409.938 409.712 409.319 408.981 409.327 409.421 409.275 408.461 408.957 409.163 409.909 410.618 417.818 421.513 414.880 415.543 420.611 419.129 421.139 420.731 421.041 421.714 422.708 423.889 424.301 425.133 426.610 429.295 430.877 434.887 428.172 424.641 428.474 437.252 444.512 449.764 450.107 450.225 450.488 450.796 454.660 463.254 467.865 474.990 483.755 497.615 549.908 562.211 567.099 579.211 579.429 586.151 595.885 605.039 615.226 625.542 636.920 662.521 745.079 819.910 856.918 864.339 871.393 879.547 887.279 896.401 905.479 914.604 923.513 934.137 943.399 952.521 968.029
1806.081 1795.374 1785.655 1775.173 1765.744 1758.026 1751.489 1745.156 1739.188 1735.521 1731.342 1728.277 1721.564 1714.698 1706.999 1700.954 1692.426 1680.692 1664.987 1650.737 1644.111 1636.465 1629.313 1626.924 1626.091 1614.391 1596.482 1583.340 1571.714 1561.370 1547.286 1533.888 1524.706 1517.370 1508.899 1504.758 1501.668 1500.028 1503.027 1501.727 1499.047 1496.323 1494.990 1498.353 1500.562 1503.543 1514.390 1525.953 1522.343 1519.408 1517.459 1512.077 1505.123 1497.223 1489.837 1482.470 1475.849 1469.867 1464.603 1459.226 1451.146 1449.913 1447.348 1449.745 1447.564 1451.660 1454.770 1452.951 1452.840 1456.245 1463.726 1467.398 1461.756 1458.030 1456.687 1474.275 1482.411 1485.611 1481.829 1477.202 1485.000 1486.979 1482.241 1478.700 1477.441 1476.892 1473.416 1462.766 1452.097 1448.630 1442.815 1439.272 1434.064 1426.971 1422.224 1424.355 1423.102 1419.361 1409.931 1398.719 1387.666 1377.149 1373.789 1361.458 1350.640 1339.898 1324.758 1315.087 1305.069 1297.172 1291.472 1281.669 1266.419 1276.510 1266.995 1253.018 1247.067 1240.519 1235.761 1226.338 1218.848 1209.215 1198.689 1190.262 1177.463 1164.953 1156.449 1149.370 1142.114 1131.458 1128.127 1116.585 1105.443 1099.869 1099.140 1092.070 1083.262 1081.758 1080.733 1078.280 1064.347 1053.597 1044.727 1037.436 1043.536 1040.395 1033.167 1029.450 1025.058 1022.016 1018.779 1017.621 1021.438 1023.546 1026.022 1021.973 1019.166 1015.408 1014.469 1012.239 1010.114 999.393 996.960 992.160 985.835 977.713 967.368 955.200 940.788 925.799 913.440 900.304 890.998 882.638 864.928 854.222 841.160 828.675 817.529 808.074 798.512 798.884 794.205 787.224 776.289 764.717 755.930 749.920 739.392 729.271 724.576 718.946 714.677 710.906 704.506 701.072 701.324 698.553 694.789 688.796 685.021 685.355 674.002 663.597 654.987 661.560 657.564 644.251 635.570 624.881 616.522 610.249 607.691 606.344 604.516 604.002 602.846 600.047 598.048 595.455 590.477 587.580 587.883 579.618 574.464 575.044 570.689 567.778 565.344 565.395 561.236 554.287 553.173 551.908 552.786 551.383 552.168 545.285 539.735 539.678 535.561 533.401 531.905 526.567 520.468 516.158 510.922 506.242 502.909 496.788 489.184 485.701 484.564 480.324 472.430 468.848 469.174 468.716 464.800 459.763 457.019 453.648 453.370 453.444 452.047 449.468 446.886 442.762 438.211 431.737 422.737 415.922 412.937 412.454 413.805 413.191 410.891 410.641 410.523 410.246 409.847 409.579 410.199 409.938 409.930 409.895 410.251 410.918 410.871 425.455 429.519 440.553 427.951 419.521 419.237 421.821 422.423 422.926 423.546 424.857 426.584 425.373 426.253 426.677 427.418 432.261 431.421 432.298 432.724 426.278 428.987 432.909 442.544 448.677 448.724 449.800 449.594 452.089 460.009 466.185 474.175 476.869 485.107 500.422 539.625 553.191 564.126 574.187 585.603 592.345 596.925 609.034 618.585 631.524 644.338 656.099 672.344 752.536 806.463 866.454 874.929 882.881 889.966 895.786 904.181 911.671 923.571 930.948 941.529 951.135 962.472
1813.298 1801.134 1788.919 1780.052 1769.761 1758.961 1751.995 1742.573 1736.680 1733.394 1730.352 1724.438 1715.705 1710.550 1701.707 1697.315 1692.616 1680.858 1673.725 1662.305 1650.034 1639.264 1630.920 1622.768 1619.767 1617.215 1602.003 1587.392 1575.685 1561.885 1550.039 1537.918 1526.277 1517.369 1509.453 1502.449 1500.889 1498.777 1498.135 1497.760 1496.322 1495.493 1494.716 1495.126 1497.075 1499.439 1510.205 1521.962 1523.121 1518.788 1512.903 1507.060 1500.097 1492.769 1485.947 1478.706 1472.788 1467.558 1462.322 1455.521 1448.914 1446.791 1445.967 1444.865 1443.505 1447.501 1449.088 1449.289 1449.197 1456.295 1467.306 1464.595 1459.157 1453.592 1451.682 1461.660 1474.844 1475.572 1477.197 1471.876 1471.670 1474.454 1475.473 1473.510 1472.767 1471.446 1461.695 1452.573 1445.522 1441.298 1436.783 1431.831 1428.766 1420.034 1415.827 1417.619 1418.430 1413.951 1403.370 1393.034 1382.950 1373.412 1366.749 1360.449 1348.413 1338.770 1325.993 1312.961 1300.996 1291.191 1286.415 1279.087 1266.532 1255.763 1245.450 1251.619 1244.724 1238.927 1232.503 1225.374 1216.115 1205.708 1193.723 1179.486 1170.908 1157.672 1146.256 1138.348 1131.550 1122.000 1118.694 1109.920 1096.648 1092.876 1090.929 1084.851 1076.188 1063.857 1059.712 1061.407 1053.943 1045.750 1039.265 1028.621 1020.796 1027.170 1027.244 1026.312 1019.519 1015.498 1014.593 1013.646 1017.053 1017.241 1018.887 1014.252 1005.904 996.630 989.443 977.777 995.368 992.149 989.141 985.217 976.658 970.418 963.440 953.303 938.324 922.135 907.674 893.667 885.851 876.400 859.834 847.658 836.043 823.515 812.301 801.194 792.693 794.245 791.527 777.484 770.031 760.504 755.860 745.653 732.130 727.019 720.917 719.044 717.971 710.286 704.906 700.812 698.942 697.131 699.087 694.175 686.241 684.497 678.358 663.484 664.475 663.738 651.522 644.786 633.238 620.932 616.471 614.398 612.719 611.884 609.335 604.343 604.679 602.411 599.967 594.273 590.955 586.742 582.929 576.905 575.014 577.098 570.735 569.408 567.191 565.872 562.451 553.418 549.435 548.208 543.245 542.873 542.960 540.179 536.082 536.355 531.903 525.925 522.900 523.224 521.685 517.997 512.807 506.485 505.350 496.707 490.079 485.040 485.497 482.462 475.356 469.524 468.733 468.466 467.655 462.193 457.522 455.353 454.626 454.597 451.508 447.868 444.858 440.483 436.605 427.689 420.390 415.425 413.622 412.949 410.469 413.685 412.244 412.260 411.259 410.642 410.433 410.611 410.419 410.509 410.673 410.664 411.036 411.866 414.731 424.347 428.945 440.597 437.648 429.246 423.779 422.925 426.521 426.984 426.396 428.273 429.535 429.169 429.048 429.700 432.677 432.915 433.315 433.686 434.128 433.563 427.250 429.999 437.403 448.010 448.330 448.552 451.900 458.278 461.493 465.712 473.585 478.562 489.020 501.177 534.026 541.607 550.620 567.427 579.101 591.837 595.638 607.844 621.074 633.602 648.571 663.791 675.650 694.393 752.504 791.061 871.668 883.790 890.835 898.465 905.758 911.725 919.241 926.429 934.846 945.728 955.640
1815.934 1806.247 1794.427 1784.230 1771.831 1760.598 1754.046 1743.919 1736.977 1731.536 1726.742 1721.783 1714.994 1709.157 1705.219 1700.841 1695.588 1689.958 1682.343 1669.309 1655.916 1643.634 1633.821 1624.284 1615.344 1611.227 1605.091 1590.059 1574.730 1562.523 1552.810 1541.086 1527.376 1518.686 1508.424 1505.017 1500.844 1498.944 1497.969 1496.110 1495.816 1495.365 1494.686 1494.425 1494.140 1496.544 1507.527 1520.663 1518.319 1512.831 1507.040 1501.013 1494.282 1487.682 1480.773 1475.208 1469.404 1463.899 1455.827 1450.254 1447.330 1445.896 1443.903 1440.430 1441.536 1441.098 1439.030 1441.543 1447.983 1453.522 1460.667 1463.283 1457.031 1448.902 1447.003 1455.959 1470.697 1468.668 1472.083 1468.703 1459.760 1462.386 1466.771 1468.666 1469.031 1463.253 1454.415 1446.205 1437.302 1434.866 1430.688 1424.931 1422.594 1415.406 1408.971 1404.782 1402.816 1399.263 1395.319 1387.047 1378.800 1369.961 1361.421 1354.447 1342.161 1332.520 1326.350 1310.145 1297.596 1290.450 1285.685 1272.337 1263.957 1255.657 1243.474 1225.784 1238.925 1239.468 1233.607 1223.970 1215.091 1203.182 1192.800 1175.903 1159.102 1149.781 1140.821 1129.122 1122.801 1113.669 1106.038 1100.988 1098.411 1091.728 1091.282 1093.418 1095.668 1092.825 1085.172 1070.370 1067.095 1060.221 1059.773 1035.452 1024.253 1012.737 1003.038 1009.700 1012.429 1011.732 1010.147 1014.968 1010.996 1013.196 1007.917 1010.829 1005.095 1016.432 1014.758 971.768 962.130 960.143 956.914 973.808 970.060 965.553 959.023 947.282 934.114 915.654 902.175 889.491 878.580 866.477 851.914 843.194 829.754 820.276 805.604 793.512 788.607 788.172 785.006 770.753 764.197 754.204 744.927 737.035 732.020 726.467 722.969 720.155 719.251 710.167 706.524 702.911 700.808 704.235 697.628 690.948 685.673 685.874 680.910 669.135 667.459 664.673 655.077 642.208 630.708 622.741 619.352 616.229 613.566 612.763 611.352 606.490 603.648 601.938 600.320 596.229 593.187 588.089 584.084 578.316 578.794 574.065 569.351 567.239 565.773 566.216 559.133 549.680 548.956 548.651 544.550 541.131 542.542 540.818 533.964 529.943 522.346 516.801 515.823 519.054 517.782 516.027 511.145 508.183 506.074 494.998 490.071 485.903 486.101 482.930 480.055 470.723 469.250 468.668 467.936 463.221 459.278 457.706 454.435 453.298 451.375 446.855 442.577 439.772 435.809 427.373 420.327 414.760 413.980 415.381 410.987 412.233 412.237 412.245 411.311 411.350 410.911 411.026 410.865 410.966 410.942 411.180 412.593 414.539 418.188 425.259 429.118 436.701 435.500 434.742 434.001 428.265 428.363 429.714 430.982 432.323 433.632 434.128 434.808 434.068 437.250 444.065 445.708 437.943 434.989 433.890 433.214 429.335 431.147 445.176 448.419 448.825 454.319 458.005 463.218 466.727 473.932 484.630 494.470 505.616 518.146 531.500 544.933 561.703 577.038 586.150 597.172 608.110 623.425 634.005 649.460 664.587 680.432 696.198 710.745 781.641 863.410 878.301 885.909 894.017 900.282 906.970 912.400 920.746 929.623 938.929 947.174
1823.856 1811.289 1801.566 1789.802 1777.608 1768.300 1758.367 1748.368 1740.432 1733.943 1726.666 1718.391 1711.716 1707.067 1703.018 1699.132 1694.804 1687.626 1677.736 1666.951 1657.972 1645.079 1632.074 1626.469 1616.713 1606.976 1597.572 1586.253 1573.053 1565.356 1554.195 1539.985 1529.060 1517.990 1512.270 1507.326 1503.667 1501.422 1499.542 1498.149 1496.059 1495.255 1494.630 1493.799 1493.935 1495.072 1504.402 1518.084 1513.144 1507.566 1501.113 1495.651 1489.562 1482.371 1476.536 1471.065 1465.124 1460.095 1455.215 1449.925 1447.194 1448.717 1449.963 1443.798 1438.277 1438.221 1437.513 1437.000 1445.006 1450.953 1456.943 1461.944 1453.937 1446.958 1442.514 1451.446 1467.575 1464.046 1465.575 1461.891 1454.311 1453.289 1456.230 1456.864 1458.026 1455.422 1446.297 1437.170 1430.914 1426.886 1422.923 1418.755 1415.890 1409.628 1404.455 1394.906 1390.467 1385.913 1383.277 1378.917 1369.869 1363.077 1356.257 1348.253 1337.125 1331.842 1325.192 1309.553 1297.001 1286.069 1281.707 1278.036 1264.569 1257.557 1243.284 1229.287 1222.051 1211.448 1230.708 1220.696 1212.214 1203.144 1189.715 1176.318 1158.940 1143.433 1130.051 1119.393 1114.053 1107.754 1099.209 1094.141 1089.792 1087.764 1090.017 1084.218 1083.944 1071.369 1074.048 1077.462 1074.213 1073.903 1072.972 1068.559 1042.678 1041.653 999.668 1001.525 1010.104 1009.119 1012.139 1013.670 1012.606 1006.752 1004.286 1008.246 1013.332 1012.255 1009.567 1002.241 997.713 990.454 982.374 973.835 965.825 962.396 954.059 943.629 930.050 912.729 898.767 887.680 872.797 859.308 847.240 837.765 822.709 811.265 800.533 790.523 788.534 786.378 780.959 769.041 757.856 745.896 740.750 736.378 732.741 724.741 724.221 719.616 718.950 710.439 707.920 708.089 706.382 699.138 695.658 687.783 686.119 679.224 672.150 667.116 668.333 661.820 651.558 637.067 627.851 623.265 619.909 616.939 614.113 611.944 610.675 607.001 604.974 601.079 594.556 590.708 587.239 584.410 581.363 579.022 577.551 572.820 569.742 565.433 562.941 560.102 554.964 550.365 546.787 543.623 543.247 540.759 541.084 538.906 533.568 529.613 522.978 513.291 509.766 510.062 509.078 507.485 507.001 507.261 501.572 492.843 487.839 487.079 484.928 481.754 477.249 470.711 468.024 466.859 467.089 460.883 458.906 457.408 453.840 451.711 448.989 443.309 438.855 437.517 434.660 427.790 417.679 414.899 414.630 411.756 413.970 412.206 412.276 413.317 412.280 411.927 411.848 411.841 411.530 411.732 411.163 411.257 412.494 417.433 418.902 423.376 425.137 429.565 434.175 438.915 438.896 436.758 431.548 435.299 436.455 439.568 439.813 439.747 440.696 451.471 446.476 448.465 448.284 445.772 437.764 437.038 433.177 433.409 431.428 435.368 448.722 451.406 455.508 461.732 465.981 469.686 480.218 489.548 498.303 507.768 518.914 529.965 544.747 557.763 571.706 588.689 597.602 611.258 623.956 637.636 650.104 664.741 678.756 694.438 709.106 731.758 855.896 871.822 878.755 885.519 889.449 898.522 904.454 912.697 921.664 931.953 938.554
1838.269 1822.428 1808.511 1801.120 1788.333 1777.931 1763.530 1755.435 1744.905 1736.073 1726.949 1719.082 1712.156 1706.486 1699.717 1696.615 1693.376 1685.264 1675.155 1665.207 1657.943 1650.480 1642.905 1633.592 1620.441 1610.829 1600.301 1591.286 1575.291 1559.987 1551.015 1542.426 1531.554 1523.602 1517.398 1510.862 1504.840 1501.329 1499.669 1498.853 1496.701 1495.008 1494.360 1493.682 1493.968 1494.476 1500.794 1512.727 1506.520 1501.212 1494.296 1488.327 1482.427 1476.370 1471.061 1465.568 1461.436 1458.525 1454.113 1448.987 1447.523 1450.727 1449.837 1445.521 1440.400 1437.023 1436.939 1435.633 1435.451 1444.216 1453.779 1458.780 1451.281 1445.312 1439.040 1446.857 1463.518 1458.435 1457.797 1457.811 1452.118 1446.383 1445.931 1445.112 1447.744 1447.609 1441.622 1432.715 1423.710 1419.733 1414.889 1411.993 1408.039 1404.004 1398.903 1389.041 1380.899 1376.019 1374.053 1368.015 1359.669 1355.188 1349.848 1339.113 1333.240 1324.584 1319.733 1304.796 1292.823 1279.638 1278.381 1271.240 1264.617 1255.158 1244.702 1227.509 1216.211 1206.047 1206.404 1199.234 1202.508 1188.400 1179.881 1170.211 1152.369 1142.269 1127.140 1112.553 1105.597 1100.386 1092.531 1087.202 1082.807 1079.556 1079.256 1068.968 1066.937 1068.373 1065.148 1056.913 1065.104 1062.974 1059.089 1058.906 1058.101 1049.470 1039.572 1011.380 1008.072 1011.371 1011.915 1012.584 1013.117 1017.674 1008.983 1001.347 997.724 993.332 1000.794 996.061 989.507 984.085 975.473 969.420 965.266 956.656 946.665 938.080 927.523 914.422 901.899 882.582 870.963 854.356 840.214 826.294 811.854 804.893 797.650 791.794 788.236 783.941 777.613 767.188 754.951 746.909 737.823 731.330 730.956 728.186 724.579 721.776 717.540 714.061 712.944 708.815 706.187 698.344 694.646 688.491 683.505 675.402 668.470 669.588 665.011 654.748 642.383 638.075 632.799 626.275 621.456 617.638 615.252 612.816 609.005 606.613 603.256 600.299 595.287 591.883 588.718 584.922 582.928 579.655 577.716 574.457 572.100 567.625 561.617 558.023 553.610 549.405 545.845 542.716 542.023 540.067 538.577 538.168 534.593 531.103 526.919 513.928 507.585 508.242 505.470 504.489 501.679 500.365 496.952 490.724 489.095 487.921 483.082 478.911 474.737 468.805 467.968 466.205 466.203 462.003 458.312 458.281 453.990 451.260 446.744 444.085 441.101 434.881 434.164 426.810 416.276 415.449 412.987 416.681 414.439 414.244 413.675 413.466 413.400 412.928 412.716 412.145 411.601 411.807 411.636 411.701 413.294 417.148 423.434 426.166 428.573 431.112 435.334 439.848 442.826 442.485 439.091 441.693 444.655 451.111 450.733 447.347 449.844 460.168 462.826 455.590 452.402 445.629 444.482 440.308 441.773 439.714 444.530 435.518 449.491 451.589 456.443 462.898 468.869 473.973 481.887 490.535 499.264 510.738 520.225 528.883 540.207 553.141 566.605 583.578 603.741 611.433 624.970 637.227 649.236 664.496 676.686 690.438 705.637 829.131 851.513 861.935 869.239 874.742 880.078 886.669 895.476 902.557 913.216 920.709 930.225
1848.650 1837.007 1822.069 1808.747 1797.509 1782.883 1770.779 1758.100 1747.189 1737.679 1727.519 1718.770 1712.275 1704.721 1700.725 1697.112 1692.829 1682.020 1672.124 1663.748 1658.236 1653.034 1646.893 1633.898 1620.056 1608.705 1595.769 1584.315 1574.327 1566.776 1556.593 1545.127 1538.420 1529.927 1521.621 1513.938 1505.841 1501.993 1499.790 1498.971 1497.450 1494.472 1493.728 1493.385 1493.813 1494.310 1497.735 1502.271 1499.731 1494.128 1487.513 1482.900 1477.503 1474.319 1470.786 1469.579 1465.642 1462.332 1458.130 1453.313 1449.439 1446.500 1448.554 1444.413 1439.795 1436.855 1433.598 1435.972 1429.997 1438.787 1445.475 1454.859 1449.924 1441.994 1435.765 1440.725 1456.637 1454.577 1450.211 1452.227 1448.103 1439.739 1438.001 1436.416 1439.591 1442.439 1436.165 1427.461 1417.292 1412.437 1408.283 1405.316 1403.206 1398.659 1393.767 1382.181 1374.086 1369.843 1367.194 1361.981 1354.514 1350.396 1345.301 1336.162 1321.083 1317.243 1315.248 1300.574 1288.934 1272.336 1264.284 1264.719 1257.750 1252.131 1240.293 1232.283 1217.939 1206.961 1197.769 1188.133 1176.447 1180.738 1167.553 1151.919 1137.997 1127.951 1118.450 1107.371 1095.755 1090.091 1075.803 1068.696 1064.294 1064.218 1069.682 1060.473 1059.932 1058.593 1057.155 1055.797 1055.761 1056.220 1053.038 1049.335 1043.778 1038.862 1033.073 1029.081 1022.025 1012.145 1016.434 1012.968 1008.182 1002.550 996.096 993.232 992.689 986.804 982.922 979.482 983.507 977.918 972.569 967.827 958.845 952.014 943.260 932.607 921.865 910.417 893.727 879.394 864.786 847.574 833.386 820.457 809.712 801.755 796.472 792.532 788.558 784.543 777.202 769.099 761.008 750.155 740.424 735.691 732.980 728.979 725.589 720.939 716.022 713.919 711.626 710.457 705.206 700.397 693.882 687.532 680.345 672.080 664.497 663.258 657.109 648.304 641.617 639.350 635.762 627.814 622.786 617.031 616.068 611.785 607.277 607.349 603.176 598.373 594.307 591.327 589.748 585.823 583.611 580.493 578.028 576.151 573.918 567.923 563.306 560.418 553.489 550.316 548.977 544.734 542.160 540.047 538.561 538.868 538.037 537.088 528.600 516.745 506.870 504.713 503.178 499.836 499.518 498.997 492.063 491.048 490.163 488.530 485.899 478.273 474.927 468.569 467.448 465.875 463.740 462.125 457.286 456.378 453.092 449.955 447.612 443.185 437.292 435.070 432.508 424.086 417.185 416.740 417.148 415.241 415.207 414.310 414.126 414.664 413.964 413.383 413.256 412.435 412.020 411.722 412.002 412.472 416.276 425.160 427.574 430.062 431.699 434.125 438.002 441.194 446.819 451.622 451.849 455.887 457.943 464.432 461.551 458.866 464.714 466.956 469.486 462.986 459.771 457.896 452.670 449.963 447.731 447.166 445.612 435.999 448.398 453.869 459.719 464.971 473.313 479.047 485.043 492.725 501.948 511.245 520.470 529.810 538.742 549.512 561.020 587.250 601.750 618.057 628.505 639.515 652.009 662.851 675.294 689.606 716.377 825.126 843.377 852.918 861.955 866.662 870.942 876.565 883.891 892.588 902.254 912.204 922.695
1851.096 1840.453 1829.988 1817.838 1804.488 1791.007 1778.845 1765.254 1754.568 1746.318 1736.952 1727.750 1718.896 1710.304 1702.694 1697.015 1690.510 1681.701 1673.066 1663.820 1657.972 1652.249 1644.857 1632.448 1621.599 1607.677 1599.582 1592.739 1583.802 1572.280 1558.921 1552.156 1543.467 1535.792 1527.865 1517.480 1509.483 1502.997 1500.222 1498.842 1496.818 1494.655 1493.679 1493.390 1493.402 1494.078 1495.797 1500.407 1493.320 1488.814 1487.612 1486.003 1482.206 1476.023 1473.189 1476.340 1473.978 1467.797 1462.052 1454.771 1448.624 1446.280 1447.669 1444.173 1440.230 1437.858 1433.402 1433.059 1427.539 1431.528 1437.717 1444.612 1445.457 1442.899 1434.494 1431.771 1440.156 1444.950 1445.677 1439.617 1437.736 1432.236 1429.979 1429.761 1429.482 1429.280 1426.321 1420.841 1409.082 1403.767 1403.484 1398.530 1395.587 1391.412 1386.903 1374.495 1369.220 1363.838 1360.808 1355.282 1348.479 1343.187 1337.141 1325.333 1312.907 1307.705 1307.469 1293.760 1278.344 1264.652 1257.506 1258.996 1254.393 1248.136 1239.276 1228.868 1222.439 1210.014 1195.458 1185.022 1169.036 1159.190 1150.571 1143.908 1133.551 1119.639 1106.315 1099.931 1086.907 1076.911 1069.874 1068.427 1071.780 1064.631 1061.586 1053.461 1051.690 1048.745 1049.584 1046.358 1044.894 1045.805 1043.920 1041.711 1036.388 1028.573 1015.261 1019.718 1014.849 1013.179 1011.371 1006.850 1000.033 993.836 988.927 986.092 981.782 979.843 972.786 963.302 961.760 963.016 964.445 960.165 953.786 945.290 935.854 927.393 914.470 903.234 887.146 874.324 859.729 843.083 831.344 819.114 807.274 799.597 794.021 788.689 788.781 784.600 779.916 772.594 762.510 755.275 743.176 734.573 729.252 727.916 726.448 722.519 718.760 715.968 711.159 702.931 702.785 696.711 692.726 684.057 674.710 664.903 659.352 655.892 651.725 650.259 647.102 642.968 638.041 628.803 624.810 619.525 614.689 608.871 605.909 604.212 600.695 598.070 593.259 590.790 589.935 586.136 584.486 579.079 576.610 574.017 573.240 568.133 565.730 561.713 558.112 550.645 549.750 545.376 542.617 540.673 539.391 539.488 538.675 535.069 528.337 518.886 504.790 502.247 499.923 497.940 494.468 493.202 493.333 491.809 490.789 488.731 486.372 482.033 477.799 471.249 467.852 465.490 463.800 460.725 458.183 455.299 453.734 449.579 445.683 441.890 439.861 436.587 426.855 420.548 417.590 418.251 416.633 415.822 415.277 414.494 416.135 415.131 414.417 413.603 412.974 412.693 412.782 413.108 413.109 420.587 432.100 434.395 434.961 434.822 436.948 438.397 442.719 443.553 452.318 455.160 464.977 468.996 467.099 467.754 472.096 469.658 471.718 472.874 474.782 473.899 466.653 460.226 457.493 461.293 463.888 459.562 455.116 438.621 453.564 462.015 467.796 470.834 478.369 484.438 491.326 496.050 503.236 513.775 523.602 531.339 537.622 546.151 559.299 600.696 609.505 619.790 640.811 645.147 657.622 663.816 676.220 691.131 722.169 790.343 824.733 841.073 852.557 860.667 866.772 874.263 881.033 887.958 896.395 906.508 919.303
1846.541 1836.269 1827.561 1818.751 1810.788 1798.247 1784.826 1774.573 1764.962 1756.505 1746.575 1735.203 1725.833 1715.927 1707.640 1697.991 1690.302 1680.654 1671.621 1661.930 1656.483 1650.976 1645.350 1633.878 1627.368 1619.269 1609.152 1599.049 1588.897 1576.080 1566.376 1559.714 1552.312 1542.765 1532.292 1522.937 1513.805 1506.889 1502.136 1498.829 1497.078 1496.523 1493.566 1493.187 1493.827 1492.743 1495.072 1496.880 1493.782 1491.221 1490.097 1483.473 1477.562 1475.626 1475.656 1479.504 1476.284 1471.198 1462.760 1454.462 1448.236 1445.510 1441.589 1442.116 1438.372 1431.299 1433.776 1428.552 1427.590 1428.335 1431.855 1432.940 1436.180 1438.338 1430.993 1429.388 1431.441 1447.013 1443.213 1433.377 1428.926 1423.728 1421.381 1426.903 1424.051 1423.187 1417.910 1414.420 1403.605 1397.121 1394.773 1387.535 1383.721 1382.415 1378.354 1367.845 1361.828 1357.763 1356.081 1350.188 1344.488 1335.975 1326.374 1319.383 1307.597 1299.602 1297.387 1286.505 1272.156 1257.222 1251.224 1243.240 1238.772 1237.122 1229.307 1224.243 1217.075 1207.920 1193.392 1181.609 1168.747 1153.348 1142.122 1129.545 1123.183 1112.060 1097.296 1095.495 1080.955 1064.496 1049.691 1042.633 1051.643 1059.258 1053.393 1040.584 1041.192 1039.804 1042.815 1038.475 1035.670 1035.430 1035.162 1032.484 1026.711 1020.335 1013.372 1009.141 1008.623 1008.951 1007.705 1000.430 996.923 993.981 989.586 983.370 977.017 977.585 966.779 954.879 941.215 939.431 928.705 931.323 945.617 939.437 929.269 923.388 909.901 901.162 885.820 871.800 855.706 837.301 827.823 816.046 802.073 794.775 792.508 789.586 787.435 780.833 776.402 772.076 767.918 758.138 747.593 739.039 728.334 729.947 726.882 723.788 718.641 718.852 711.782 702.934 698.410 693.935 686.830 681.213 672.071 664.336 655.817 653.322 651.578 648.959 648.196 646.624 639.043 630.623 624.245 617.889 615.745 609.568 607.272 602.540 598.420 597.542 593.817 591.386 588.511 585.279 581.550 578.646 574.990 571.618 570.601 570.025 568.828 564.832 557.960 552.810 548.311 545.407 543.031 541.791 540.053 538.998 537.140 531.860 525.995 516.223 505.584 501.803 498.940 494.488 493.667 493.199 491.728 491.480 490.407 485.859 484.172 481.275 478.206 470.845 468.712 465.647 464.100 461.235 458.761 457.093 452.581 449.497 445.589 443.545 440.501 433.223 423.781 418.917 415.165 417.436 416.954 416.329 415.645 415.737 415.964 415.222 414.783 414.305 413.291 413.503 414.773 415.055 415.747 422.372 432.364 437.930 440.084 440.140 441.026 442.588 445.875 448.637 454.629 457.892 466.836 475.433 470.209 474.006 478.094 479.066 476.488 478.484 481.459 482.008 475.000 465.907 462.309 467.497 470.188 476.329 461.744 441.058 440.131 470.657 477.756 481.009 485.068 493.094 500.281 505.215 508.088 515.178 526.798 535.013 539.940 548.987 558.852 599.550 615.380 622.793 634.827 648.220 660.360 667.215 677.674 694.503 729.509 785.728 802.843 818.418 833.505 846.425 855.608 866.441 873.419 879.085 888.931 905.164 919.084
1842.153 1831.987 1823.329 1816.354 1811.229 1797.268 1787.844 1781.840 1776.948 1768.789 1759.243 1747.110 1735.487 1724.280 1714.599 1705.478 1695.697 1684.338 1673.727 1665.334 1657.410 1650.560 1648.505 1644.192 1640.885 1636.424 1622.400 1607.812 1593.585 1584.013 1575.448 1568.193 1556.757 1545.861 1536.283 1524.741 1518.175 1511.712 1503.183 1499.508 1498.174 1496.570 1496.179 1493.872 1494.248 1493.371 1493.418 1492.655 1491.939 1490.711 1484.972 1482.822 1481.178 1479.605 1474.008 1473.266 1472.312 1470.108 1463.964 1456.489 1449.465 1445.284 1437.533 1436.108 1426.950 1424.917 1429.958 1429.516 1426.110 1416.558 1419.498 1419.526 1422.838 1428.461 1428.517 1428.323 1423.569 1432.456 1435.538 1427.940 1419.967 1416.828 1414.111 1420.108 1417.603 1413.750 1411.850 1404.295 1394.772 1389.269 1386.356 1381.082 1377.608 1374.538 1370.022 1360.626 1354.053 1351.458 1350.157 1343.460 1337.341 1328.812 1317.882 1310.708 1302.907 1291.495 1288.115 1275.119 1266.853 1250.173 1242.961 1237.398 1227.325 1224.398 1217.385 1212.615 1207.909 1199.313 1188.815 1173.394 1162.913 1151.492 1134.958 1128.729 1121.607 1113.126 1109.334 1109.232 1106.123 1103.102 1097.783 1079.792 1044.011 1042.752 1034.010 1027.453 1024.869 1030.487 1035.532 1032.569 1028.946 1028.300 1026.627 1023.485 1019.578 1013.490 1007.598 1005.396 1004.949 1008.432 1010.413 1001.698 998.863 999.646 991.212 985.129 975.240 964.303 963.594 962.746 962.939 955.463 950.700 942.843 935.398 914.347 910.325 915.404 909.647 895.148 884.160 872.587 854.544 840.126 824.638 815.884 807.715 794.447 794.399 790.371 785.663 780.697 775.395 773.063 767.219 761.424 755.249 744.797 736.464 733.175 731.646 729.200 720.117 713.378 705.926 699.642 690.475 687.784 679.319 671.448 665.781 655.715 653.115 654.923 652.544 652.238 649.529 647.787 640.209 632.554 626.182 617.461 612.526 607.503 605.599 602.043 600.279 597.561 594.358 591.331 587.541 585.004 578.800 576.146 573.672 570.640 567.775 568.995 569.602 566.825 558.156 553.081 549.005 544.744 542.990 541.816 539.956 539.004 534.647 527.865 522.474 517.834 509.470 505.035 501.848 498.158 494.626 492.903 490.384 489.406 485.345 484.113 483.464 481.047 475.436 472.740 469.057 466.317 464.535 461.443 458.221 456.443 453.976 449.631 446.136 443.398 439.589 431.195 421.524 417.752 420.029 418.051 417.359 416.922 417.325 417.544 415.884 414.658 413.843 414.182 413.699 413.971 416.439 418.149 419.492 426.115 433.290 443.691 446.440 450.290 448.801 447.552 450.196 452.456 458.169 461.008 466.587 478.574 475.920 477.126 482.452 486.453 486.738 483.777 486.050 488.678 481.458 470.462 470.917 487.135 501.876 508.900 482.126 466.670 440.895 475.221 512.983 523.426 529.248 527.786 527.481 526.734 522.374 521.661 528.583 538.471 546.006 553.144 565.916 581.786 608.865 623.370 639.124 650.220 665.665 673.281 679.026 694.389 750.798 782.219 791.748 799.324 805.922 821.142 835.852 849.087 856.633 870.724 886.898 907.676 919.038
1832.556 1824.697 1815.544 1810.105 1801.721 1790.069 1780.200 1780.048 1777.552 1769.941 1760.125 1751.420 1742.980 1733.244 1723.497 1712.553 1702.378 1692.067 1682.128 1672.167 1662.547 1656.112 1655.398 1651.921 1651.602 1646.669 1633.026 1621.753 1604.946 1592.585 1584.407 1575.237 1563.808 1552.302 1541.602 1534.351 1525.580 1517.347 1507.039 1503.218 1499.924 1498.103 1497.464 1495.634 1494.702 1493.592 1493.374 1493.484 1490.537 1486.895 1486.469 1486.669 1483.647 1476.823 1471.269 1467.363 1467.162 1462.328 1457.608 1452.150 1443.458 1436.399 1430.007 1422.258 1417.874 1415.854 1415.579 1418.880 1420.555 1419.254 1416.104 1413.544 1419.620 1428.962 1429.494 1422.443 1416.719 1418.103 1428.827 1422.049 1413.715 1412.019 1408.034 1414.566 1411.261 1410.675 1405.614 1399.194 1388.805 1382.490 1378.493 1374.488 1371.828 1368.422 1363.861 1356.028 1348.794 1345.758 1342.358 1336.210 1329.440 1320.407 1308.265 1298.339 1289.792 1278.715 1267.960 1264.173 1262.727 1248.879 1239.114 1231.565 1225.644 1216.030 1210.770 1207.154 1202.480 1190.283 1178.584 1165.022 1154.536 1144.108 1137.542 1130.615 1123.351 1106.263 1096.964 1097.500 1093.291 1088.155 1085.553 1084.697 1084.043 1077.480 1070.681 1065.035 1049.180 1037.615 1036.271 1031.914 1026.973 1023.073 1020.028 1017.514 1014.086 1008.231 1003.772 1004.189 1002.569 1004.538 1003.915 1002.626 997.780 992.403 987.189 981.890 978.548 972.242 967.355 935.138 948.581 946.073 943.950 939.550 932.567 925.439 916.338 908.706 904.719 897.464 884.789 870.375 855.255 838.350 825.583 815.196 805.356 794.708 789.562 787.507 783.676 780.507 776.617 772.511 765.441 763.650 756.679 746.016 744.464 741.322 737.410 732.266 718.696 707.153 701.734 694.385 687.550 684.498 679.493 672.248 663.543 659.524 656.161 655.299 653.999 651.854 649.472 646.247 641.782 631.828 629.072 622.515 614.641 606.676 604.866 603.255 598.245 594.533 592.162 589.159 588.031 583.228 578.381 572.554 569.470 568.179 566.885 565.900 565.271 561.571 555.155 550.724 547.786 544.319 542.106 540.092 538.818 536.086 531.636 526.008 522.469 518.589 516.008 509.216 503.719 498.496 494.444 493.505 490.448 487.128 483.658 482.238 480.930 478.733 474.694 470.280 468.496 466.672 465.060 463.664 461.134 457.336 451.372 448.245 446.570 443.544 436.870 429.726 420.958 416.624 420.947 424.497 423.483 422.956 422.230 419.747 415.584 414.259 414.346 414.055 414.030 415.169 419.362 422.444 425.653 438.035 445.750 456.013 457.748 459.147 463.903 458.042 455.269 456.336 460.643 470.235 476.344 482.738 479.762 479.273 488.594 491.577 494.100 492.463 491.409 493.214 485.913 478.687 482.950 505.208 517.548 520.877 524.255 515.331 496.902 521.051 523.479 528.297 529.121 530.526 532.448 527.107 528.453 528.757 532.875 539.546 549.825 554.788 565.251 594.475 629.620 634.313 643.738 655.144 667.306 680.622 684.283 708.178 756.479 769.791 782.636 790.021 797.409 805.771 811.852 828.484 845.289 858.850 876.988 904.208 915.924
1821.461 1816.554 1808.691 1802.568 1793.643 1784.864 1775.497 1768.792 1770.999 1764.931 1755.741 1747.079 1738.206 1730.907 1722.782 1715.164 1705.680 1696.713 1686.475 1677.627 1667.362 1666.971 1664.112 1660.307 1662.266 1660.180 1644.035 1625.527 1611.111 1601.184 1591.339 1584.403 1570.083 1558.269 1549.116 1541.599 1530.415 1523.177 1512.346 1506.850 1501.972 1499.321 1498.971 1497.845 1496.562 1496.766 1496.461 1494.360 1496.976 1494.801 1492.041 1487.067 1481.130 1478.497 1472.787 1467.706 1465.254 1459.149 1453.446 1448.558 1444.057 1436.342 1425.966 1421.104 1417.660 1413.703 1413.739 1413.852 1414.193 1414.596 1418.250 1413.237 1416.818 1419.875 1424.249 1419.843 1411.225 1407.412 1407.879 1410.371 1403.619 1404.625 1403.183 1409.448 1406.572 1404.762 1400.960 1393.752 1382.606 1376.011 1370.895 1368.718 1364.217 1360.470 1356.750 1349.902 1343.915 1340.449 1335.992 1329.866 1317.873 1307.201 1294.652 1285.474 1275.890 1268.683 1253.527 1252.058 1257.621 1248.369 1238.052 1229.580 1219.924 1219.699 1213.910 1208.427 1199.828 1184.934 1169.131 1155.572 1145.834 1142.936 1142.127 1127.527 1115.514 1098.144 1087.946 1086.276 1080.799 1078.130 1065.769 1061.101 1065.174 1059.808 1053.037 1052.372 1050.269 1036.860 1026.044 1023.486 1021.458 1020.538 1015.314 1012.075 1008.804 1005.469 1003.761 1002.597 999.652 996.975 999.512 995.540 988.672 985.182 981.161 977.054 972.279 968.416 964.773 956.703 950.143 940.543 928.452 919.278 921.809 923.202 913.613 906.445 898.529 891.107 885.772 870.715 855.934 839.221 826.249 811.571 800.458 793.570 788.262 783.372 779.490 775.341 769.773 769.228 766.379 762.332 757.673 750.754 746.570 743.512 740.372 738.179 723.298 712.733 708.189 698.905 690.990 682.410 675.220 670.129 664.238 658.895 655.247 651.741 650.442 650.623 649.866 645.513 642.528 634.666 630.923 621.905 617.310 612.201 607.930 604.136 598.940 593.632 590.331 588.018 585.913 581.013 576.086 569.449 567.488 565.578 564.345 563.662 562.252 560.325 552.237 550.083 549.473 545.358 540.321 538.210 537.304 535.521 532.341 528.368 523.586 519.165 517.324 513.241 505.275 499.246 495.969 495.077 489.681 487.374 484.113 481.555 479.336 475.971 471.518 469.940 468.084 466.962 466.984 464.433 459.717 456.115 449.977 446.828 444.211 439.529 434.547 425.753 418.042 420.635 432.285 434.266 431.848 430.527 427.919 423.937 418.914 415.798 413.760 413.727 415.757 418.016 422.493 426.855 432.556 448.319 456.227 460.925 461.757 462.699 468.871 470.395 465.561 462.003 467.263 476.795 485.215 496.746 486.317 493.007 495.123 496.846 500.010 501.360 499.007 498.656 494.454 485.571 486.063 505.014 514.535 519.835 524.254 523.903 499.107 524.473 530.816 535.518 538.000 540.544 535.664 536.987 541.364 536.845 533.905 540.504 549.771 559.508 563.490 613.820 634.467 642.573 649.047 661.020 672.413 685.716 696.022 718.123 757.176 766.566 778.913 787.141 790.769 796.199 805.103 814.819 827.703 846.830 872.757 894.887 909.489
1812.363 1808.318 1801.756 1796.896 1787.771 1778.709 1770.494 1760.859 1764.348 1760.541 1750.668 1740.798 1731.711 1724.218 1715.874 1708.362 1702.158 1695.542 1688.163 1681.016 1680.525 1678.415 1674.572 1671.371 1671.420 1667.770 1661.440 1636.263 1620.685 1610.087 1601.196 1588.989 1577.984 1565.124 1557.012 1545.923 1534.289 1527.351 1516.978 1508.961 1503.073 1501.235 1500.605 1499.677 1500.903 1504.963 1499.955 1496.208 1497.814 1498.425 1494.364 1488.316 1480.624 1475.179 1473.288 1467.123 1462.411 1457.494 1451.484 1446.223 1441.582 1434.232 1427.252 1421.312 1415.748 1412.576 1412.702 1411.819 1410.639 1409.449 1413.364 1413.672 1411.134 1411.404 1412.395 1411.980 1406.690 1398.831 1395.126 1400.605 1393.468 1397.576 1396.128 1400.531 1401.378 1400.523 1393.709 1388.290 1379.861 1369.600 1365.892 1361.966 1355.458 1354.034 1350.150 1342.846 1335.829 1333.345 1328.073 1317.238 1304.035 1287.437 1278.865 1269.104 1263.038 1257.570 1240.009 1237.697 1248.877 1245.811 1235.312 1225.297 1220.674 1214.411 1211.632 1200.885 1196.454 1185.222 1171.742 1158.901 1144.026 1133.587 1134.649 1119.084 1102.579 1090.304 1085.730 1079.869 1075.944 1073.105 1070.376 1066.987 1065.562 1055.380 1047.478 1037.568 1031.983 1038.666 1024.282 1012.811 1014.890 1016.263 1012.049 1009.514 1007.285 1007.038 1003.938 1002.851 997.425 992.547 990.874 988.382 982.871 980.546 974.466 971.184 967.529 961.393 957.090 952.404 946.469 941.348 937.449 932.640 919.432 907.833 909.514 900.820 891.361 886.572 882.127 872.712 864.230 846.989 831.270 813.629 804.468 794.481 790.433 784.503 779.715 771.233 769.084 765.559 766.946 763.178 756.994 750.644 746.130 743.643 739.774 733.721 727.048 719.922 711.568 701.459 694.021 688.000 681.037 673.550 668.806 663.437 658.986 653.963 652.943 651.803 651.131 649.115 650.953 650.749 634.449 624.190 618.994 613.328 611.097 608.232 597.401 593.875 592.099 592.453 584.788 581.896 577.304 572.610 568.157 565.704 563.577 560.695 556.580 552.655 550.229 548.547 544.932 543.448 540.628 537.865 537.997 536.104 533.015 530.480 524.352 518.019 517.308 515.697 509.568 501.764 496.172 496.577 491.482 487.466 484.380 482.599 481.187 477.110 472.988 469.501 469.182 469.944 466.643 464.140 460.198 455.336 449.836 444.254 436.984 429.534 425.184 418.773 421.325 425.081 439.178 443.771 442.524 440.097 434.712 430.392 426.992 424.915 417.358 414.308 416.083 420.133 424.554 430.826 435.424 449.926 461.494 464.715 465.736 467.663 472.362 474.823 472.399 468.650 475.901 487.404 502.841 505.333 496.879 499.478 499.092 502.224 501.313 507.557 507.609 503.431 504.713 495.021 493.700 499.379 513.216 520.568 523.696 525.548 444.333 518.831 530.703 538.680 540.682 540.247 543.403 541.672 545.015 546.840 543.880 545.922 551.935 561.281 570.401 626.777 641.392 650.483 652.770 659.874 668.751 681.813 697.879 723.619 749.564 763.174 776.377 787.693 794.154 796.597 800.153 809.194 822.215 837.263 863.827 881.505 899.957
1805.433 1795.910 1793.657 1788.176 1780.153 1768.528 1760.878 1754.251 1751.081 1747.832 1741.984 1733.875 1726.854 1719.668 1712.367 1705.384 1699.661 1692.080 1689.453 1691.542 1690.108 1687.470 1685.430 1682.638 1678.995 1673.947 1666.068 1664.694 1661.997 1650.472 1613.767 1598.808 1585.778 1574.078 1562.499 1548.890 1540.349 1530.394 1523.712 1511.611 1504.042 1503.022 1501.897 1500.940 1504.737 1504.663 1503.617 1500.807 1501.324 1498.551 1494.527 1491.130 1484.995 1478.730 1472.613 1467.179 1461.193 1455.764 1449.831 1444.376 1436.558 1429.757 1426.499 1419.557 1414.380 1411.067 1410.734 1411.467 1409.161 1406.343 1407.104 1405.928 1407.673 1406.911 1402.341 1399.404 1399.677 1391.736 1380.816 1389.014 1383.951 1388.986 1386.259 1393.310 1394.493 1393.256 1388.928 1383.744 1373.378 1363.108 1356.021 1353.231 1347.389 1345.749 1343.263 1333.837 1326.283 1326.978 1322.757 1307.073 1287.337 1274.905 1263.560 1252.242 1249.603 1245.214 1226.980 1221.934 1234.980 1232.016 1228.146 1218.821 1212.562 1210.554 1207.414 1202.361 1185.639 1177.113 1173.227 1160.343 1145.188 1136.077 1128.594 1112.841 1097.717 1083.941 1077.692 1072.106 1067.133 1061.998 1063.498 1058.436 1056.106 1048.349 1042.655 1039.070 1034.088 1027.791 1023.629 1020.845 1016.407 1004.316 999.815 1007.166 1003.163 1003.892 1000.571 997.982 993.660 986.980 984.787 982.857 979.939 973.569 969.362 966.257 961.002 959.006 951.949 944.511 941.783 936.917 933.229 929.965 925.736 916.123 903.544 896.517 889.669 884.379 881.782 876.462 863.971 857.549 846.789 834.253 822.064 803.545 799.757 790.975 783.336 773.628 766.507 763.920 761.281 759.345 758.121 754.888 749.222 740.818 733.238 729.236 734.099 725.025 721.762 714.796 711.429 708.173 701.147 697.233 688.983 687.993 679.233 667.737 661.821 662.447 661.140 657.637 660.899 659.911 649.703 631.553 620.036 616.007 610.951 610.240 600.459 594.570 592.113 592.595 590.934 587.325 581.113 574.602 571.242 567.600 561.885 557.124 554.433 552.610 550.038 547.022 543.755 543.414 542.778 537.981 535.627 532.418 532.890 532.424 519.802 516.922 516.559 515.179 509.788 500.570 498.971 495.506 492.111 486.885 484.414 484.255 482.502 477.152 474.839 473.977 472.437 467.229 466.120 464.042 458.145 451.319 445.512 439.550 431.367 423.088 420.523 423.201 426.343 434.831 447.703 453.318 450.421 446.485 443.331 440.525 437.771 434.556 425.581 419.312 420.455 424.572 429.284 433.708 438.862 448.198 458.931 464.926 468.731 472.436 476.072 478.093 478.435 479.029 480.299 488.054 504.696 505.797 500.496 504.425 501.812 505.490 507.022 511.714 513.060 512.491 512.300 508.822 505.359 504.980 512.221 517.801 526.560 530.869 446.922 447.498 528.229 540.882 541.138 545.034 546.517 549.500 548.224 550.749 550.847 552.175 554.032 566.016 576.113 636.713 651.122 661.302 666.187 664.422 663.257 674.015 688.358 726.717 739.731 761.403 769.317 780.196 787.411 793.209 801.688 810.038 819.010 834.495 855.251 869.822 884.571
1798.281 1791.652 1783.193 1779.144 1771.181 1760.494 1752.916 1745.570 1740.667 1738.134 1734.974 1729.605 1723.739 1717.236 1710.141 1702.878 1696.904 1696.981 1698.237 1699.910 1698.609 1697.698 1694.319 1688.559 1678.703 1676.991 1676.976 1676.381 1674.677 1656.637 1627.782 1609.384 1592.489 1578.277 1565.682 1554.174 1546.912 1536.035 1525.446 1517.200 1511.272 1504.366 1503.421 1502.295 1504.098 1507.050 1508.052 1505.894 1502.922 1497.573 1493.750 1488.860 1483.859 1477.877 1472.085 1465.917 1460.389 1454.504 1449.032 1441.989 1435.674 1428.544 1422.699 1418.419 1413.334 1409.095 1406.268 1411.450 1408.260 1401.044 1402.377 1402.499 1403.237 1403.947 1396.836 1388.176 1389.289 1380.171 1366.948 1376.903 1371.215 1379.021 1378.205 1381.869 1383.377 1384.043 1382.439 1378.960 1367.970 1352.473 1343.078 1336.320 1335.138 1336.177 1331.936 1321.287 1311.696 1312.874 1310.971 1288.729 1267.760 1259.664 1251.263 1236.598 1226.183 1228.483 1215.838 1208.268 1220.030 1217.517 1215.652 1208.528 1204.193 1203.222 1202.745 1191.010 1178.338 1164.976 1151.071 1137.204 1139.614 1124.225 1123.312 1106.526 1096.546 1081.864 1069.346 1064.149 1061.193 1059.206 1057.741 1054.930 1051.836 1040.691 1030.525 1029.272 1028.588 1022.237 1017.578 1011.037 1012.853 1010.213 1010.289 1006.348 996.940 998.438 995.355 992.865 989.116 983.320 980.848 978.903 974.825 968.510 963.251 959.946 956.712 954.224 947.433 940.297 936.627 932.475 929.950 926.424 921.916 916.887 907.453 896.328 887.568 884.902 881.902 880.698 874.280 863.911 850.042 843.723 841.432 831.220 823.751 813.835 796.728 781.006 778.792 767.667 762.870 759.513 756.077 754.098 753.218 746.147 736.232 742.292 749.375 740.656 732.640 729.630 723.529 722.206 719.101 707.775 707.675 705.414 695.573 687.753 680.777 676.185 670.402 666.755 664.895 660.102 656.133 640.781 629.691 620.489 619.837 614.049 605.158 602.144 596.920 591.650 590.632 587.520 583.302 578.629 569.928 564.815 562.770 558.094 551.932 550.996 548.784 546.810 544.024 540.637 538.335 533.696 531.535 531.032 528.373 524.681 519.692 515.849 514.203 511.620 506.863 502.774 497.764 493.841 491.469 487.505 487.906 484.866 482.406 478.331 476.916 474.611 473.598 467.291 464.885 462.051 453.525 446.960 442.309 435.336 425.903 421.917 429.019 430.828 433.902 441.258 453.453 457.150 457.339 454.911 452.964 451.967 448.062 442.762 433.510 428.771 429.509 433.225 435.690 438.339 444.895 452.299 461.292 468.328 471.954 475.669 479.009 482.281 483.436 483.414 485.014 495.833 505.669 507.946 504.507 505.139 504.717 504.293 507.303 513.979 516.875 519.026 520.995 521.135 522.907 520.507 523.350 522.187 528.808 533.940 528.317 448.983 456.586 528.075 544.590 550.458 551.815 555.215 558.981 562.217 564.122 565.920 561.406 573.099 612.091 647.292 659.532 664.403 671.417 671.157 664.699 668.062 677.763 700.550 724.585 736.744 761.780 771.002 781.934 792.039 800.098 808.243 814.055 826.495 850.582 861.112 875.589
1789.929 1784.267 1777.241 1771.507 1764.576 1752.296 1746.701 1738.546 1735.373 1734.621 1732.605 1728.085 1722.176 1714.990 1707.215 1701.682 1701.727 1704.357 1706.316 1706.496 1703.917 1697.768 1691.188 1687.524 1686.330 1685.899 1686.455 1685.432 1679.155 1653.357 1636.715 1644.737 1650.149 1588.734 1574.616 1565.299 1554.200 1541.128 1532.480 1525.392 1517.540 1509.844 1506.635 1504.230 1503.841 1507.033 1505.690 1504.453 1500.221 1496.812 1492.443 1487.516 1482.405 1476.513 1470.847 1464.906 1459.097 1453.322 1446.945 1438.717 1433.509 1425.611 1417.920 1413.383 1409.911 1407.864 1407.333 1403.515 1400.356 1396.984 1399.109 1398.576 1398.763 1394.476 1390.293 1380.117 1371.483 1367.690 1354.880 1349.074 1350.309 1366.958 1368.485 1356.831 1370.040 1367.937 1361.848 1361.218 1345.827 1338.904 1327.117 1325.681 1321.382 1319.187 1311.479 1303.315 1299.391 1299.111 1294.972 1283.637 1259.252 1244.474 1235.734 1224.485 1210.890 1209.231 1201.441 1193.615 1201.747 1203.999 1200.375 1197.911 1191.241 1192.252 1186.801 1177.226 1162.536 1152.732 1138.661 1123.472 1112.888 1104.589 1101.853 1094.882 1089.704 1068.952 1059.903 1053.813 1053.132 1051.732 1050.081 1046.823 1042.461 1035.618 1029.205 1024.960 1020.091 1015.659 1012.907 1010.345 1008.104 1006.894 1005.351 1002.463 995.976 993.557 994.289 989.483 984.615 980.663 979.053 974.694 970.454 965.978 961.987 957.175 953.998 951.234 944.141 938.645 934.186 930.434 925.963 924.063 919.619 913.402 906.358 897.481 889.982 883.908 880.810 881.708 874.261 865.037 859.651 852.510 853.337 845.263 837.924 827.847 811.713 798.292 788.761 780.392 770.481 768.430 764.129 762.640 759.045 758.679 759.072 765.448 761.288 750.144 745.811 744.725 738.744 737.283 730.658 724.393 721.949 709.710 703.138 690.839 685.219 679.930 676.569 671.012 665.491 661.475 658.100 652.744 647.206 642.372 632.932 618.322 608.963 604.640 598.726 593.026 588.874 585.221 581.668 574.958 569.208 560.225 553.137 546.649 547.063 545.514 541.837 540.586 538.904 537.969 532.726 529.943 528.356 525.883 523.866 520.746 516.676 512.860 509.598 507.522 505.520 501.334 495.556 492.581 489.322 485.249 484.877 481.995 480.859 481.369 478.571 474.366 470.952 466.788 462.876 454.862 448.356 445.027 441.606 433.969 423.152 432.001 437.576 438.306 442.340 446.012 454.103 459.221 462.028 463.556 463.849 463.333 457.901 451.990 444.913 441.334 444.809 447.521 450.311 455.515 460.176 463.703 472.801 482.056 483.160 483.511 483.573 486.886 489.115 489.293 494.239 506.375 509.568 508.769 507.015 506.239 507.030 507.624 509.053 511.608 518.823 525.851 530.092 528.468 529.989 532.873 537.119 537.983 537.022 536.500 531.322 476.445 449.885 510.616 543.814 547.438 553.082 556.683 561.464 565.161 571.143 572.094 573.279 611.548 617.197 622.364 657.410 673.094 676.698 674.529 667.891 670.295 674.737 689.365 700.739 723.719 734.792 759.119 771.126 782.928 792.386 801.334 810.033 825.567 842.553 854.364 867.742
1786.514 1778.365 1772.121 1766.695 1759.401 1751.277 1740.511 1735.065 1731.859 1731.786 1731.960 1726.393 1718.411 1712.336 1705.284 1705.744 1708.029 1710.744 1708.451 1703.147 1703.322 1701.870 1698.263 1693.837 1693.680 1694.842 1697.111 1694.072 1685.449 1675.056 1664.881 1659.460 1649.410 1601.217 1585.119 1572.721 1558.131 1548.972 1539.914 1532.818 1523.555 1517.300 1511.608 1506.985 1504.417 1507.214 1503.418 1501.207 1500.214 1495.780 1489.548 1486.634 1482.602 1477.089 1470.723 1464.678 1459.101 1452.981 1444.797 1433.745 1428.116 1420.647 1417.357 1412.646 1409.557 1408.260 1406.923 1403.229 1400.497 1395.233 1394.440 1392.218 1388.324 1375.076 1361.484 1347.310 1356.066 1354.584 1341.330 1330.265 1329.799 1358.730 1354.039 1339.029 1333.138 1343.680 1343.214 1336.128 1329.708 1323.689 1317.457 1311.086 1308.777 1305.039 1294.007 1283.810 1276.834 1285.260 1279.589 1265.901 1244.707 1232.431 1224.879 1212.026 1200.111 1190.752 1185.771 1180.756 1184.580 1188.266 1185.657 1181.778 1175.896 1175.514 1168.443 1152.080 1141.923 1137.612 1127.588 1114.482 1103.557 1092.527 1089.828 1082.436 1074.146 1061.147 1054.533 1050.051 1042.013 1039.481 1046.711 1043.015 1035.056 1026.659 1026.301 1022.701 1020.520 1013.271 1008.525 1005.686 1001.072 1001.816 997.639 997.942 991.689 989.382 987.590 983.747 979.580 977.182 976.598 973.538 968.340 963.395 958.986 953.133 951.715 949.148 941.889 934.900 931.570 930.274 926.457 922.797 917.490 912.858 908.276 904.092 896.001 885.460 881.129 880.296 870.299 863.040 858.793 855.385 853.578 849.549 842.885 833.416 825.786 819.260 805.709 790.024 787.382 782.955 777.274 779.694 779.798 777.903 776.230 774.185 770.381 762.960 762.328 756.717 752.001 750.345 743.877 737.238 721.687 707.771 697.788 690.201 685.777 680.241 677.102 671.664 666.545 663.405 660.245 654.307 645.073 638.669 628.647 621.525 615.450 609.079 602.925 593.523 589.316 584.733 580.485 577.290 568.164 555.557 549.404 542.396 541.821 536.997 533.904 534.319 532.928 532.175 526.153 524.002 522.983 523.026 520.227 516.400 512.569 511.056 507.877 506.612 504.655 497.603 493.373 490.427 486.173 484.982 484.626 482.122 482.833 481.917 478.783 472.918 467.336 461.278 458.944 452.881 450.987 446.959 439.393 430.744 423.518 430.443 443.480 444.870 448.049 450.241 455.528 458.199 462.082 464.895 472.502 473.980 468.970 462.653 459.007 454.839 457.790 460.207 462.650 464.862 473.756 478.445 484.566 494.779 497.083 496.392 492.354 492.024 494.745 495.927 502.746 508.285 510.821 511.700 510.252 509.355 508.936 511.308 512.324 513.149 514.838 525.480 533.517 540.281 540.603 541.073 544.552 547.895 541.774 545.924 543.603 532.336 527.959 452.216 534.083 538.288 549.041 554.487 558.189 563.531 571.650 573.741 577.056 608.455 619.934 622.351 638.199 674.807 678.787 678.794 678.469 674.420 679.658 689.551 699.616 708.628 721.543 728.877 750.936 768.609 779.761 789.852 801.511 815.588 831.269 849.418 861.773
1782.959 1771.493 1768.125 1762.455 1756.105 1748.953 1742.880 1735.664 1729.862 1724.794 1729.311 1724.511 1717.388 1711.021 1708.741 1707.917 1708.155 1707.729 1708.540 1708.812 1707.248 1706.111 1703.274 1701.432 1703.695 1706.652 1704.796 1696.631 1686.179 1677.785 1669.746 1664.222 1658.228 1652.725 1616.219 1579.265 1568.336 1559.432 1551.209 1539.413 1532.405 1524.469 1516.965 1510.322 1504.881 1503.126 1501.270 1498.778 1494.982 1493.581 1490.246 1485.327 1481.179 1478.120 1472.780 1464.773 1456.153 1448.184 1441.933 1435.348 1426.182 1419.737 1414.524 1410.771 1409.339 1408.289 1404.870 1403.041 1399.890 1387.669 1385.845 1384.445 1370.067 1356.401 1346.758 1336.299 1322.003 1309.117 1321.869 1318.339 1317.462 1331.294 1324.865 1320.318 1316.203 1314.996 1315.409 1317.332 1315.827 1312.206 1302.636 1299.030 1297.245 1294.254 1280.010 1260.699 1253.685 1246.609 1256.443 1249.708 1230.907 1216.291 1216.951 1202.060 1188.488 1177.116 1170.767 1167.671 1171.131 1174.109 1172.899 1168.669 1160.893 1151.827 1141.482 1137.178 1126.679 1120.439 1113.321 1104.123 1093.746 1084.025 1075.314 1067.617 1058.911 1052.518 1046.718 1042.248 1038.996 1039.292 1038.543 1030.002 1028.322 1025.831 1022.249 1019.952 1017.599 1011.459 1007.844 1002.753 997.193 995.224 996.156 990.512 988.894 984.521 982.389 978.811 975.740 974.102 973.601 970.185 964.416 958.752 952.276 949.141 948.453 946.800 939.808 933.156 928.978 926.089 922.787 919.392 916.146 911.448 907.426 903.381 897.259 888.912 880.002 874.760 865.470 857.477 854.915 852.766 850.955 848.201 842.704 834.815 827.140 818.007 808.745 805.664 798.209 789.839 780.804 779.747 779.111 778.028 775.349 774.726 772.937 768.462 766.034 762.087 760.965 755.975 749.121 741.405 726.201 712.215 695.964 691.793 686.813 679.172 674.752 670.722 667.274 663.631 659.743 651.611 643.375 632.783 625.633 621.379 613.591 607.616 605.013 595.146 588.722 583.476 577.635 575.692 569.203 559.371 546.390 543.619 542.015 536.518 532.301 531.159 528.980 525.257 519.405 519.061 518.722 518.196 515.884 513.326 509.341 509.781 508.369 503.345 499.112 494.873 491.239 488.877 482.779 482.363 482.293 480.860 476.389 470.194 467.974 466.902 464.149 457.610 454.843 454.793 451.068 445.790 438.556 428.610 424.634 430.960 441.510 449.737 452.143 452.550 456.279 459.104 461.727 467.262 473.359 480.386 478.411 474.972 471.833 469.132 470.317 472.944 477.338 479.236 483.984 489.306 486.389 491.564 502.241 499.976 495.357 496.754 499.801 503.006 507.867 511.459 514.741 515.430 514.567 513.692 513.465 515.194 513.312 515.068 516.798 521.869 528.615 539.835 548.453 548.186 553.698 554.721 554.461 549.690 547.593 548.328 544.210 540.212 537.725 525.480 537.698 530.899 532.346 554.799 566.051 573.417 578.408 600.661 619.441 623.105 629.807 671.561 680.798 678.066 677.932 678.582 682.580 694.516 702.838 709.026 712.181 713.439 727.488 751.477 769.199 785.868 798.275 812.489 831.724 841.902 849.909
1779.012 1772.265 1768.467 1763.672 1758.432 1749.800 1740.258 1732.085 1728.826 1723.822 1721.907 1719.814 1715.012 1710.580 1707.844 1708.678 1709.295 1710.896 1710.778 1711.731 1712.677 1710.843 1707.601 1706.073 1706.408 1703.481 1699.293 1693.961 1686.401 1678.152 1671.072 1667.018 1665.271 1652.436 1637.392 1591.879 1581.146 1570.999 1560.121 1546.721 1541.934 1532.735 1522.064 1512.496 1504.885 1500.700 1497.538 1496.508 1492.950 1489.840 1489.687 1485.137 1480.229 1475.573 1468.247 1462.161 1452.687 1445.295 1439.432 1434.033 1425.361 1420.461 1414.341 1410.677 1410.303 1408.746 1403.738 1399.302 1389.159 1380.774 1379.979 1368.215 1342.355 1332.785 1328.867 1322.645 1309.790 1296.814 1298.949 1305.896 1299.250 1315.618 1300.152 1296.680 1302.405 1298.824 1301.180 1303.325 1301.520 1297.454 1290.823 1286.309 1284.159 1283.003 1273.560 1257.651 1235.595 1227.633 1220.276 1223.148 1213.064 1201.463 1200.878 1189.866 1174.681 1168.807 1157.010 1153.664 1158.664 1159.324 1162.907 1159.867 1153.945 1145.829 1129.677 1120.912 1112.109 1104.530 1099.910 1091.241 1082.072 1072.489 1065.348 1057.480 1050.549 1043.244 1037.939 1035.652 1031.723 1032.106 1029.576 1028.171 1026.252 1020.299 1017.526 1015.816 1011.992 1007.004 1007.734 1002.078 994.348 990.013 987.208 986.023 983.520 980.457 978.063 974.458 972.625 972.023 970.897 966.332 958.811 952.749 949.009 945.875 945.945 944.588 938.881 931.577 926.580 923.405 919.786 917.621 914.223 910.525 906.447 902.431 896.955 891.419 881.209 869.820 862.067 855.962 853.296 852.640 849.497 845.550 842.234 833.271 825.131 819.082 812.123 803.699 793.084 786.468 779.676 774.612 772.621 770.850 770.286 769.487 768.476 765.190 762.354 761.159 758.806 751.520 746.727 741.458 730.683 720.026 711.035 696.897 690.205 683.769 678.882 673.179 667.924 662.627 654.145 646.911 641.892 630.366 623.252 616.240 610.952 607.568 600.823 592.581 587.904 582.333 577.420 573.116 567.158 557.800 546.484 541.963 536.885 536.211 534.327 529.091 525.777 520.141 514.876 512.871 512.012 510.955 511.452 508.033 509.015 507.688 502.687 497.397 494.436 492.937 488.390 484.698 483.301 483.997 482.857 477.644 470.264 467.000 462.828 461.196 459.192 456.418 452.930 451.466 448.057 443.536 437.447 427.953 427.304 431.312 444.054 449.922 451.883 454.672 457.921 462.312 467.448 472.281 478.230 483.829 485.878 487.367 485.865 483.041 483.500 485.162 491.443 492.669 495.654 498.584 499.003 499.590 504.807 507.503 501.295 501.467 504.115 508.097 512.266 515.542 519.974 520.665 520.342 519.663 519.648 517.423 516.671 517.908 519.396 522.112 527.781 537.090 549.364 554.288 555.553 562.107 558.706 555.351 553.797 554.885 555.246 557.230 555.199 548.785 547.005 529.580 479.898 462.080 462.181 492.173 580.535 584.980 604.361 619.250 632.535 668.218 672.181 675.745 678.430 679.691 683.390 695.738 700.426 702.865 704.754 705.011 708.233 712.276 748.947 765.778 772.750 763.417 763.157 787.162 811.985
1781.796 1773.192 1769.610 1765.661 1758.173 1748.249 1738.109 1730.318 1728.387 1723.636 1719.597 1716.772 1713.221 1710.366 1708.812 1712.533 1713.516 1713.074 1714.833 1715.106 1713.320 1712.323 1709.732 1706.649 1706.814 1704.465 1698.744 1693.321 1685.804 1678.611 1673.871 1670.729 1674.002 1663.109 1632.309 1606.384 1592.565 1580.458 1566.936 1556.292 1549.129 1537.019 1525.516 1514.757 1506.418 1500.021 1493.707 1487.692 1486.812 1487.162 1486.351 1483.609 1473.951 1465.534 1459.320 1455.045 1449.988 1444.796 1438.072 1432.501 1426.158 1419.251 1411.564 1410.714 1410.568 1408.976 1404.171 1391.086 1381.394 1376.935 1366.740 1349.543 1331.313 1316.555 1313.464 1307.381 1299.024 1286.215 1279.389 1281.144 1283.537 1282.173 1282.436 1281.561 1284.193 1285.400 1285.945 1290.493 1287.940 1281.998 1278.364 1275.432 1270.870 1269.456 1259.787 1237.993 1225.328 1210.470 1204.269 1196.957 1192.551 1183.955 1176.198 1168.956 1158.401 1154.847 1147.780 1139.082 1147.044 1145.705 1153.900 1149.797 1146.456 1140.169 1122.189 1106.559 1098.187 1091.599 1084.310 1079.237 1071.561 1062.746 1054.806 1048.704 1041.115 1035.030 1028.327 1025.139 1024.578 1024.321 1023.900 1021.385 1019.582 1013.529 1011.394 1010.281 1007.727 1006.400 1002.014 998.315 992.411 987.359 982.268 978.619 976.911 973.818 974.050 971.255 970.145 969.703 967.354 961.703 954.021 949.597 946.105 943.444 942.451 934.453 928.081 920.032 921.671 919.448 917.516 915.917 912.575 909.283 904.925 900.608 895.085 890.378 877.852 868.890 859.945 854.649 851.948 851.464 849.132 844.339 835.183 830.510 824.154 817.521 812.169 804.000 795.188 787.295 778.677 771.793 768.624 765.350 762.182 761.280 760.320 760.071 759.288 759.013 753.865 749.286 742.271 737.044 731.129 718.361 706.264 695.936 688.793 683.284 679.011 676.621 664.312 658.889 654.757 642.806 635.850 628.804 620.176 611.459 606.393 603.750 595.245 589.965 585.448 580.524 575.583 567.922 560.552 554.240 546.846 541.107 534.531 533.413 531.565 526.981 522.451 515.677 511.934 510.490 509.838 508.605 508.104 505.749 504.403 500.458 497.500 495.134 493.295 491.621 487.747 485.455 486.330 487.714 480.844 471.930 467.073 463.486 460.851 457.515 454.508 452.159 450.257 447.837 443.014 438.075 432.855 426.083 429.655 435.528 444.596 448.860 451.950 456.221 462.627 466.615 473.786 479.364 484.127 487.947 491.878 497.734 500.272 497.931 497.215 496.688 498.114 501.222 501.684 506.234 511.674 509.843 507.033 515.530 508.456 507.914 509.925 512.320 517.449 521.202 525.626 527.121 526.504 525.363 525.019 520.929 519.445 519.860 521.292 523.548 527.576 534.195 543.583 548.207 558.093 568.308 568.798 567.746 568.644 576.103 571.340 570.311 572.058 566.724 578.100 562.014 563.016 562.939 469.969 466.112 466.997 543.626 590.060 609.173 626.073 665.989 668.896 675.183 684.525 685.764 689.894 695.526 699.453 698.940 703.805 700.753 702.398 704.395 700.220 710.540 711.917 721.395 727.708 725.198 739.306
1780.677 1775.474 1772.229 1766.723 1757.903 1747.606 1737.148 1728.946 1726.089 1722.402 1720.708 1717.074 1716.018 1714.995 1713.906 1714.852 1715.915 1715.356 1715.284 1717.406 1716.184 1713.666 1711.105 1706.388 1704.500 1700.654 1696.425 1690.564 1684.475 1680.547 1676.843 1677.355 1680.064 1660.259 1639.314 1618.775 1603.132 1587.726 1574.662 1566.910 1552.095 1538.929 1527.285 1516.912 1507.116 1499.023 1492.420 1486.824 1478.460 1471.136 1469.781 1473.612 1467.958 1460.822 1452.777 1447.180 1442.750 1439.556 1435.004 1429.694 1424.980 1416.514 1409.657 1411.785 1406.807 1405.557 1394.243 1381.065 1374.116 1367.898 1355.505 1337.240 1323.792 1310.333 1296.157 1291.342 1284.966 1278.576 1268.159 1266.133 1266.701 1267.703 1266.782 1265.182 1264.875 1268.714 1273.212 1273.598 1271.967 1267.112 1264.771 1264.195 1261.205 1257.105 1244.504 1220.847 1210.923 1203.854 1188.816 1184.080 1176.785 1167.736 1160.556 1153.538 1145.045 1142.179 1136.069 1127.134 1134.840 1130.853 1136.496 1133.303 1134.920 1124.835 1109.236 1096.495 1086.407 1079.580 1071.368 1065.468 1059.503 1052.897 1046.730 1041.565 1033.534 1026.430 1022.365 1020.965 1017.720 1017.889 1017.526 1016.098 1013.375 1010.476 1009.721 1007.975 1004.217 1000.113 996.112 992.591 988.062 984.554 978.370 974.694 971.395 971.117 969.932 968.159 967.152 967.732 966.950 959.250 951.062 947.414 943.322 938.176 932.021 924.559 912.964 907.143 910.928 909.849 906.928 912.129 911.763 904.069 895.102 892.001 893.687 892.226 883.256 871.745 861.098 854.847 850.581 848.836 842.825 834.850 826.197 821.956 811.293 810.986 806.178 807.834 803.928 795.092 783.222 768.575 763.616 760.446 760.707 757.196 757.450 755.205 754.465 753.933 752.982 749.405 741.582 732.813 722.823 713.048 699.827 691.976 686.266 681.515 679.462 675.127 662.073 659.766 649.062 640.130 633.214 627.775 617.490 609.761 606.269 602.226 592.958 585.744 583.360 577.119 571.695 561.801 554.914 549.204 542.241 538.020 533.032 529.902 527.828 525.679 518.285 513.620 511.103 511.046 510.417 508.576 507.437 504.228 500.561 496.698 492.709 492.586 491.959 489.757 486.782 487.625 488.064 487.361 479.956 471.588 467.906 462.685 457.528 454.379 451.006 450.011 448.132 442.014 435.153 434.188 433.356 426.270 432.056 435.585 443.036 447.146 452.810 462.160 470.068 476.778 482.593 485.743 489.560 492.526 496.869 504.557 514.243 514.593 511.774 509.638 509.209 509.345 511.008 514.781 519.206 517.540 514.099 522.952 520.681 518.378 515.635 517.807 522.283 526.533 531.401 534.280 533.129 532.271 528.651 524.653 522.840 522.818 523.331 525.772 528.972 532.906 539.181 546.312 555.367 574.088 584.245 582.433 585.719 592.201 588.664 592.963 590.930 587.064 585.786 582.058 584.592 575.592 571.227 572.817 577.448 467.250 537.350 597.008 615.662 646.483 664.725 672.058 680.430 677.815 681.712 685.164 685.105 689.261 688.990 683.290 681.848 682.686 685.022 688.716 688.446 689.332 701.438 705.625 715.763
1780.759 1777.168 1773.525 1767.391 1757.534 1745.736 1735.267 1727.995 1723.228 1722.111 1719.312 1718.833 1718.449 1718.657 1717.631 1716.673 1716.063 1716.294 1717.284 1717.837 1715.968 1710.660 1706.683 1705.690 1702.232 1699.057 1693.983 1688.887 1685.669 1682.407 1682.026 1685.478 1684.390 1667.589 1648.288 1628.341 1612.918 1593.101 1584.430 1570.075 1555.829 1542.989 1531.139 1518.180 1510.038 1499.428 1491.824 1486.286 1481.076 1469.085 1459.541 1453.539 1454.169 1452.544 1448.870 1442.187 1435.503 1431.536 1429.804 1425.942 1421.998 1414.237 1407.182 1406.531 1404.854 1396.969 1388.238 1367.106 1342.337 1331.659 1332.415 1324.098 1310.981 1298.060 1286.635 1274.752 1270.857 1267.387 1262.208 1255.712 1254.688 1252.630 1252.794 1251.234 1250.717 1254.745 1262.110 1263.072 1260.538 1252.756 1252.380 1253.779 1248.333 1243.845 1225.370 1206.948 1196.542 1187.770 1177.004 1170.168 1163.554 1155.313 1147.196 1140.701 1132.468 1128.556 1124.203 1117.077 1122.101 1118.122 1113.408 1116.382 1111.207 1106.018 1096.536 1085.770 1076.395 1069.743 1060.551 1054.649 1047.666 1042.349 1038.886 1033.944 1026.943 1020.372 1016.850 1013.760 1012.534 1013.567 1011.458 1011.532 1008.431 1005.849 1006.004 1003.148 1001.222 998.469 993.845 988.109 983.743 979.287 974.130 971.489 967.350 967.723 966.213 964.359 965.196 965.634 964.263 956.452 950.802 947.016 934.112 921.602 920.125 913.214 905.101 893.359 894.448 893.389 893.975 892.669 903.364 896.942 889.349 883.639 883.667 887.493 882.189 875.226 864.184 856.875 850.547 846.023 837.107 826.790 815.622 811.484 801.828 796.145 794.324 790.587 791.738 787.654 783.476 767.740 761.287 760.451 758.573 755.708 752.321 751.143 750.453 745.831 745.069 746.179 740.223 731.256 717.913 705.245 695.437 689.413 682.829 680.822 676.829 673.560 665.085 654.716 645.494 639.443 630.869 622.540 615.544 609.048 603.835 595.385 589.584 584.764 580.394 573.630 564.809 556.362 549.677 543.493 538.432 535.528 534.317 529.685 525.663 520.080 514.853 511.895 510.857 510.152 509.036 505.952 504.891 501.550 499.014 492.863 490.723 490.822 489.979 487.370 483.462 480.351 480.795 485.348 476.091 471.132 463.689 456.738 453.842 450.294 445.943 445.317 442.271 437.804 436.412 434.158 430.573 429.462 432.463 436.255 443.346 447.074 457.873 465.724 475.554 483.977 490.708 491.723 495.149 500.089 505.118 512.814 524.993 527.511 527.763 524.804 524.002 523.146 524.474 528.907 532.175 524.658 520.170 529.746 533.236 531.146 525.399 523.509 528.198 531.821 536.988 541.186 541.137 537.819 534.469 530.890 531.491 534.861 527.547 528.650 531.867 533.434 535.939 541.488 563.715 571.706 581.805 595.096 599.906 604.670 609.418 605.776 603.687 603.446 597.123 599.694 601.374 593.428 586.924 589.105 588.521 595.008 470.481 469.933 585.466 616.695 640.523 655.760 657.858 660.913 663.413 652.347 661.202 634.709 656.283 658.269 661.862 661.599 663.249 677.058 675.765 679.523 683.482 686.777 690.544
1781.016 1777.472 1772.734 1763.881 1751.440 1740.533 1733.063 1726.970 1725.277 1721.016 1719.965 1719.869 1720.397 1721.219 1721.407 1721.050 1720.124 1719.075 1717.769 1715.898 1713.131 1713.753 1711.037 1707.522 1703.455 1699.517 1695.291 1692.185 1689.844 1689.159 1689.532 1692.065 1683.797 1670.062 1654.622 1631.714 1614.434 1602.104 1594.823 1579.208 1562.321 1548.677 1536.932 1525.307 1514.581 1505.539 1493.947 1485.712 1478.503 1469.893 1459.045 1452.605 1446.121 1441.857 1439.096 1436.762 1430.832 1424.924 1422.053 1420.794 1417.785 1412.018 1405.509 1401.924 1403.553 1392.667 1371.161 1350.418 1332.528 1319.416 1306.182 1291.927 1283.146 1274.691 1269.195 1261.615 1258.198 1250.639 1246.935 1241.977 1236.592 1240.210 1240.074 1236.954 1236.044 1241.888 1251.731 1253.403 1251.038 1242.357 1239.562 1239.430 1239.583 1234.207 1212.059 1195.585 1184.804 1174.990 1166.448 1158.006 1151.800 1143.895 1135.508 1129.393 1121.007 1116.444 1113.269 1106.798 1106.075 1103.347 1099.346 1095.180 1096.363 1092.647 1085.796 1075.265 1065.691 1060.416 1053.826 1046.841 1039.247 1033.849 1031.366 1025.331 1019.559 1014.630 1012.243 1008.679 1008.625 1008.871 1006.423 1006.803 1004.883 1002.102 1000.808 1000.344 1000.608 997.284 993.709 988.313 979.564 974.962 970.344 968.395 966.417 963.893 963.034 962.134 962.606 962.322 960.166 950.156 943.683 939.448 928.037 921.705 929.826 923.085 919.270 902.011 883.033 875.695 880.410 876.224 890.118 888.747 878.135 872.811 872.550 861.247 863.242 863.274 861.512 855.901 851.083 842.867 827.274 814.534 806.833 797.042 787.558 777.398 768.192 769.710 776.709 773.027 776.427 767.972 757.348 753.820 753.384 751.022 748.833 744.048 739.078 737.822 739.207 740.478 730.707 720.818 711.505 700.223 690.493 685.233 681.785 679.498 676.454 673.233 669.134 658.684 640.884 631.581 624.693 617.868 612.845 609.033 598.478 593.739 586.712 582.528 574.911 567.413 561.506 550.917 546.055 539.603 537.298 535.562 534.014 527.080 522.374 516.130 512.947 512.179 513.793 510.384 507.113 503.116 500.344 498.159 495.858 491.803 489.339 488.909 489.168 482.766 477.964 473.534 469.675 475.294 473.096 465.934 458.028 451.221 444.903 440.775 438.634 436.359 434.383 433.085 433.017 431.578 430.422 435.626 436.918 438.114 444.427 448.248 459.702 470.133 479.819 486.573 490.916 495.189 502.084 507.953 510.588 521.922 533.599 541.255 541.024 539.067 539.728 537.993 539.485 543.400 542.715 529.819 530.268 534.727 543.632 541.778 537.346 532.236 534.202 538.918 543.787 547.913 549.245 544.369 543.428 545.219 552.206 550.515 540.927 538.834 539.073 542.903 561.632 566.055 577.746 583.238 594.873 609.583 611.231 618.668 627.610 628.390 621.124 614.942 616.952 616.018 623.809 605.255 598.909 596.940 597.379 607.517 605.834 512.608 471.972 578.881 597.367 594.262 592.659 593.278 546.759 504.312 480.544 481.912 483.434 485.014 546.366 616.244 627.293 655.450 656.682 658.896 674.094 678.837 681.462
1780.603 1777.538 1769.700 1760.774 1749.608 1738.985 1732.095 1727.782 1724.671 1721.715 1720.773 1720.564 1721.441 1724.370 1723.890 1721.090 1718.891 1717.368 1717.158 1716.838 1715.249 1714.227 1711.794 1708.002 1704.584 1702.235 1699.200 1695.819 1693.800 1692.900 1694.811 1696.188 1681.608 1667.130 1654.895 1637.486 1621.965 1626.228 1639.250 1632.820 1595.169 1560.470 1546.917 1532.067 1520.481 1509.197 1498.671 1492.314 1479.663 1470.062 1462.141 1455.356 1448.475 1440.967 1435.228 1430.255 1425.416 1420.323 1416.339 1414.580 1413.558 1410.435 1405.616 1400.404 1398.093 1395.296 1370.417 1340.341 1323.455 1310.921 1297.816 1285.783 1273.802 1262.926 1256.877 1248.552 1241.582 1238.862 1229.464 1233.778 1226.866 1221.048 1221.434 1224.685 1221.047 1225.469 1241.037 1243.007 1239.508 1230.460 1227.950 1224.973 1227.910 1220.711 1200.304 1185.375 1173.158 1164.754 1155.969 1147.585 1141.279 1133.568 1125.660 1119.350 1112.296 1105.691 1102.077 1098.144 1092.149 1089.814 1086.774 1082.271 1082.120 1079.575 1076.326 1067.024 1056.432 1052.078 1047.082 1042.806 1036.123 1032.270 1028.343 1021.191 1016.324 1012.272 1009.059 1005.026 1001.869 1002.219 1003.959 1001.072 1000.534 999.542 993.865 994.507 995.604 990.739 985.436 983.809 977.539 971.279 967.939 965.729 964.025 963.019 961.490 960.221 960.205 960.789 958.606 943.973 935.907 928.883 934.371 937.925 937.837 936.296 921.887 907.634 895.181 883.329 867.965 858.651 870.724 877.710 869.753 863.038 855.862 850.217 839.545 838.841 836.181 834.596 836.744 835.560 820.343 807.671 793.552 786.384 779.308 767.877 767.548 764.310 756.667 751.717 751.642 753.437 749.400 740.780 738.506 737.055 741.231 737.627 732.055 724.661 729.455 731.010 730.880 716.130 702.786 696.154 689.569 682.959 680.206 679.166 678.238 673.469 665.568 655.960 641.712 627.083 619.607 614.042 614.033 602.193 596.443 592.120 585.848 581.666 568.856 562.351 555.010 547.971 545.343 542.037 539.534 536.231 528.863 523.701 519.878 515.337 513.862 515.870 515.297 510.034 505.656 500.951 496.709 495.405 493.734 488.257 485.893 486.250 481.870 477.646 469.334 464.721 461.331 465.497 464.835 456.589 447.654 442.411 447.608 448.767 449.266 446.734 446.909 445.662 444.998 443.755 441.260 441.002 440.174 441.967 446.395 452.346 460.913 472.981 482.031 487.583 493.294 497.671 504.312 515.553 519.850 529.547 542.640 554.374 555.967 554.113 553.865 552.083 554.087 556.476 549.868 536.429 536.790 542.211 552.906 554.780 548.420 544.285 542.484 545.282 551.607 556.433 554.557 554.319 556.287 562.011 571.256 573.283 559.423 554.742 555.998 551.593 564.012 577.125 586.181 598.225 610.396 623.577 629.374 636.385 641.027 638.729 637.847 635.675 630.496 625.005 629.752 632.114 623.074 608.483 606.243 607.028 609.784 610.213 480.223 473.475 479.670 519.320 473.322 539.286 625.015 630.424 639.605 642.830 628.937 617.393 543.060 544.009 494.677 490.133 490.612 490.791 538.245 631.920 625.359
1774.807 1771.424 1763.749 1756.366 1746.486 1735.380 1729.192 1725.838 1724.011 1722.361 1721.973 1723.384 1725.611 1724.503 1722.117 1720.181 1719.234 1719.236 1717.862 1716.678 1716.727 1715.496 1713.116 1710.967 1707.610 1705.209 1701.885 1699.013 1697.296 1696.417 1697.107 1694.717 1680.479 1668.348 1660.250 1647.501 1641.422 1654.487 1644.973 1633.908 1623.135 1597.927 1565.578 1538.743 1525.329 1514.530 1504.242 1494.478 1481.887 1471.997 1465.013 1458.583 1449.981 1440.601 1434.726 1427.608 1421.808 1415.872 1413.710 1411.320 1409.832 1407.346 1405.861 1403.513 1398.427 1392.644 1369.893 1330.351 1309.599 1301.014 1291.393 1278.188 1267.110 1254.760 1245.353 1237.374 1233.256 1228.279 1218.903 1215.113 1219.304 1212.646 1206.963 1205.321 1207.773 1214.774 1222.734 1230.049 1230.187 1219.094 1211.806 1211.639 1214.733 1207.492 1195.147 1178.226 1164.966 1153.484 1145.427 1136.840 1129.589 1124.140 1116.283 1109.496 1102.450 1096.476 1092.183 1088.255 1082.524 1076.024 1074.470 1071.960 1070.486 1068.087 1064.210 1058.474 1048.258 1042.793 1038.905 1034.950 1029.874 1026.707 1022.465 1017.828 1015.177 1010.447 1006.654 1003.503 1000.110 998.632 995.575 995.895 991.496 990.898 992.575 987.551 990.095 986.347 981.226 977.196 974.199 969.126 965.429 963.337 962.240 961.898 957.429 956.026 956.406 955.887 952.925 942.219 930.724 939.237 944.617 948.671 942.109 939.304 922.521 907.586 895.596 883.479 869.622 856.004 856.613 868.496 858.896 854.938 846.486 837.745 826.240 821.730 818.235 815.546 817.090 822.988 818.079 802.208 789.327 783.949 775.654 779.963 789.395 786.612 779.591 768.496 761.771 751.556 740.363 733.809 726.099 720.635 713.623 716.400 717.912 714.812 715.657 716.869 721.910 716.881 698.925 693.130 689.738 683.703 679.987 680.214 676.944 667.398 662.050 655.445 646.219 630.114 620.760 612.441 604.985 597.338 593.227 592.562 585.890 577.490 565.134 560.372 550.534 548.001 546.327 542.974 538.332 533.131 528.705 526.751 522.114 517.706 516.799 517.091 514.470 509.658 503.301 495.351 493.098 491.983 491.765 484.673 484.008 478.662 474.242 470.969 467.590 470.203 463.887 456.423 455.310 447.623 444.486 448.484 453.495 455.076 454.222 456.488 459.813 455.850 452.285 450.947 448.841 445.647 449.650 449.536 451.072 456.647 462.190 473.380 480.839 487.279 495.621 501.441 512.797 524.787 529.952 538.051 550.990 565.212 570.357 568.890 568.310 567.618 569.650 567.546 554.064 544.836 542.426 549.763 562.497 567.893 561.511 557.708 555.975 556.687 560.260 564.055 564.371 568.803 567.227 572.591 580.665 588.370 585.038 570.367 577.359 571.176 576.285 574.597 586.377 608.213 617.468 627.712 636.562 641.435 643.593 650.005 648.950 644.940 642.426 636.115 634.008 636.972 638.254 629.266 622.606 617.950 614.891 617.069 585.296 475.602 473.237 626.946 636.817 633.552 641.455 649.364 651.414 653.897 651.149 647.423 646.696 645.226 648.381 647.293 650.987 631.133 597.944 494.079 504.715
1770.796 1764.464 1757.523 1747.229 1741.030 1734.371 1730.542 1727.322 1724.757 1725.096 1726.152 1726.194 1725.789 1724.938 1723.848 1722.877 1721.137 1719.287 1718.049 1718.094 1718.437 1716.391 1713.779 1711.235 1708.634 1706.135 1704.383 1702.501 1701.507 1699.083 1699.997 1692.691 1679.490 1668.119 1663.933 1661.903 1660.977 1657.424 1643.827 1630.814 1620.119 1607.308 1586.655 1556.477 1531.901 1518.590 1507.856 1498.445 1486.506 1479.638 1470.483 1463.040 1451.606 1444.937 1437.986 1430.340 1422.482 1416.307 1411.926 1408.273 1408.470 1406.826 1404.019 1399.981 1391.543 1366.670 1339.571 1319.358 1303.046 1292.184 1281.843 1270.183 1259.728 1247.026 1238.892 1229.290 1225.094 1218.752 1211.223 1214.712 1207.882 1201.177 1198.168 1193.545 1197.514 1201.725 1209.853 1215.768 1215.746 1209.945 1200.632 1200.009 1200.792 1193.087 1182.328 1168.272 1156.355 1147.146 1135.344 1128.136 1121.907 1116.147 1108.378 1100.541 1093.235 1087.696 1083.292 1079.417 1074.974 1069.822 1064.830 1063.126 1060.912 1058.646 1056.047 1050.604 1043.146 1037.109 1031.970 1030.137 1026.883 1023.268 1020.473 1015.592 1011.348 1008.188 1005.099 1002.166 998.020 997.217 992.654 989.758 987.797 984.198 985.265 983.178 984.684 983.561 979.687 975.200 971.097 966.428 963.586 962.181 960.787 956.007 953.607 947.849 948.702 943.329 942.021 937.264 936.928 945.227 950.604 944.182 939.759 936.667 928.099 916.121 904.340 893.767 882.890 871.025 855.319 842.928 840.462 839.031 829.274 827.461 833.821 844.075 838.427 833.532 818.814 806.339 809.035 797.926 787.921 796.963 794.305 798.811 803.541 790.520 779.011 768.900 760.952 750.400 737.493 716.139 715.705 709.597 704.215 699.059 692.277 693.139 703.584 705.408 706.687 714.157 708.596 694.872 687.868 683.922 680.667 680.940 672.623 666.588 662.197 657.897 651.144 636.876 623.785 607.510 599.978 594.536 592.401 588.402 584.187 576.290 565.420 556.285 549.233 548.206 547.148 543.939 539.922 535.328 531.128 527.815 523.057 519.633 520.371 518.579 512.286 504.496 498.005 498.302 497.653 496.185 488.655 486.554 484.323 484.529 481.148 479.317 475.425 476.634 470.789 458.031 451.826 446.244 452.420 458.434 461.649 461.941 460.704 464.380 464.124 459.027 455.724 458.521 458.784 454.388 463.793 465.859 462.044 460.722 468.719 478.683 488.024 494.415 503.770 512.089 523.456 535.551 540.472 544.494 556.984 571.723 579.356 579.868 584.876 581.356 581.935 574.840 562.299 553.681 550.551 552.194 567.594 580.949 576.749 571.640 569.683 569.371 570.772 571.501 570.911 582.308 584.973 593.843 601.557 604.824 606.789 600.807 596.682 587.742 592.605 598.205 600.787 605.659 623.027 633.552 640.599 640.799 644.779 648.522 653.671 653.473 650.411 651.311 650.494 643.775 645.965 641.366 635.137 628.864 624.702 623.201 623.116 627.424 624.964 640.393 657.078 658.554 660.179 660.889 667.786 666.398 663.961 662.490 661.760 665.203 658.349 660.604 662.358 660.762 660.424 658.912 627.206
1773.656 1770.291 1759.061 1748.108 1739.177 1732.924 1731.717 1728.560 1727.458 1727.457 1727.444 1728.330 1727.324 1726.392 1725.229 1723.229 1721.344 1719.685 1718.668 1718.869 1718.131 1715.705 1713.014 1711.128 1708.778 1707.792 1707.646 1707.008 1704.758 1703.452 1701.571 1688.014 1676.376 1668.191 1665.152 1663.696 1662.241 1658.524 1644.781 1633.429 1620.542 1608.932 1597.529 1579.912 1543.567 1523.696 1513.057 1502.874 1493.615 1485.083 1474.424 1465.905 1458.572 1451.165 1441.969 1428.658 1421.129 1414.886 1410.451 1405.471 1404.753 1404.853 1402.200 1393.250 1375.459 1347.796 1329.127 1313.078 1300.057 1286.995 1274.462 1265.300 1253.608 1243.162 1234.433 1227.110 1219.839 1212.892 1206.668 1200.543 1199.693 1192.742 1190.656 1186.444 1188.247 1187.856 1196.191 1201.730 1205.403 1199.265 1190.683 1188.780 1185.056 1180.629 1169.643 1155.498 1146.718 1136.302 1124.594 1117.015 1111.524 1107.620 1101.715 1094.256 1085.730 1079.700 1074.944 1072.011 1067.345 1062.901 1059.249 1057.574 1056.062 1050.182 1049.334 1043.521 1038.414 1033.192 1028.145 1025.630 1022.976 1020.946 1016.657 1012.312 1006.201 1004.247 1001.323 1000.334 998.837 998.952 996.894 995.024 990.262 985.583 979.357 976.497 977.402 977.871 975.394 972.608 969.240 965.851 963.412 961.920 957.537 951.416 947.259 942.020 942.021 942.021 942.021 943.817 950.312 951.884 945.390 941.656 936.135 930.275 926.284 923.503 918.795 905.631 892.958 879.488 865.299 860.369 843.825 838.069 840.478 837.779 848.810 854.638 847.119 842.251 830.741 815.032 805.717 809.258 807.523 810.927 809.427 810.145 803.461 788.815 774.065 765.145 755.543 746.372 730.256 712.958 699.385 698.180 697.407 689.468 685.872 680.956 680.442 687.523 689.310 692.969 699.719 697.248 692.860 687.072 684.305 680.818 674.510 667.853 662.225 654.169 646.934 636.088 623.360 610.484 599.648 592.690 592.187 584.647 578.981 573.508 564.035 557.397 555.520 551.931 548.965 546.544 541.651 535.925 532.014 525.937 522.377 520.020 519.818 516.179 506.438 502.531 501.948 499.803 493.559 489.564 485.951 485.299 488.044 486.753 484.854 480.207 478.088 475.960 466.531 459.904 451.716 448.665 459.477 461.581 463.207 464.607 464.076 467.487 467.511 464.976 465.439 469.350 469.239 473.202 467.387 479.715 482.889 474.986 476.945 482.197 493.280 503.197 513.345 523.076 535.405 544.940 549.484 552.259 561.667 578.132 590.480 592.178 590.885 591.645 592.656 581.976 570.794 563.384 559.930 560.918 573.366 588.368 590.810 588.330 582.706 583.479 582.439 580.830 579.121 593.411 600.718 611.148 617.015 621.874 622.319 619.711 618.591 607.432 607.998 613.045 618.015 620.547 628.561 638.250 645.699 646.976 650.334 653.063 656.623 661.319 664.774 663.952 659.951 659.277 657.651 651.179 643.073 641.722 635.565 636.045 636.714 645.357 647.074 654.077 670.275 669.664 672.777 673.999 673.513 674.263 676.178 677.495 678.585 675.959 671.998 672.115 671.538 672.304 671.057 667.901 669.325
1774.401 1768.883 1758.111 1746.014 1737.954 1734.858 1731.146 1729.263 1727.762 1728.318 1728.602 1728.931 1728.040 1726.851 1725.332 1723.211 1720.870 1719.036 1718.569 1718.443 1717.084 1714.326 1711.118 1710.806 1709.808 1710.342 1711.911 1711.183 1708.322 1706.602 1699.680 1686.801 1675.446 1669.132 1666.057 1663.119 1660.648 1658.421 1653.771 1637.664 1619.999 1607.950 1594.872 1582.509 1561.967 1540.963 1520.441 1508.489 1498.271 1490.859 1480.862 1472.026 1463.676 1454.691 1444.781 1430.680 1424.396 1417.429 1410.599 1405.738 1398.625 1396.761 1393.156 1386.887 1376.711 1358.168 1324.987 1309.748 1296.625 1283.097 1270.891 1260.865 1250.983 1241.837 1234.903 1225.237 1217.453 1212.410 1207.098 1201.994 1195.314 1188.552 1183.969 1180.669 1179.924 1178.074 1183.083 1190.053 1189.903 1185.841 1179.353 1179.110 1175.300 1173.287 1164.901 1149.583 1135.146 1128.083 1116.801 1107.373 1101.840 1098.161 1094.577 1088.328 1080.538 1073.619 1068.587 1065.121 1060.990 1056.957 1053.917 1051.527 1049.379 1044.874 1042.339 1037.595 1033.183 1028.355 1024.183 1021.625 1019.301 1017.857 1012.268 1008.843 1002.204 1001.060 999.915 999.584 996.129 996.029 994.254 992.132 989.665 985.056 979.215 976.044 970.892 968.247 969.492 969.351 967.420 963.709 955.053 951.387 949.930 945.252 942.020 942.086 942.020 942.927 946.262 952.747 958.737 949.979 945.239 941.425 935.468 929.896 926.240 923.508 916.326 904.371 891.109 880.703 876.412 875.650 860.494 856.422 852.739 852.432 862.168 859.373 854.246 850.258 843.921 833.577 826.574 824.132 824.711 827.404 827.308 820.993 805.139 787.002 774.287 763.039 751.740 742.349 725.587 715.445 704.819 688.268 689.731 686.720 680.879 674.397 669.423 667.364 669.439 673.058 678.448 677.495 681.833 684.984 679.832 674.435 674.069 669.333 658.141 651.159 639.927 628.976 614.561 608.740 605.306 595.297 585.829 580.320 578.745 572.891 560.373 558.764 557.025 555.481 550.732 547.429 542.882 537.162 529.942 525.309 523.060 520.882 519.440 513.523 504.152 503.605 504.308 504.508 499.577 495.830 492.111 488.281 487.857 486.916 486.451 484.780 479.716 474.001 463.427 453.573 450.683 453.332 465.980 466.277 466.434 466.479 468.711 471.731 470.738 472.337 476.617 478.717 479.978 482.613 478.858 489.292 491.045 491.545 492.279 488.893 501.108 509.624 521.911 529.182 542.751 552.618 560.488 564.029 570.922 581.500 597.979 604.358 604.178 602.848 605.259 592.461 580.754 572.815 569.871 572.966 575.403 594.544 599.478 600.572 596.476 597.562 597.802 591.509 589.904 601.525 620.197 625.004 627.258 634.913 631.345 635.907 636.462 635.416 644.943 626.656 649.470 648.097 657.282 662.982 667.541 675.585 686.901 690.632 667.830 670.441 678.034 689.058 690.907 694.363 694.240 689.127 660.677 649.900 649.855 649.227 649.685 653.404 659.297 666.557 673.498 677.941 678.954 681.073 682.314 684.645 685.782 685.274 686.291 684.551 686.527 685.804 685.742 689.515 691.380 690.627 683.259
1773.745 1765.953 1755.322 1744.267 1740.934 1736.419 1731.102 1728.570 1728.079 1727.551 1726.897 1727.052 1727.807 1726.533 1724.270 1721.692 1719.852 1718.728 1718.220 1717.041 1715.421 1712.435 1710.373 1710.553 1710.765 1712.136 1713.563 1712.687 1712.149 1710.302 1698.304 1686.091 1676.646 1672.815 1668.929 1664.838 1660.395 1657.708 1657.682 1651.024 1631.115 1614.074 1599.489 1586.804 1575.825 1568.541 1533.903 1518.077 1508.091 1497.713 1488.294 1477.973 1469.479 1459.667 1450.119 1439.564 1430.597 1420.303 1413.527 1406.578 1398.593 1390.604 1383.834 1380.890 1374.202 1346.013 1326.123 1309.489 1293.336 1281.057 1269.878 1261.153 1253.035 1243.042 1235.712 1228.255 1220.604 1213.330 1206.806 1202.061 1197.133 1191.114 1185.940 1181.078 1178.083 1176.063 1174.426 1180.043 1178.943 1173.749 1170.265 1168.528 1165.004 1163.882 1156.424 1142.611 1126.003 1117.467 1109.676 1097.058 1092.832 1088.522 1085.064 1080.135 1074.225 1068.106 1062.959 1059.595 1056.789 1051.227 1049.298 1046.323 1042.685 1039.981 1037.713 1033.069 1028.842 1025.536 1021.870 1019.837 1017.300 1014.288 1009.111 1005.221 1000.129 996.220 996.388 993.853 992.413 992.601 991.206 989.347 985.923 976.703 976.787 972.422 970.144 963.501 962.654 960.312 958.667 952.205 949.027 946.006 946.379 945.962 945.942 944.621 945.174 951.918 961.033 961.241 956.182 949.540 945.768 941.354 935.236 930.386 927.080 923.357 916.538 904.284 894.677 887.144 887.654 884.699 881.351 874.816 875.426 872.455 869.214 864.930 858.851 853.894 850.605 846.600 844.209 841.806 838.856 835.444 827.164 813.907 799.844 785.172 775.249 763.384 754.793 743.583 724.114 715.921 709.605 702.948 688.462 674.819 675.150 667.841 666.494 663.568 659.624 655.658 660.337 660.624 664.189 672.135 667.533 662.703 664.305 659.838 653.297 642.403 633.241 619.319 610.092 607.543 602.786 593.835 584.890 579.162 573.070 569.319 564.523 561.100 558.687 556.703 549.429 546.434 544.155 537.217 529.500 523.688 522.102 520.583 516.789 506.450 508.370 509.782 508.200 504.528 501.305 498.386 493.594 488.923 488.486 486.936 484.920 480.784 476.386 466.867 457.608 456.496 465.813 465.219 465.993 467.226 471.420 472.424 475.529 472.728 476.127 479.829 485.964 489.178 489.534 489.162 484.004 495.269 499.291 503.580 506.566 503.702 509.474 519.042 532.433 540.140 551.127 562.945 570.369 580.655 581.148 589.545 601.971 611.519 613.284 610.981 612.042 603.149 591.240 582.400 580.248 583.386 581.843 597.743 608.027 609.966 611.960 612.416 608.602 602.334 601.464 607.471 619.730 635.983 644.514 648.327 647.740 649.452 651.642 650.327 660.553 661.067 663.891 666.562 673.390 678.118 679.146 684.752 693.738 702.521 704.911 705.980 710.564 714.659 705.366 710.232 713.425 714.499 707.139 704.723 665.433 661.115 662.885 667.276 671.817 672.973 678.877 682.945 684.878 688.540 692.502 708.880 730.743 732.392 715.859 717.265 708.152 711.339 705.321 701.001 705.632 702.773 700.415
1773.857 1765.278 1755.628 1747.845 1742.780 1735.746 1731.479 1728.630 1725.420 1724.708 1724.755 1724.569 1724.618 1723.422 1721.366 1718.961 1717.341 1717.007 1716.073 1714.630 1712.594 1710.352 1708.712 1709.682 1710.160 1711.590 1714.410 1713.952 1712.711 1710.867 1696.905 1686.287 1681.418 1679.662 1675.615 1669.196 1663.327 1657.928 1657.444 1656.992 1639.505 1624.728 1608.313 1596.769 1580.559 1565.894 1549.283 1529.005 1512.226 1506.307 1493.057 1485.625 1475.472 1462.979 1454.143 1442.639 1434.366 1425.820 1416.327 1407.686 1400.032 1392.668 1384.478 1376.794 1371.214 1360.112 1337.438 1308.376 1301.745 1281.817 1271.575 1262.474 1255.281 1246.098 1236.161 1229.027 1221.795 1215.261 1209.664 1206.493 1199.621 1193.229 1188.262 1183.552 1179.135 1175.413 1172.218 1173.560 1170.140 1165.281 1161.896 1160.381 1155.626 1153.449 1147.271 1135.482 1121.666 1111.363 1103.522 1091.800 1084.650 1080.051 1076.572 1071.873 1066.488 1062.158 1056.955 1053.972 1051.665 1045.774 1044.221 1042.371 1039.546 1035.636 1032.926 1028.540 1025.088 1022.209 1019.814 1018.310 1016.346 1013.398 1007.091 1002.568 997.958 995.009 993.057 990.824 989.561 989.180 985.442 982.173 977.240 971.094 966.941 963.894 961.890 959.320 957.317 954.867 953.971 952.548 950.884 949.591 947.582 946.789 947.861 948.131 951.853 961.574 962.759 959.640 955.606 950.719 944.733 941.601 936.397 931.901 928.335 923.805 918.163 910.333 899.107 897.240 898.047 893.738 889.794 882.887 880.825 879.606 877.404 868.767 860.724 853.557 850.224 846.894 846.198 842.653 839.976 833.328 821.455 809.291 799.296 787.384 776.888 769.860 765.237 748.126 732.056 719.267 710.588 702.859 694.591 681.003 666.361 655.263 659.286 658.122 655.946 653.022 652.363 649.899 651.852 660.587 658.051 647.673 645.122 644.988 639.692 636.322 626.030 615.439 610.232 607.619 597.521 592.749 584.541 578.337 573.411 572.759 569.045 564.301 562.602 558.370 553.341 546.654 544.022 536.775 531.784 525.692 521.126 513.074 515.094 514.360 513.379 512.627 510.832 507.502 503.998 501.090 494.112 488.716 485.184 481.929 477.927 474.520 469.477 462.562 454.879 468.824 469.245 467.355 467.404 472.232 476.964 477.572 477.635 477.449 480.687 484.861 489.626 494.605 496.398 497.164 495.302 499.927 506.328 510.758 515.338 517.690 521.052 526.994 541.215 553.702 563.818 573.074 580.121 593.236 598.817 601.405 607.685 622.555 625.237 623.748 622.144 610.276 602.218 592.818 589.507 593.170 589.145 601.619 616.250 617.674 625.403 627.647 620.668 613.717 611.668 618.943 632.854 648.245 657.578 661.048 661.375 663.840 664.819 667.732 673.370 675.663 675.179 677.651 685.853 691.125 693.389 697.538 703.704 711.049 714.426 714.273 718.450 725.266 725.182 716.038 718.894 723.028 723.597 721.031 711.724 710.860 711.023 710.092 713.461 703.456 710.715 712.125 728.924 730.744 743.937 754.596 768.139 803.458 814.301 820.787 821.191 814.982 815.327 763.307 761.787 752.362 740.436
1775.076 1765.272 1758.876 1751.744 1743.443 1737.703 1732.863 1727.012 1725.346 1722.954 1721.818 1720.773 1719.922 1719.283 1718.059 1716.044 1714.206 1713.885 1713.199 1711.809 1709.753 1707.452 1707.508 1707.906 1707.163 1708.303 1711.975 1711.834 1711.996 1708.058 1695.103 1688.719 1687.802 1686.261 1681.271 1673.182 1664.722 1657.796 1657.242 1658.574 1648.980 1627.494 1612.200 1596.713 1582.346 1568.425 1555.457 1541.074 1526.133 1514.322 1502.435 1488.182 1478.585 1466.390 1454.211 1445.767 1436.316 1427.037 1417.948 1410.737 1400.573 1395.548 1387.872 1378.944 1370.829 1361.478 1342.437 1319.809 1305.661 1287.290 1280.052 1268.218 1255.662 1244.465 1237.523 1232.403 1225.753 1219.652 1215.343 1210.994 1203.858 1198.579 1191.691 1187.692 1182.534 1178.580 1172.618 1169.385 1166.412 1159.464 1154.964 1150.992 1146.626 1143.334 1138.531 1126.453 1114.720 1109.182 1098.720 1088.303 1079.486 1073.963 1068.815 1064.260 1060.102 1056.060 1051.925 1049.350 1045.675 1042.464 1040.400 1038.585 1036.851 1033.524 1030.403 1024.384 1023.168 1020.732 1017.866 1016.302 1013.898 1009.752 1004.840 998.800 995.334 992.155 990.505 988.642 986.703 984.589 982.337 973.686 965.624 965.868 963.842 961.151 958.229 957.880 957.983 956.875 955.425 953.485 952.452 950.637 952.266 951.344 952.732 956.326 959.958 963.505 961.075 958.165 954.091 945.366 941.232 939.469 933.995 933.571 927.243 920.263 913.094 910.020 905.582 901.225 897.765 893.424 889.473 884.621 883.358 874.498 869.298 860.290 850.952 847.428 850.260 848.791 847.014 843.786 837.192 829.227 816.702 804.499 798.197 792.450 783.779 781.861 773.045 756.505 740.676 730.842 718.145 706.492 697.429 683.856 671.075 660.190 655.201 650.975 648.229 643.389 645.044 646.666 644.001 643.688 647.839 638.832 635.176 636.875 635.818 627.787 617.441 612.908 611.615 602.569 597.095 589.547 581.687 576.794 575.298 573.746 572.525 568.048 565.529 559.731 553.586 548.323 542.943 537.617 532.030 524.504 518.336 520.860 523.609 527.223 521.526 521.243 519.495 518.270 513.611 509.472 500.842 490.424 482.102 479.940 477.063 471.132 467.296 459.214 459.143 467.334 470.983 472.551 473.051 479.833 480.543 482.144 483.516 478.552 483.418 491.172 498.489 503.771 505.797 508.454 500.457 506.804 510.182 515.251 520.865 525.538 534.268 540.574 553.629 564.162 576.339 584.376 596.761 613.647 610.253 611.284 619.185 630.135 639.230 639.483 632.676 624.138 622.501 608.638 600.954 603.274 604.968 604.122 622.125 626.422 632.057 638.694 634.199 625.926 623.556 627.056 640.803 656.342 669.545 672.570 669.309 669.511 673.876 681.617 688.938 694.612 692.740 689.399 695.572 704.171 707.996 712.076 715.474 721.772 723.961 724.095 730.936 738.078 741.270 745.410 743.328 736.705 735.289 732.792 731.963 734.887 730.409 736.352 741.834 747.961 748.927 749.609 757.432 762.022 774.674 796.783 809.397 816.917 820.315 834.717 835.127 830.984 834.979 829.866 830.902 832.188 831.788
1783.818 1775.131 1766.289 1755.897 1748.398 1742.523 1735.486 1729.403 1726.762 1725.024 1725.264 1723.415 1720.203 1717.933 1714.508 1716.560 1711.638 1711.411 1710.853 1710.138 1708.161 1704.617 1704.826 1704.325 1703.707 1704.026 1707.979 1710.053 1709.454 1700.988 1690.952 1689.863 1690.608 1690.016 1683.945 1674.763 1665.649 1657.415 1655.525 1656.950 1648.589 1630.006 1613.918 1597.874 1583.366 1568.201 1554.683 1541.047 1527.273 1516.266 1503.054 1494.300 1480.731 1468.972 1457.657 1447.728 1439.171 1429.834 1421.474 1411.762 1405.685 1396.224 1388.449 1379.670 1372.423 1357.378 1341.872 1321.010 1307.214 1294.339 1285.367 1266.424 1257.147 1248.910 1242.906 1238.581 1229.762 1225.262 1223.351 1216.096 1210.044 1204.227 1198.272 1192.419 1187.437 1182.413 1175.205 1168.143 1158.463 1156.891 1149.105 1146.579 1144.097 1134.055 1122.547 1111.983 1102.227 1095.963 1089.256 1080.238 1069.939 1066.326 1062.378 1058.109 1052.548 1048.892 1043.929 1043.093 1041.701 1039.304 1036.808 1034.887 1032.852 1029.537 1024.470 1020.419 1019.699 1012.432 1006.959 1003.403 999.784 1003.841 997.550 993.141 987.770 986.460 984.359 981.581 981.128 979.097 973.638 970.007 975.444 974.739 973.117 968.912 965.338 964.323 966.953 965.506 961.801 960.871 959.831 957.268 957.472 957.152 954.458 958.580 960.148 955.654 951.875 943.817 941.669 933.808 925.309 925.528 918.747 923.209 915.709 911.310 907.235 904.548 903.350 901.041 899.102 894.369 890.224 878.478 870.642 864.838 853.540 844.869 837.242 831.731 836.620 835.841 831.520 829.824 827.109 816.325 808.557 799.075 793.574 788.392 779.774 773.900 767.479 760.822 752.179 746.607 735.739 727.200 712.587 693.449 680.611 669.737 662.554 661.867 658.757 653.070 647.380 642.073 634.526 630.257 631.341 633.250 631.050 630.534 630.598 621.849 616.768 613.893 610.814 603.259 593.006 586.917 582.325 577.930 576.758 576.434 573.376 569.327 566.516 560.001 552.664 546.748 540.384 532.832 526.122 529.556 526.502 528.881 531.552 533.096 530.751 526.975 522.505 520.978 516.105 510.391 500.389 491.077 483.704 480.673 477.925 476.342 467.095 458.701 464.567 468.434 471.475 477.504 478.788 483.109 485.133 484.575 486.066 484.429 490.829 497.800 509.221 513.885 516.539 518.459 506.931 516.522 515.874 518.127 527.201 533.032 545.972 556.366 567.051 575.593 587.115 599.444 609.039 617.295 618.114 620.136 627.701 638.600 650.611 653.143 644.396 643.295 635.605 630.875 625.035 619.217 617.461 615.845 624.070 636.610 643.362 646.564 646.805 639.131 634.688 634.218 646.746 662.378 675.349 681.406 681.377 680.675 685.853 696.488 705.312 708.199 709.062 710.365 711.943 716.120 722.907 728.392 727.638 735.237 737.976 738.263 748.848 756.159 759.823 759.283 761.582 753.971 748.016 746.297 747.494 747.523 746.828 749.786 759.444 762.296 770.726 774.628 773.361 782.302 803.639 830.443 831.938 845.306 849.620 856.143 857.119 858.443 867.556 874.900 884.213 888.020 884.281
1793.756 1783.733 1772.890 1763.640 1754.537 1745.956 1740.751 1735.043 1729.354 1730.791 1729.946 1728.322 1725.801 1722.642 1719.180 1716.733 1714.767 1712.605 1709.900 1706.042 1704.743 1702.442 1702.040 1700.432 1700.217 1699.106 1704.310 1707.309 1708.949 1698.336 1687.466 1687.509 1687.552 1687.421 1683.469 1678.052 1668.179 1659.538 1654.587 1654.491 1656.954 1637.902 1620.619 1604.870 1590.379 1576.036 1562.470 1548.431 1536.200 1521.840 1510.748 1498.924 1487.879 1473.419 1466.066 1455.848 1445.423 1434.938 1425.798 1415.298 1405.601 1395.450 1384.965 1374.760 1363.959 1348.715 1333.541 1319.988 1309.588 1301.650 1285.442 1270.090 1259.866 1255.384 1251.338 1247.978 1239.771 1235.779 1230.094 1223.219 1217.326 1210.209 1203.445 1197.323 1192.055 1186.246 1178.054 1173.404 1165.020 1158.935 1155.688 1148.795 1139.409 1137.623 1131.252 1122.285 1112.258 1105.170 1096.986 1088.734 1076.306 1068.761 1061.802 1056.540 1053.720 1050.302 1048.428 1043.919 1038.338 1037.189 1033.867 1031.501 1029.594 1031.529 1030.981 1029.408 1027.339 1024.332 1020.646 1017.748 1011.936 1004.299 995.287 992.349 994.113 991.512 991.771 989.501 986.155 983.897 982.128 979.831 978.680 977.807 976.814 974.193 971.294 969.993 968.769 967.623 967.261 969.536 967.930 964.623 962.517 958.062 951.097 952.427 946.354 942.775 936.752 930.300 925.743 921.752 914.867 909.294 903.745 907.495 909.655 907.077 900.925 895.015 892.654 889.501 885.795 885.705 881.285 868.422 855.937 850.634 841.723 831.912 823.393 820.661 824.894 825.065 817.317 818.279 815.462 807.246 797.986 792.733 787.341 783.434 772.941 765.278 762.712 757.717 748.774 743.379 740.328 736.986 727.331 721.495 702.184 688.399 681.944 669.730 662.877 655.941 650.147 649.984 645.214 637.037 629.312 622.636 629.030 629.168 626.099 622.419 616.358 612.995 607.747 597.828 591.965 587.653 584.268 582.358 579.464 576.741 573.110 570.624 566.894 560.881 548.671 539.072 534.864 533.841 533.181 541.386 540.451 538.042 538.420 535.230 530.483 525.606 521.757 519.011 513.990 506.443 499.231 494.585 492.894 493.640 489.265 477.817 468.650 459.869 469.530 475.509 479.092 485.307 487.099 487.436 486.788 488.646 490.174 491.220 500.449 509.365 517.937 521.487 520.631 517.484 515.095 522.760 523.307 526.281 536.636 542.589 555.383 566.244 579.620 587.861 598.521 604.639 609.513 614.957 621.974 626.945 631.578 640.448 651.087 662.256 658.207 657.530 650.232 649.816 645.493 636.355 633.959 633.782 633.519 647.583 655.449 657.793 660.831 651.964 643.801 644.764 655.313 669.904 682.995 688.190 692.013 695.219 710.353 720.733 723.416 725.118 729.065 731.694 735.153 730.592 737.339 742.262 742.927 747.651 751.654 761.736 771.234 771.917 776.682 774.718 776.345 769.493 761.482 760.470 763.078 762.446 760.716 758.583 766.193 776.846 787.700 789.299 798.883 811.606 837.113 845.647 848.566 854.404 861.005 869.424 874.827 881.740 888.263 892.464 899.951 908.138 905.685
1814.320 1794.812 1782.380 1770.170 1761.353 1755.444 1746.133 1738.881 1737.571 1739.341 1738.206 1736.976 1732.577 1728.986 1724.190 1722.168 1719.740 1716.528 1712.946 1709.870 1706.584 1705.944 1703.633 1704.306 1703.615 1698.719 1701.954 1706.602 1705.465 1693.473 1685.490 1684.275 1683.246 1683.373 1680.179 1674.331 1667.648 1659.535 1653.599 1653.050 1652.885 1654.220 1641.391 1618.595 1604.156 1588.010 1570.391 1554.261 1540.627 1528.938 1518.103 1504.951 1493.090 1482.183 1475.658 1461.996 1450.173 1437.724 1429.983 1421.457 1409.924 1397.213 1384.503 1372.613 1362.232 1352.684 1343.519 1332.466 1321.776 1312.253 1305.279 1293.809 1275.955 1264.639 1261.849 1257.875 1247.117 1244.277 1238.920 1231.221 1225.618 1216.537 1210.558 1204.175 1196.787 1190.455 1183.406 1176.749 1168.172 1164.872 1159.365 1153.594 1149.300 1143.508 1134.054 1124.008 1118.455 1109.052 1096.547 1087.381 1078.886 1072.064 1066.232 1060.670 1056.102 1051.995 1048.604 1046.392 1040.901 1038.449 1037.537 1036.540 1035.557 1037.630 1037.012 1035.496 1032.648 1029.365 1026.232 1022.094 1018.190 1011.867 1006.540 1001.874 997.356 1000.687 994.756 987.552 989.657 985.628 985.639 985.499 985.559 984.489 983.374 980.065 976.987 972.993 970.852 970.066 971.612 971.775 962.434 954.605 950.156 944.331 940.570 937.499 933.096 926.722 921.901 915.759 910.433 903.371 900.544 896.072 892.674 891.812 892.413 895.986 890.241 885.234 882.847 877.397 872.397 870.073 866.302 858.979 852.019 848.287 837.137 826.216 818.409 812.778 814.181 812.877 804.215 800.824 802.460 794.871 790.988 784.749 781.031 778.111 767.220 758.023 756.520 753.736 747.493 744.682 743.245 741.389 732.641 726.586 702.716 688.910 683.805 676.449 665.752 658.083 655.467 652.293 644.259 637.384 632.037 625.868 616.324 624.379 621.575 617.394 616.806 608.365 602.148 596.079 588.493 586.284 586.682 583.424 581.764 579.057 574.222 572.150 566.697 555.576 547.774 553.173 548.488 548.268 547.068 549.450 544.773 539.092 535.354 531.994 529.699 525.326 521.261 518.440 513.786 506.592 501.736 502.801 499.201 486.618 479.064 474.632 463.442 462.002 475.067 482.010 486.588 492.952 493.280 492.260 488.547 493.115 494.869 498.511 507.445 518.871 528.483 527.123 528.121 519.129 521.281 524.852 526.948 531.839 536.696 550.264 561.125 571.004 584.057 593.081 598.941 604.781 608.746 615.320 621.809 630.464 636.089 643.055 652.608 664.476 672.196 668.180 662.045 662.815 656.613 653.215 648.990 649.840 645.357 656.253 669.010 671.042 672.739 664.608 654.781 654.409 665.889 674.985 689.699 700.475 704.319 711.759 722.545 730.864 736.345 738.724 743.875 746.222 745.400 749.627 753.009 757.948 766.575 775.392 786.903 801.916 808.518 802.879 797.481 791.230 792.646 787.246 791.338 785.597 778.593 779.992 778.416 789.953 796.109 809.472 818.963 821.278 826.024 830.640 845.515 858.467 865.321 870.843 875.096 881.448 888.896 897.388 913.930 918.929 919.573 917.715 918.254
1828.677 1813.480 1797.312 1780.645 1771.242 1762.479 1754.663 1750.832 1752.156 1752.006 1751.099 1748.773 1743.246 1737.663 1733.664 1731.142 1727.323 1722.798 1718.250 1714.614 1711.592 1707.883 1705.819 1708.714 1707.642 1699.077 1697.523 1702.549 1702.181 1689.703 1684.518 1683.205 1682.479 1681.744 1678.648 1670.768 1663.197 1657.503 1652.611 1651.148 1649.440 1648.174 1649.776 1653.804 1620.457 1597.402 1580.259 1567.793 1555.606 1536.721 1524.013 1515.628 1503.233 1489.932 1480.518 1469.225 1456.448 1446.820 1437.249 1424.067 1412.187 1402.357 1390.775 1381.733 1372.714 1362.164 1360.994 1347.359 1334.370 1325.618 1323.795 1313.998 1295.478 1277.158 1273.596 1267.830 1256.995 1254.285 1247.551 1240.385 1232.676 1223.892 1217.379 1210.198 1202.662 1195.044 1187.682 1182.062 1177.199 1170.850 1167.189 1161.667 1156.451 1149.586 1144.648 1132.245 1128.256 1116.835 1102.433 1092.633 1085.787 1078.891 1071.685 1065.711 1060.554 1055.470 1051.822 1047.519 1045.289 1043.701 1042.081 1040.814 1039.372 1039.111 1039.020 1037.292 1034.048 1030.069 1027.248 1024.365 1019.945 1014.657 1009.381 1003.965 1006.836 1006.533 999.013 994.166 989.018 990.249 993.942 992.776 991.675 989.594 986.182 983.120 978.744 975.448 973.324 973.326 966.517 958.649 949.056 942.463 937.628 933.582 930.693 928.319 924.705 920.658 916.454 911.296 905.378 899.665 892.165 885.896 884.349 880.032 876.517 886.259 885.094 881.888 879.595 869.172 861.538 857.293 852.979 852.385 848.567 841.444 833.052 821.381 813.624 807.404 808.750 804.256 793.997 790.986 790.623 783.001 779.165 777.478 772.373 769.477 758.792 754.096 750.904 747.440 746.747 745.014 743.464 739.709 731.226 724.788 701.668 689.195 687.575 693.217 674.035 667.471 668.516 665.908 651.349 637.494 631.733 626.325 613.942 613.930 612.579 612.926 609.459 599.742 595.864 592.641 587.972 584.440 583.690 582.622 579.765 579.968 577.738 573.979 563.938 559.532 563.781 557.986 556.962 557.463 554.683 545.718 539.875 538.085 537.054 531.491 526.873 521.920 519.335 515.993 512.382 508.313 505.667 500.462 494.209 483.591 473.058 467.922 462.380 468.738 479.260 487.456 492.467 492.812 493.437 491.753 496.582 501.375 502.386 510.509 514.059 523.839 531.026 527.058 526.314 523.196 523.179 526.245 528.658 533.197 540.794 552.676 565.563 574.356 583.325 588.638 596.001 601.518 607.106 614.508 622.636 632.342 639.715 647.070 656.506 668.180 679.734 679.939 674.959 674.491 667.862 661.709 662.329 662.380 657.069 664.785 679.408 684.344 685.686 675.981 668.122 663.310 677.741 685.319 696.413 711.610 717.361 723.799 733.638 744.857 752.510 753.818 758.716 760.216 759.492 764.689 769.024 784.126 790.344 801.813 804.703 809.757 821.094 820.878 822.458 825.398 824.602 823.252 824.608 821.599 809.289 805.680 815.183 818.550 819.498 825.421 834.279 835.964 838.349 843.162 850.444 865.057 877.080 884.094 893.016 904.227 908.312 919.486 937.420 934.531 934.279 931.447 927.804
1834.701 1822.458 1807.402 1793.117 1780.630 1769.760 1766.604 1765.707 1764.120 1764.517 1762.349 1758.845 1754.503 1750.467 1746.220 1743.695 1736.821 1730.513 1725.324 1718.312 1715.913 1710.789 1710.000 1711.259 1707.106 1700.518 1697.082 1698.218 1695.225 1687.719 1683.562 1682.009 1681.395 1681.109 1676.681 1671.061 1663.629 1655.501 1650.832 1647.362 1645.162 1643.808 1644.179 1647.974 1651.649 1651.099 1596.722 1581.962 1566.168 1548.616 1535.281 1520.746 1508.238 1501.501 1498.734 1485.486 1468.459 1457.855 1442.140 1430.186 1418.079 1407.559 1401.199 1393.824 1379.422 1378.375 1374.995 1364.071 1354.970 1342.679 1345.614 1329.455 1301.413 1290.179 1284.862 1275.799 1268.724 1265.018 1256.292 1247.223 1238.606 1229.791 1223.470 1216.696 1208.956 1201.428 1192.238 1189.602 1185.726 1180.222 1174.549 1169.262 1162.389 1154.763 1146.786 1139.165 1135.999 1121.909 1108.193 1100.297 1091.969 1085.138 1077.586 1070.782 1065.643 1061.656 1057.007 1053.001 1050.018 1047.500 1045.831 1043.414 1040.856 1038.595 1035.567 1032.793 1030.131 1026.238 1021.737 1017.919 1013.877 1011.024 1009.399 1007.928 1005.931 1003.230 999.600 996.225 995.031 996.309 996.944 994.774 993.662 992.716 988.264 984.860 980.242 978.905 977.188 965.543 954.199 948.525 942.189 936.957 931.847 926.405 922.501 923.021 921.011 915.412 911.514 905.546 901.884 895.018 887.167 881.601 877.089 875.471 871.000 870.634 876.831 876.464 875.658 864.189 857.017 851.617 843.955 840.320 837.962 834.965 827.613 815.507 807.026 800.969 799.200 796.665 788.682 786.425 783.770 774.046 769.107 768.109 763.458 759.635 751.893 748.774 746.026 743.229 742.580 742.984 740.165 737.012 732.477 726.474 717.799 712.200 705.178 686.796 680.844 684.466 683.584 675.734 662.454 653.483 654.124 643.274 630.188 615.364 607.533 601.766 599.267 602.468 596.170 590.553 586.146 583.137 583.377 582.395 577.502 579.401 577.606 573.096 561.523 571.030 568.572 565.743 561.070 554.726 549.928 544.104 538.487 537.007 533.450 530.449 525.539 520.308 516.638 513.099 508.070 505.736 502.820 496.837 491.880 487.763 473.040 465.982 467.250 470.788 480.783 493.572 492.603 493.518 492.665 492.602 501.637 503.198 508.647 513.905 518.323 529.192 536.703 526.672 524.993 525.332 525.625 527.200 530.214 534.807 545.008 558.680 567.408 574.381 582.830 586.873 597.186 604.855 612.062 619.633 627.392 638.312 645.210 652.596 659.154 670.475 680.837 690.692 686.031 683.081 679.114 676.663 674.785 675.296 670.337 675.602 685.398 697.756 696.824 688.159 681.930 674.519 687.484 696.186 700.141 713.639 729.557 749.404 774.242 768.389 788.446 791.585 791.037 792.870 797.747 807.776 815.565 820.990 822.065 854.225 848.929 832.322 849.697 838.541 841.166 842.955 843.227 840.130 841.156 838.832 833.522 836.018 837.113 841.967 836.802 840.295 846.647 848.658 851.930 859.086 861.019 861.872 933.894 948.618 958.792 971.340 968.386 959.844 951.169 948.614 947.781 943.336 938.142
1839.093 1826.853 1813.613 1799.091 1790.238 1781.910 1776.525 1772.487 1772.618 1771.481 1768.067 1765.597 1762.291 1759.206 1755.831 1751.985 1747.166 1741.123 1733.086 1727.819 1721.940 1717.388 1715.838 1715.336 1707.443 1700.219 1698.320 1697.004 1693.303 1687.831 1685.812 1684.285 1681.444 1676.696 1673.775 1668.542 1662.466 1656.379 1649.953 1645.156 1642.984 1641.293 1640.345 1641.880 1643.939 1645.732 1640.281 1636.570 1572.774 1556.577 1544.487 1535.230 1524.900 1512.881 1500.772 1490.864 1479.429 1472.244 1461.993 1437.598 1425.643 1420.164 1412.565 1397.918 1395.198 1391.714 1388.173 1380.454 1373.019 1362.526 1350.656 1335.924 1318.967 1304.787 1293.260 1285.024 1282.102 1275.210 1265.531 1255.074 1246.578 1238.040 1233.286 1226.075 1218.047 1208.948 1198.866 1200.099 1194.833 1189.668 1183.416 1176.896 1169.749 1161.424 1153.412 1145.719 1139.534 1132.009 1117.025 1108.130 1099.022 1089.547 1081.385 1077.165 1073.044 1066.833 1062.206 1057.269 1055.196 1053.594 1051.337 1048.087 1044.502 1041.115 1037.051 1034.302 1030.948 1027.271 1022.555 1017.269 1014.367 1012.023 1010.788 1008.285 1006.616 1003.374 1000.533 1000.261 1000.038 997.949 998.622 998.170 995.889 993.292 989.794 986.333 981.279 973.241 967.442 957.413 949.328 940.106 936.217 930.959 926.743 921.181 917.191 918.223 915.125 908.541 902.822 899.605 895.924 889.520 882.439 876.037 872.742 872.308 871.027 866.079 862.354 862.285 865.249 856.108 851.664 845.825 837.277 829.797 829.312 825.553 816.765 809.006 804.352 799.155 792.958 791.260 788.355 782.294 776.873 767.281 762.013 758.278 756.730 753.767 751.217 749.563 748.441 747.373 743.874 740.588 737.092 733.349 729.992 722.117 714.447 708.598 702.291 695.360 690.595 687.073 682.484 678.577 673.589 670.652 666.138 659.920 651.458 637.130 625.335 615.673 604.345 599.211 598.437 604.882 600.883 588.106 584.861 581.958 574.638 573.626 568.219 566.477 574.406 576.762 570.007 560.010 554.550 551.219 546.857 542.786 538.452 535.463 531.778 530.017 524.949 520.063 516.371 513.627 509.948 504.893 501.192 494.290 489.268 483.201 472.899 465.527 469.914 472.603 483.047 486.466 491.627 494.614 493.068 497.953 501.732 506.746 512.866 520.044 530.721 536.491 539.484 536.640 532.745 527.492 528.563 530.232 533.024 536.835 548.866 559.888 569.230 577.461 584.729 593.489 599.284 608.692 618.748 627.407 635.441 643.352 651.356 659.854 665.105 673.726 684.562 695.274 694.615 690.585 691.760 689.877 690.273 687.973 681.529 693.892 694.887 707.346 709.290 703.396 712.612 688.378 691.503 702.793 721.786 739.731 755.063 770.906 781.569 790.484 797.668 802.817 807.151 810.589 817.017 828.510 837.105 844.926 851.240 864.976 873.327 876.719 878.961 886.212 879.046 859.190 861.980 857.564 856.034 855.557 850.796 853.112 855.094 853.094 852.341 853.886 861.296 864.166 867.587 871.486 877.394 950.805 966.779 972.934 982.054 989.254 991.422 992.095 990.555 962.908 961.638 954.029 948.711
1839.552 1832.834 1822.835 1811.459 1800.958 1791.238 1783.450 1778.114 1777.040 1775.103 1772.505 1769.635 1766.746 1764.445 1760.910 1757.518 1754.619 1749.393 1744.174 1735.879 1731.113 1725.230 1723.713 1718.211 1707.664 1702.697 1698.123 1694.782 1689.240 1688.087 1687.301 1684.388 1682.538 1678.963 1673.901 1666.286 1659.138 1652.931 1648.616 1644.442 1642.314 1640.191 1638.112 1637.782 1638.491 1639.513 1638.777 1634.219 1624.395 1600.299 1566.498 1547.912 1532.190 1519.501 1508.138 1499.535 1485.427 1475.497 1463.789 1445.497 1445.048 1430.441 1418.274 1414.522 1411.266 1405.605 1398.771 1389.463 1377.290 1362.882 1347.950 1334.543 1325.726 1312.783 1315.345 1302.380 1292.669 1282.288 1270.823 1265.234 1254.386 1247.954 1244.959 1234.938 1226.126 1220.479 1213.960 1210.246 1204.309 1199.193 1192.746 1186.026 1178.888 1169.217 1162.141 1154.115 1145.777 1134.902 1124.384 1114.828 1106.886 1100.032 1091.758 1086.309 1081.182 1074.795 1069.985 1065.951 1064.919 1062.694 1059.250 1055.531 1052.100 1047.838 1043.416 1038.898 1035.234 1030.980 1025.863 1020.231 1017.662 1015.963 1014.823 1014.715 1012.021 1009.040 1006.948 1009.455 1007.805 1006.103 1004.134 1000.651 998.476 995.514 988.014 979.509 972.072 964.203 957.462 949.079 940.553 932.479 928.957 925.416 919.932 917.275 914.867 911.695 908.545 902.483 898.138 894.434 889.371 882.116 875.604 870.765 867.505 864.051 863.931 862.491 857.395 849.215 845.138 838.898 839.111 843.092 833.522 825.606 820.247 816.398 809.191 804.317 801.117 794.349 788.942 784.083 782.564 777.920 770.535 761.735 757.986 754.583 752.989 750.264 749.489 748.030 746.234 745.119 743.345 739.357 733.807 728.466 724.688 717.046 710.753 705.225 698.607 694.475 689.495 686.473 681.581 678.078 673.364 669.376 663.811 657.494 652.184 645.785 640.430 633.051 625.027 619.148 613.259 607.546 601.687 595.177 587.782 583.416 579.665 577.759 577.559 578.379 582.096 576.090 568.601 560.922 554.010 550.282 545.475 539.824 536.730 535.870 531.442 529.190 525.957 522.406 517.522 514.291 509.058 504.210 499.207 490.283 488.691 482.208 473.865 467.578 478.604 487.364 487.925 494.982 502.796 499.963 497.747 503.409 510.948 519.488 522.936 527.320 532.814 537.188 537.502 538.605 531.704 528.686 530.693 533.404 534.483 543.889 553.943 565.507 576.007 582.058 590.375 596.313 604.459 614.829 625.402 632.801 641.474 648.250 656.578 663.043 669.248 674.206 688.198 698.662 702.011 698.568 698.916 703.291 703.479 699.236 694.533 702.560 710.276 720.436 725.349 719.124 734.392 728.137 710.810 716.640 730.849 741.317 759.961 772.149 786.651 799.128 808.491 813.607 820.572 827.182 832.697 844.188 853.721 863.070 867.403 879.922 885.705 890.255 894.124 902.443 901.179 882.279 877.961 873.612 871.756 872.620 871.455 881.038 882.201 875.883 871.456 876.304 886.063 891.505 905.275 937.149 968.312 977.275 988.539 993.526 998.223 1003.994 1004.848 1005.257 1005.596 1003.281 1001.062 995.927 996.158
1841.636 1836.824 1829.217 1819.749 1809.038 1798.756 1789.578 1781.849 1781.478 1778.898 1775.670 1772.354 1771.167 1768.975 1765.691 1763.875 1761.265 1755.450 1750.849 1744.448 1740.779 1736.596 1731.167 1721.275 1711.584 1706.093 1700.693 1695.141 1692.869 1690.287 1687.033 1684.077 1682.283 1678.362 1671.241 1663.766 1657.863 1652.097 1643.866 1641.702 1640.339 1638.798 1635.333 1634.410 1634.079 1634.467 1633.324 1630.687 1625.023 1608.508 1578.730 1566.460 1542.592 1533.515 1517.103 1502.063 1491.190 1479.331 1466.904 1458.812 1453.638 1441.341 1435.219 1429.957 1425.205 1416.178 1405.083 1390.124 1378.117 1369.474 1354.001 1352.656 1333.594 1338.181 1320.803 1312.173 1301.777 1308.075 1289.091 1283.272 1273.004 1262.168 1255.238 1244.347 1237.167 1235.515 1227.094 1222.532 1215.732 1209.917 1202.235 1195.227 1186.941 1178.055 1170.526 1162.371 1152.286 1140.599 1131.354 1123.772 1115.572 1109.203 1100.848 1094.517 1090.099 1084.119 1079.585 1075.649 1073.496 1070.548 1067.749 1064.387 1058.691 1053.909 1049.063 1044.814 1040.119 1035.324 1029.404 1025.121 1023.238 1021.103 1020.794 1017.494 1014.715 1014.492 1014.049 1014.696 1013.746 1010.080 1005.666 1001.502 994.836 987.824 980.034 973.656 966.476 957.965 950.345 941.571 934.025 926.348 923.257 918.289 915.272 913.621 910.104 906.363 904.482 901.676 897.420 891.541 885.528 877.711 870.555 864.511 859.557 855.625 854.849 850.986 850.009 844.135 837.926 832.712 830.432 826.218 822.220 820.610 809.302 807.271 802.870 800.414 797.258 793.760 784.904 781.317 779.431 774.906 765.146 755.636 753.283 752.572 750.657 747.292 746.596 745.598 743.450 742.675 739.566 736.436 731.665 724.778 721.335 715.065 709.671 703.400 698.219 693.058 687.625 686.057 681.555 675.862 670.952 666.329 662.910 656.150 650.236 644.611 637.642 630.758 625.011 617.453 610.980 605.814 601.670 597.824 593.167 589.887 589.745 585.791 589.321 590.811 582.246 574.789 567.874 561.226 553.026 548.267 544.921 540.574 538.719 535.216 531.262 527.183 525.166 517.104 513.492 513.249 509.204 502.526 498.833 495.732 488.220 481.660 478.728 472.601 473.453 488.882 491.122 498.526 502.141 501.212 504.883 512.355 522.316 523.622 525.436 528.571 532.595 536.268 535.785 533.962 528.146 528.490 530.604 533.524 540.108 546.121 561.431 571.489 583.125 590.157 595.904 602.890 612.981 620.837 630.220 640.627 649.458 658.582 662.313 668.901 673.872 681.887 693.743 703.702 709.812 710.467 712.095 716.369 713.716 715.326 709.625 713.703 726.718 734.813 741.692 743.145 748.762 750.054 746.214 734.262 742.945 750.689 759.892 772.880 787.294 803.776 817.495 826.005 836.708 843.506 852.804 858.029 874.560 902.345 897.886 901.813 903.545 907.678 911.070 923.443 930.647 924.538 902.850 895.665 888.624 888.370 891.779 897.999 896.800 891.589 886.845 891.278 914.303 929.140 1045.741 1027.907 1040.181 1021.142 1028.797 1027.617 1028.729 1030.730 1025.509 1023.541 1020.636 1017.439 1015.827 1013.227 1008.589
1843.096 1838.499 1830.002 1821.455 1813.508 1802.874 1793.473 1789.184 1786.105 1782.365 1778.086 1776.310 1774.368 1772.997 1770.814 1768.373 1764.004 1761.029 1757.334 1752.585 1750.061 1744.145 1736.671 1730.517 1720.900 1716.355 1709.825 1706.087 1702.339 1699.132 1694.066 1686.233 1682.715 1676.944 1669.739 1662.775 1655.667 1648.135 1641.404 1637.179 1636.311 1635.350 1631.241 1629.729 1628.609 1627.897 1626.863 1624.655 1618.629 1610.487 1602.945 1587.890 1563.513 1548.951 1530.362 1511.595 1497.598 1485.710 1478.767 1477.014 1461.540 1451.438 1448.223 1447.383 1433.825 1420.115 1409.096 1398.445 1393.062 1375.729 1381.446 1362.437 1355.907 1343.767 1328.826 1324.935 1330.641 1319.196 1305.108 1298.882 1285.440 1274.991 1266.260 1263.844 1261.919 1249.635 1239.528 1233.456 1228.395 1221.334 1212.409 1206.195 1197.417 1188.889 1181.054 1170.176 1161.134 1152.497 1141.788 1134.082 1126.307 1119.235 1111.396 1104.646 1101.654 1098.011 1093.333 1088.725 1084.706 1080.379 1076.755 1072.209 1067.167 1061.773 1057.218 1053.234 1046.387 1037.881 1032.581 1028.809 1026.549 1023.347 1020.396 1018.971 1021.049 1020.858 1020.622 1021.146 1017.765 1012.276 1005.372 1001.188 990.219 981.967 974.809 966.235 957.647 950.273 943.163 934.440 927.039 919.760 916.467 911.804 908.770 909.002 906.459 905.438 904.007 901.627 895.588 890.779 881.844 872.074 867.249 859.129 852.776 850.774 851.162 845.992 840.346 838.306 832.391 828.950 826.213 822.579 821.235 814.256 804.216 801.713 796.958 794.556 793.190 792.327 782.400 777.247 775.878 770.761 760.899 754.393 751.664 750.845 748.792 745.936 744.375 744.041 740.351 738.405 735.444 733.237 730.100 724.647 719.688 712.967 704.013 698.755 695.549 690.668 687.646 685.657 680.061 674.003 669.494 663.926 657.861 655.188 649.195 642.577 636.158 631.995 624.047 615.460 609.581 606.263 601.607 599.982 599.037 600.213 594.997 592.896 593.745 590.248 582.419 576.635 567.275 561.586 555.434 551.166 545.005 540.393 537.086 535.383 531.004 523.714 526.203 524.519 522.398 514.312 510.248 504.833 499.685 496.948 490.668 486.914 483.444 478.019 471.325 485.101 498.820 501.999 500.865 503.802 514.618 516.769 520.386 528.040 527.792 531.191 533.172 535.000 533.636 529.058 528.806 529.472 531.787 538.613 539.765 552.065 567.257 578.230 587.189 594.302 599.789 606.938 616.934 626.166 638.120 644.899 654.234 661.502 667.268 672.505 680.253 686.656 699.465 706.842 714.798 719.998 724.335 725.852 729.157 730.682 724.392 731.872 743.342 750.475 756.922 761.613 764.654 766.272 765.283 770.244 759.475 763.935 766.013 779.003 800.398 813.975 833.779 842.866 854.786 864.910 876.216 896.277 908.645 915.806 916.778 923.353 923.219 928.072 931.829 942.646 949.710 956.760 939.762 925.152 915.263 907.918 907.982 914.770 908.492 901.752 903.616 921.841 954.016 1071.894 1075.187 1076.869 1074.679 1061.958 1060.003 1058.920 1053.934 1050.656 1048.327 1046.422 1042.204 1037.255 1034.218 1027.915 1022.321
1843.396 1836.701 1828.995 1820.999 1816.550 1809.445 1802.230 1794.832 1790.240 1786.239 1783.562 1781.693 1779.255 1777.115 1774.697 1769.596 1770.790 1768.198 1765.956 1762.761 1758.925 1751.816 1746.986 1742.578 1735.022 1728.508 1722.827 1719.622 1714.408 1709.893 1703.712 1696.444 1690.359 1684.190 1678.012 1670.386 1660.491 1651.241 1637.330 1629.960 1628.197 1628.690 1625.000 1621.188 1619.255 1619.406 1616.821 1615.184 1610.945 1609.930 1604.338 1589.089 1570.623 1553.019 1540.834 1526.888 1507.876 1505.089 1500.679 1483.184 1471.744 1475.895 1466.662 1459.309 1443.960 1431.607 1420.437 1425.407 1404.358 1403.942 1397.956 1374.227 1358.815 1347.392 1339.598 1352.329 1341.196 1331.844 1326.753 1308.256 1300.152 1293.751 1299.023 1291.748 1277.764 1259.511 1252.262 1245.953 1239.183 1231.959 1224.243 1215.479 1207.344 1198.265 1188.656 1181.355 1172.419 1161.835 1156.445 1147.478 1137.024 1129.345 1121.573 1119.490 1117.816 1114.035 1108.454 1101.041 1094.042 1087.514 1082.234 1077.108 1074.083 1070.607 1065.537 1058.308 1049.475 1043.793 1039.265 1035.171 1033.286 1029.478 1028.743 1029.616 1030.369 1030.443 1029.366 1025.499 1019.397 1011.625 1004.716 995.652 983.178 977.546 969.649 961.737 953.825 945.128 936.661 930.723 922.788 916.139 910.622 907.491 904.744 902.593 899.491 899.195 897.436 895.754 893.016 883.050 874.037 867.379 861.308 853.962 849.410 849.430 848.666 843.441 837.210 832.756 828.514 826.797 825.573 824.134 819.530 812.927 802.651 798.520 793.509 790.116 791.207 792.403 785.365 777.803 774.745 768.111 759.379 751.479 748.503 747.858 745.360 740.547 738.711 738.386 736.074 733.165 731.402 730.283 727.976 721.183 713.253 708.081 702.018 696.754 693.855 692.108 689.290 686.930 678.593 672.653 666.859 660.589 656.235 650.109 647.926 640.638 632.740 626.361 619.770 612.992 607.610 604.052 602.398 601.820 601.537 600.411 598.685 593.904 590.995 587.224 581.127 575.522 569.891 564.538 557.576 551.078 547.120 545.322 540.744 538.729 531.039 534.495 532.478 529.625 524.060 516.466 511.465 505.488 499.622 496.109 493.162 489.154 484.967 484.983 475.660 475.799 493.731 507.704 508.335 508.922 515.260 519.843 523.318 528.125 530.291 531.109 533.536 533.485 532.887 531.269 535.580 536.212 543.451 549.113 550.158 556.588 574.909 585.050 593.661 604.082 610.415 614.705 621.140 632.582 643.236 652.316 659.988 667.188 672.498 680.305 687.547 694.211 704.729 713.206 720.936 728.660 737.270 740.610 745.634 748.486 742.683 747.167 767.998 769.443 773.390 778.366 781.475 781.952 786.115 787.602 788.109 787.204 787.179 795.859 803.330 819.381 832.996 846.229 863.347 881.327 897.100 910.988 924.766 931.868 934.485 940.153 941.013 953.983 952.662 966.409 984.572 989.317 991.898 990.274 964.422 937.210 934.610 930.316 921.865 924.564 926.578 1087.394 1100.957 1100.681 1101.725 1103.187 1109.783 1107.402 1106.454 1104.982 1100.950 1094.093 1084.735 1079.404 1073.198 1071.332 1067.724 1042.482 1036.053
1839.237 1834.509 1829.463 1825.361 1821.092 1814.317 1806.166 1799.823 1794.689 1791.168 1789.011 1786.194 1782.787 1780.616 1776.213 1776.738 1776.998 1774.923 1773.032 1770.849 1767.841 1761.647 1758.829 1756.041 1749.112 1743.095 1737.027 1732.912 1726.747 1721.557 1716.736 1710.232 1703.239 1696.822 1691.771 1682.964 1676.154 1658.294 1644.940 1634.595 1624.305 1617.609 1615.336 1614.754 1610.554 1610.318 1609.118 1609.354 1607.135 1605.042 1601.208 1594.857 1582.986 1564.555 1543.796 1541.241 1524.135 1526.898 1505.766 1491.916 1495.502 1507.597 1487.194 1472.678 1464.380 1453.167 1446.979 1431.529 1426.318 1414.255 1394.180 1377.706 1367.422 1359.470 1367.958 1365.631 1354.638 1346.018 1331.968 1322.773 1318.861 1314.408 1312.037 1304.579 1284.584 1274.768 1268.050 1259.865 1253.993 1246.740 1236.682 1228.308 1216.834 1209.383 1203.404 1194.437 1192.515 1177.066 1172.889 1163.421 1152.035 1144.362 1140.208 1137.802 1130.421 1125.832 1118.764 1109.884 1104.419 1097.567 1089.698 1087.753 1082.303 1077.217 1069.793 1064.357 1056.581 1051.641 1049.045 1043.035 1042.062 1038.664 1038.491 1039.390 1037.102 1032.096 1025.649 1019.550 1015.312 1007.171 996.167 986.578 975.977 969.962 962.300 956.568 946.440 936.501 930.315 925.803 920.474 913.188 909.826 905.808 902.328 899.694 897.406 895.892 893.271 892.369 889.237 879.286 870.042 863.693 855.811 850.522 844.969 844.953 843.526 839.706 834.936 831.482 829.485 827.688 825.263 824.112 817.182 809.208 800.312 796.797 791.306 787.773 787.199 789.201 781.793 777.479 772.819 764.082 758.198 751.585 750.304 749.034 745.011 740.118 738.628 737.450 734.269 729.749 728.022 727.912 727.135 717.848 712.236 708.197 704.046 699.375 695.530 693.911 691.516 684.891 678.625 669.599 665.624 658.668 654.069 649.960 647.807 640.383 634.660 627.315 620.670 613.718 607.642 604.306 602.093 600.913 600.563 600.163 595.320 592.040 589.407 586.631 582.486 578.279 574.059 566.384 560.223 553.554 550.267 545.003 544.351 538.472 540.751 538.882 535.041 532.292 528.528 521.845 513.229 505.663 500.901 499.434 496.720 489.887 491.018 490.657 486.408 476.526 492.607 511.512 516.217 515.560 517.448 523.354 525.023 528.377 529.574 534.038 535.929 535.881 535.704 535.951 538.976 543.109 551.786 554.971 558.204 567.313 578.931 585.503 600.675 611.480 615.184 619.296 625.649 637.202 647.710 657.843 664.172 671.807 675.540 685.383 693.791 701.315 708.891 717.547 726.419 738.330 747.085 752.049 755.928 762.682 760.113 770.563 776.834 785.006 789.690 793.803 795.459 798.034 802.048 805.502 807.872 812.347 804.555 811.867 820.220 826.996 837.109 852.845 877.311 892.240 909.265 924.184 937.482 944.552 948.913 957.280 971.087 977.858 979.757 986.939 997.527 1006.062 1012.635 1029.429 1050.082 1051.154 1091.172 1118.638 1118.200 1116.418 1114.986 1116.588 1116.600 1116.298 1118.234 1120.945 1124.638 1123.029 1121.682 1120.965 1117.977 1114.083 1104.968 1096.401 1089.445 1087.069 1086.979 1082.868 1068.989
1842.787 1836.567 1832.545 1829.382 1824.907 1818.292 1811.075 1804.378 1799.955 1796.366 1793.554 1790.191 1787.190 1783.541 1783.520 1784.420 1782.904 1781.550 1779.670 1777.527 1776.034 1772.792 1769.536 1769.631 1760.872 1755.556 1748.791 1743.563 1737.225 1732.313 1727.281 1721.072 1714.195 1707.549 1699.663 1685.283 1673.624 1661.495 1649.419 1641.899 1629.532 1618.801 1611.103 1606.007 1603.376 1605.246 1604.313 1604.525 1605.039 1603.700 1600.118 1594.846 1588.933 1575.995 1565.308 1548.258 1553.723 1539.886 1521.067 1523.282 1512.419 1529.604 1504.317 1490.607 1485.897 1475.549 1460.040 1452.404 1443.557 1415.918 1398.640 1387.297 1380.378 1398.775 1399.564 1381.399 1369.083 1356.460 1346.744 1347.783 1353.320 1340.838 1325.786 1315.456 1302.604 1296.544 1280.002 1279.326 1270.555 1259.963 1248.473 1240.378 1228.503 1218.747 1217.604 1207.834 1203.464 1196.398 1190.783 1174.523 1169.848 1165.573 1157.704 1154.049 1147.573 1144.062 1134.844 1123.773 1116.344 1107.834 1100.654 1095.602 1092.035 1086.197 1081.764 1075.211 1067.584 1063.792 1058.979 1056.267 1053.056 1048.725 1046.895 1042.485 1035.742 1028.123 1021.811 1017.783 1011.341 999.070 989.042 978.517 970.330 962.619 954.792 950.466 939.087 932.088 927.149 922.954 917.424 909.936 906.870 904.020 902.204 898.974 896.935 897.183 894.780 887.927 880.520 871.733 863.457 857.187 850.819 846.125 842.368 842.146 840.593 836.996 832.353 830.026 829.241 828.928 825.571 821.430 815.307 803.788 797.930 794.679 789.165 786.936 786.290 786.524 783.604 776.799 769.202 764.346 758.505 754.643 754.005 752.967 749.572 742.163 740.076 739.161 735.358 728.354 726.769 726.821 725.449 717.976 711.983 708.563 703.197 698.957 696.713 694.233 687.909 682.162 676.433 668.876 662.137 656.332 652.345 649.758 645.050 638.054 630.866 624.906 617.958 612.135 608.310 604.592 602.220 600.323 598.925 595.819 594.735 592.283 590.165 587.384 584.310 581.236 575.619 569.693 565.659 559.755 556.402 553.460 544.859 547.296 543.008 540.005 536.058 531.321 529.959 522.552 517.037 508.324 504.602 501.226 497.662 495.657 495.953 494.474 489.308 477.213 483.478 502.042 517.847 520.606 520.569 521.943 524.469 529.154 532.629 535.339 539.991 541.171 541.327 541.106 544.540 550.234 557.099 561.439 564.091 580.838 592.788 604.585 611.664 619.403 621.383 624.806 629.923 640.483 652.027 661.955 669.867 673.821 680.215 687.849 698.924 704.880 712.627 720.509 733.084 743.897 752.527 759.482 765.919 776.149 778.503 784.272 791.405 799.332 801.600 807.894 810.849 815.971 818.005 822.208 827.339 829.631 833.111 829.416 835.891 839.286 847.732 865.054 884.876 904.136 920.222 932.680 946.965 956.572 965.619 975.496 985.180 989.989 996.917 1003.866 1008.812 1016.969 1050.175 1085.903 1109.034 1116.625 1128.734 1135.063 1134.645 1133.142 1131.348 1131.259 1131.259 1132.371 1136.131 1138.354 1138.710 1137.098 1134.796 1136.334 1132.495 1126.955 1118.269 1111.971 1106.700 1103.912 1101.692 1097.208 1094.266
1844.103 1839.702 1835.820 1832.542 1828.337 1821.753 1814.706 1808.571 1804.477 1800.790 1797.783 1794.543 1791.092 1790.630 1789.962 1789.949 1788.756 1788.359 1789.640 1786.146 1783.773 1779.706 1777.284 1775.137 1771.682 1766.944 1760.152 1753.843 1747.431 1742.246 1736.954 1729.971 1723.505 1716.445 1704.153 1683.485 1672.515 1662.026 1655.969 1645.630 1632.738 1623.473 1616.286 1607.334 1602.413 1600.742 1600.276 1601.967 1602.306 1601.581 1599.833 1596.675 1592.966 1581.981 1570.696 1559.667 1555.263 1542.366 1528.362 1556.634 1560.916 1540.677 1516.250 1507.240 1500.356 1486.026 1478.112 1468.091 1445.341 1422.162 1410.622 1403.163 1408.587 1410.346 1430.282 1414.454 1393.295 1375.796 1390.160 1388.222 1368.209 1352.783 1346.083 1336.231 1321.652 1306.261 1306.920 1297.723 1285.089 1273.819 1266.600 1250.677 1241.803 1235.813 1229.367 1220.257 1215.060 1208.864 1199.508 1192.318 1185.490 1178.889 1173.391 1170.280 1166.375 1158.190 1148.238 1137.891 1129.356 1119.903 1114.369 1106.791 1100.745 1096.306 1092.085 1086.257 1079.304 1072.771 1066.867 1059.836 1054.672 1049.045 1044.074 1039.536 1033.400 1027.896 1022.313 1015.163 1006.799 992.118 984.626 975.778 965.451 957.376 947.982 943.938 935.417 927.227 923.439 919.440 913.742 907.458 904.581 902.838 900.103 897.635 896.944 894.990 892.694 883.042 877.156 867.603 859.413 850.971 845.726 841.908 840.602 841.263 837.135 832.148 829.650 829.621 826.869 825.328 822.678 814.823 809.892 801.314 796.345 791.777 791.099 787.545 787.125 785.683 782.946 773.439 767.781 763.596 757.584 755.151 754.599 753.904 748.963 745.162 742.539 739.496 732.369 728.093 728.249 726.479 724.197 717.412 712.439 708.496 703.677 699.949 696.188 691.371 685.819 680.914 676.115 668.294 661.145 657.418 652.460 644.110 640.296 634.517 627.670 623.082 617.472 613.801 610.343 606.924 602.719 598.917 597.347 595.525 590.544 588.398 587.638 585.656 581.219 575.874 574.545 569.335 566.269 562.130 558.701 554.623 552.364 549.599 545.870 541.101 537.271 532.693 531.397 524.072 520.388 515.273 510.420 507.514 503.201 497.751 497.542 495.658 493.643 484.663 480.739 490.235 506.270 520.802 521.682 522.482 524.704 529.613 534.065 536.794 540.292 547.079 547.593 547.026 549.543 559.300 565.767 568.840 577.217 594.136 603.122 619.509 616.221 624.245 626.938 630.193 634.650 643.854 656.916 664.859 671.881 677.982 688.263 695.305 704.723 712.709 721.134 730.508 741.624 747.089 754.241 766.030 777.628 787.338 794.277 797.227 805.261 808.767 816.521 819.431 822.696 825.270 831.168 836.005 841.439 846.235 849.085 848.166 851.801 856.343 863.090 883.207 900.937 918.352 937.157 944.069 954.205 967.699 980.338 990.030 998.053 1003.756 1011.999 1022.327 1036.956 1084.969 1102.829 1112.031 1122.681 1130.281 1138.849 1146.792 1149.428 1146.490 1145.208 1147.064 1147.467 1148.055 1151.413 1152.993 1154.867 1152.610 1158.448 1152.915 1149.556 1144.330 1131.130 1132.633 1121.481 1118.219 1115.114 1110.322 1107.841
1847.391 1843.340 1838.859 1834.892 1829.772 1823.380 1817.637 1812.315 1808.161 1804.446 1800.810 1798.262 1796.766 1795.526 1795.126 1794.717 1794.580 1797.368 1795.610 1792.566 1788.513 1784.222 1780.798 1778.271 1776.683 1774.835 1770.298 1763.142 1756.059 1751.238 1745.736 1739.426 1733.789 1722.103 1702.122 1687.126 1678.250 1667.656 1657.089 1644.866 1633.726 1624.649 1618.394 1608.440 1602.900 1600.907 1599.528 1596.600 1598.145 1599.582 1599.551 1599.267 1599.485 1589.241 1579.072 1615.564 1592.970 1559.672 1597.558 1588.557 1583.073 1576.742 1555.764 1533.674 1510.305 1506.769 1492.925 1468.762 1450.310 1437.360 1426.818 1420.781 1426.223 1424.565 1444.131 1437.530 1431.049 1432.524 1417.224 1396.712 1382.078 1367.228 1357.613 1340.900 1328.621 1325.670 1318.611 1311.633 1300.400 1285.266 1275.796 1267.177 1252.953 1253.195 1243.322 1232.528 1226.220 1217.116 1208.494 1198.423 1197.924 1189.197 1181.870 1182.372 1176.923 1170.699 1161.024 1148.176 1135.097 1123.677 1116.826 1113.864 1111.612 1108.096 1103.406 1098.301 1090.471 1083.122 1073.063 1065.651 1058.628 1051.424 1044.912 1037.674 1034.468 1029.306 1020.486 1006.768 998.428 986.693 978.225 967.298 962.286 954.468 945.569 940.014 932.901 927.466 921.076 913.116 908.694 903.699 900.191 897.355 895.716 893.475 893.065 891.345 884.690 877.594 872.178 863.914 856.062 846.882 845.062 841.901 839.370 837.472 831.675 827.177 823.381 823.359 820.516 819.574 815.890 811.435 807.747 801.437 794.849 792.468 792.198 788.612 787.733 787.003 784.519 774.666 768.629 765.555 759.440 753.914 753.077 750.678 748.907 748.042 743.834 739.102 733.612 731.722 727.758 725.108 723.462 714.750 711.058 706.102 701.891 697.759 692.779 688.275 683.344 679.192 673.374 665.452 660.947 654.111 645.878 640.158 635.330 630.389 626.413 621.688 618.092 615.101 610.749 605.392 601.772 599.676 597.545 596.198 592.780 589.941 586.417 585.434 583.585 579.649 575.259 570.329 566.807 562.748 559.433 554.816 551.478 549.858 545.120 542.629 539.934 537.393 534.093 524.868 524.013 520.197 515.817 512.218 506.432 504.309 502.157 498.592 496.045 489.715 481.578 487.105 502.597 516.856 521.457 520.986 523.251 528.555 534.909 539.356 544.742 551.485 550.868 550.673 556.953 568.268 574.304 579.503 587.667 599.900 618.549 627.716 625.668 627.382 632.066 633.007 640.344 646.220 657.504 665.075 672.017 682.395 693.637 698.862 708.047 721.321 731.253 737.767 745.667 753.722 759.786 771.793 785.113 796.871 803.178 807.906 816.187 823.258 822.141 819.836 824.331 831.575 837.061 842.095 850.491 860.403 863.613 864.298 869.928 875.721 880.169 897.787 916.158 935.312 963.378 969.812 978.902 978.292 992.776 1006.222 1015.826 1030.835 1053.346 1108.254 1113.950 1115.838 1119.906 1125.041 1134.253 1143.179 1150.744 1157.334 1165.263 1162.608 1161.533 1164.555 1165.755 1167.356 1170.335 1171.047 1173.292 1171.282 1174.882 1171.814 1170.658 1164.593 1155.336 1155.836 1145.693 1136.903 1131.134 1123.281 1121.350
1850.027 1846.297 1841.446 1837.138 1831.967 1826.306 1820.940 1815.547 1811.474 1807.134 1803.916 1801.719 1800.661 1800.034 1799.513 1799.974 1801.689 1801.739 1799.396 1795.291 1791.451 1787.217 1783.986 1781.571 1780.594 1779.079 1775.471 1770.503 1764.329 1758.876 1754.111 1748.309 1743.133 1735.254 1718.996 1695.854 1681.685 1669.074 1656.295 1646.691 1636.933 1626.447 1613.723 1606.779 1602.739 1600.921 1599.174 1597.232 1596.862 1596.558 1595.818 1598.687 1601.500 1611.837 1616.331 1614.333 1611.469 1607.398 1608.439 1605.753 1602.625 1598.475 1581.309 1565.391 1540.667 1523.140 1493.804 1483.499 1466.978 1484.353 1503.516 1484.450 1452.296 1449.661 1461.923 1447.344 1446.592 1448.988 1426.144 1427.174 1410.057 1388.788 1366.661 1352.236 1347.077 1338.911 1329.669 1320.824 1310.479 1299.229 1289.418 1273.804 1276.021 1266.210 1254.192 1242.866 1233.481 1223.164 1215.997 1211.833 1205.696 1196.323 1192.082 1190.257 1181.930 1171.226 1158.986 1147.195 1136.458 1124.266 1115.349 1112.590 1109.771 1106.721 1102.549 1096.170 1092.495 1088.656 1081.046 1072.881 1066.609 1059.724 1052.055 1041.943 1039.010 1031.680 1016.429 1001.031 992.268 981.793 970.585 961.065 953.507 948.916 943.000 935.597 930.308 923.743 917.326 910.553 905.296 901.873 896.927 894.151 891.777 891.053 889.363 886.735 879.850 874.291 866.203 857.674 850.042 844.754 841.854 840.247 836.478 832.338 828.358 823.822 820.875 819.623 817.939 815.893 812.161 808.711 806.175 801.029 795.161 792.869 792.954 791.929 788.257 786.279 782.195 773.286 770.937 767.738 763.051 758.658 755.221 752.789 750.731 747.848 744.669 740.621 736.549 730.700 725.164 721.482 715.767 712.469 710.009 707.168 700.390 696.601 691.534 686.628 682.507 677.411 670.792 664.375 658.650 651.882 644.445 638.153 633.642 630.074 627.279 623.314 617.878 614.255 610.795 607.314 603.365 600.938 598.398 596.464 593.118 589.923 586.859 583.903 581.380 580.016 577.561 570.823 567.066 563.532 560.633 557.184 551.929 551.728 549.129 546.566 542.670 540.552 536.448 527.941 523.417 521.791 518.490 516.325 513.715 511.458 509.013 503.884 498.299 496.521 491.524 483.571 495.553 511.179 515.904 517.841 521.696 524.666 534.641 539.885 545.807 549.337 551.419 554.336 565.495 573.523 579.879 587.328 596.065 609.654 630.789 632.907 633.319 632.171 636.576 639.703 644.174 650.949 659.586 668.162 677.389 689.646 699.985 707.151 716.381 727.025 735.813 742.884 751.558 761.235 767.480 780.176 793.608 805.452 812.298 820.260 827.872 824.575 821.728 821.690 827.129 834.184 841.285 847.899 855.210 868.728 878.402 882.605 899.636 895.824 889.040 906.949 927.803 953.445 974.412 985.545 1000.719 996.321 1007.109 1043.226 1066.805 1103.090 1113.880 1120.896 1127.494 1130.436 1134.740 1139.127 1157.992 1162.951 1176.999 1186.964 1189.887 1182.813 1180.021 1182.959 1185.613 1191.720 1203.875 1231.579 1268.669 1267.385 1271.362 1262.001 1259.388 1191.775 1191.338 1180.916 1165.367 1156.423 1145.141 1138.195 1134.780
1852.358 1847.922 1843.515 1839.029 1833.470 1828.382 1822.444 1817.391 1812.199 1808.231 1805.258 1802.432 1803.807 1804.735 1804.252 1805.816 1806.063 1803.990 1800.858 1797.477 1793.576 1789.522 1786.800 1784.507 1783.184 1781.738 1779.025 1775.623 1770.926 1766.908 1762.430 1756.771 1751.281 1745.337 1739.278 1726.938 1689.699 1677.096 1663.511 1656.403 1643.413 1629.139 1620.452 1608.376 1602.966 1601.177 1599.613 1597.296 1593.959 1594.244 1589.863 1591.983 1599.701 1608.581 1611.174 1608.082 1606.310 1606.420 1607.193 1604.822 1602.442 1602.512 1590.071 1575.943 1562.530 1548.188 1535.283 1545.753 1541.297 1522.405 1502.502 1495.370 1483.083 1481.448 1465.528 1469.957 1466.856 1453.420 1447.293 1447.401 1442.533 1422.210 1389.909 1378.124 1364.206 1352.375 1343.294 1331.797 1321.197 1313.601 1297.526 1300.081 1289.250 1276.932 1266.367 1252.929 1243.082 1232.544 1224.478 1218.779 1208.324 1199.646 1195.527 1191.404 1183.719 1173.797 1161.414 1150.615 1138.872 1127.362 1119.938 1115.820 1111.585 1106.704 1100.474 1095.173 1089.615 1084.814 1082.233 1078.942 1071.440 1063.189 1052.368 1050.499 1038.126 1023.997 1010.492 994.267 983.929 974.339 967.594 956.681 953.435 945.874 940.699 932.884 926.902 921.024 913.839 908.176 902.420 899.034 895.204 892.409 890.512 889.578 887.744 882.410 875.629 869.384 862.389 853.957 845.419 841.679 840.311 840.881 836.478 831.214 826.971 822.061 818.613 816.339 813.599 812.500 810.043 805.845 802.433 798.969 795.326 794.896 794.317 794.767 790.586 786.409 782.190 775.111 773.560 771.059 767.030 762.184 758.401 756.224 753.957 749.431 746.617 742.109 736.347 729.413 721.744 717.143 714.249 711.073 710.895 704.796 699.762 694.936 689.354 684.610 678.469 675.383 668.826 662.480 655.567 649.225 642.574 636.960 632.838 628.759 625.106 621.004 617.391 614.053 610.678 608.211 605.406 602.540 599.854 598.446 594.509 588.699 583.868 582.047 582.630 581.212 580.098 577.268 570.330 567.186 563.943 559.985 553.781 551.776 552.251 548.885 546.619 542.357 537.439 532.294 526.406 522.276 520.232 519.411 515.748 513.094 511.813 506.727 502.085 500.777 493.767 484.957 490.610 503.065 510.373 513.806 519.809 523.890 530.964 538.517 545.693 550.739 556.283 561.839 571.445 577.760 582.949 593.805 601.304 622.546 632.460 636.361 637.684 635.174 643.211 644.185 647.940 653.537 661.148 670.004 682.589 692.030 700.141 709.558 721.554 730.540 738.454 747.639 756.724 768.000 775.969 783.899 797.113 807.756 821.513 821.710 824.904 824.712 825.037 827.811 835.694 841.602 852.289 861.623 871.589 883.755 894.512 902.617 912.223 914.264 905.265 923.354 944.206 966.008 985.361 998.476 1012.672 1024.427 1076.912 1095.442 1104.186 1129.017 1129.751 1141.307 1145.011 1151.066 1155.456 1164.371 1179.286 1186.554 1205.307 1211.057 1210.881 1203.544 1195.929 1201.139 1220.119 1221.076 1273.132 1286.688 1293.051 1288.636 1283.065 1277.089 1272.031 1268.187 1261.312 1248.871 1229.084 1209.368 1184.763 1162.144 1154.573
1853.826 1849.800 1845.383 1840.414 1835.533 1829.789 1823.932 1817.533 1812.232 1808.442 1805.077 1806.129 1807.668 1808.245 1809.635 1810.823 1809.028 1806.189 1802.778 1798.589 1795.136 1791.385 1788.704 1786.333 1784.642 1783.091 1781.200 1778.809 1775.618 1771.521 1766.128 1760.815 1755.504 1750.655 1746.252 1741.171 1712.497 1684.932 1670.806 1659.129 1642.574 1633.232 1622.634 1612.791 1605.478 1600.773 1598.843 1596.988 1588.775 1591.235 1584.540 1587.335 1594.523 1601.000 1605.381 1603.138 1600.799 1601.299 1601.001 1601.292 1601.718 1600.513 1597.006 1589.959 1574.856 1579.302 1570.051 1565.866 1552.539 1538.239 1524.473 1511.354 1495.229 1484.043 1486.020 1487.680 1473.875 1463.081 1464.801 1461.406 1455.180 1442.947 1415.169 1398.747 1392.543 1380.057 1362.373 1347.050 1334.157 1325.811 1316.981 1309.615 1298.490 1285.458 1273.463 1259.964 1249.946 1240.561 1233.750 1223.267 1213.168 1202.338 1195.411 1187.425 1180.372 1173.823 1165.214 1153.336 1142.035 1131.781 1125.091 1118.459 1113.742 1108.349 1102.702 1095.784 1089.026 1084.648 1080.739 1077.169 1073.131 1068.249 1059.349 1044.647 1030.690 1021.160 1004.933 991.003 981.503 973.320 964.782 956.449 946.211 940.795 935.603 930.935 926.083 920.801 912.362 906.448 900.118 895.507 892.961 889.870 888.678 887.267 884.346 878.184 868.729 864.479 858.035 848.358 842.527 840.393 841.142 841.572 833.885 828.497 823.841 822.528 817.876 814.442 811.746 809.231 807.135 804.037 798.395 797.289 796.466 795.522 796.169 796.254 796.698 792.153 784.977 777.930 775.587 771.633 766.976 765.162 759.157 758.675 756.602 752.821 752.261 745.339 740.571 729.557 720.683 714.094 711.693 710.798 708.691 703.787 696.391 692.458 688.187 682.286 675.989 671.577 666.733 660.637 652.546 646.197 639.757 635.945 630.877 625.739 622.076 619.891 617.960 615.716 612.715 608.688 607.672 603.501 600.008 597.313 591.825 585.201 583.736 582.620 582.777 583.626 584.435 578.221 574.145 571.803 566.022 560.642 556.491 555.476 556.029 552.694 548.633 544.903 540.210 537.632 531.322 524.743 523.044 521.293 518.092 514.714 513.900 512.008 507.121 504.869 503.517 494.160 485.862 497.091 507.512 514.676 520.078 526.513 529.862 539.294 546.421 555.239 564.908 570.819 575.028 581.572 590.754 598.416 612.996 627.547 634.442 640.111 642.385 640.067 646.957 650.537 653.414 657.221 665.159 676.730 687.860 696.829 706.308 714.458 726.505 734.138 739.941 750.879 762.693 776.970 785.132 793.481 800.784 808.759 817.382 824.390 823.874 823.797 828.186 835.291 845.368 852.960 863.228 873.908 887.224 899.263 913.017 927.114 932.955 945.093 952.293 931.588 952.763 999.416 1027.639 1018.827 1032.891 1069.385 1098.036 1108.662 1141.827 1148.844 1153.294 1156.628 1160.917 1169.672 1175.308 1200.386 1214.289 1228.565 1252.098 1248.808 1245.847 1232.984 1216.587 1226.585 1238.417 1251.241 1283.714 1298.751 1319.021 1312.912 1311.734 1296.533 1287.490 1281.399 1274.944 1270.969 1265.635 1265.167 1256.654 1253.206 1250.560
1854.886 1850.550 1845.738 1841.571 1836.254 1828.818 1822.560 1817.025 1810.961 1808.806 1808.063 1808.753 1810.715 1812.343 1814.567 1813.645 1811.304 1808.001 1804.366 1800.213 1796.817 1793.156 1790.524 1787.813 1785.903 1784.649 1783.250 1781.961 1779.029 1775.679 1770.765 1765.604 1760.016 1754.995 1750.634 1741.275 1729.140 1714.032 1692.817 1670.517 1652.164 1641.899 1629.922 1619.146 1608.768 1600.687 1596.235 1594.021 1589.811 1579.759 1580.472 1582.692 1590.476 1599.622 1600.356 1597.333 1595.071 1594.943 1595.607 1597.740 1597.131 1596.560 1595.675 1593.719 1588.508 1582.542 1577.344 1569.644 1560.176 1543.155 1529.534 1516.019 1506.887 1505.816 1508.350 1494.050 1482.734 1477.430 1477.671 1470.365 1462.972 1453.460 1439.140 1418.366 1404.137 1396.946 1379.729 1361.251 1353.412 1345.018 1330.450 1317.027 1305.129 1293.535 1279.602 1267.640 1257.643 1247.761 1240.564 1232.115 1221.822 1210.595 1202.056 1192.563 1183.083 1175.849 1167.674 1158.410 1143.632 1136.461 1128.181 1121.546 1117.427 1111.898 1105.427 1097.787 1091.173 1086.499 1082.146 1078.102 1074.152 1069.388 1060.525 1038.846 1025.406 1014.088 1000.828 989.990 978.960 968.021 962.264 951.983 941.322 934.470 933.979 930.769 924.055 918.426 911.812 905.715 899.667 895.593 891.533 888.023 885.946 884.085 880.262 872.817 864.090 858.462 853.035 845.261 843.424 843.767 841.503 837.331 831.535 827.438 824.428 823.504 820.584 817.486 812.325 809.026 805.048 797.954 796.067 793.247 793.336 796.139 796.642 795.388 795.421 793.771 788.765 782.572 778.972 775.345 770.426 765.258 761.042 761.500 759.835 757.372 755.747 749.740 740.620 728.710 720.808 713.750 709.784 707.154 704.040 700.800 695.014 690.153 683.200 680.243 674.735 668.688 663.824 657.435 649.910 643.370 639.769 634.646 629.943 625.845 625.838 622.435 619.891 615.991 612.463 608.331 604.157 600.813 599.916 596.347 589.266 588.738 584.930 583.293 583.879 585.661 588.610 587.589 579.974 574.576 569.907 564.882 560.976 559.870 558.730 554.794 552.424 547.362 542.078 538.491 534.211 528.169 526.817 524.856 521.025 517.943 513.700 513.710 510.906 504.242 500.382 496.769 489.926 489.093 507.951 515.071 520.329 525.651 528.437 536.726 548.463 559.139 566.838 572.766 580.005 587.362 595.981 607.747 619.273 629.223 636.980 643.881 646.118 648.250 647.289 653.728 656.281 661.692 672.837 679.438 690.711 700.871 709.940 718.991 728.806 738.417 746.751 756.147 768.653 782.159 791.972 799.237 803.240 805.465 811.673 817.365 821.703 824.809 830.234 841.088 853.730 863.915 874.135 886.376 899.281 911.965 928.852 949.094 947.579 966.095 967.279 941.149 971.914 1024.925 1043.986 1055.424 1077.438 1099.138 1129.993 1147.169 1156.474 1163.597 1169.434 1174.066 1179.274 1196.066 1207.896 1267.886 1278.084 1274.307 1270.182 1268.195 1265.600 1262.725 1258.694 1248.988 1268.742 1300.577 1318.557 1322.670 1329.097 1329.011 1325.180 1316.207 1303.819 1296.444 1289.296 1283.438 1277.736 1275.062 1268.972 1268.202 1269.166
1854.071 1850.311 1845.564 1841.639 1837.101 1831.095 1824.856 1817.961 1815.898 1812.845 1812.218 1811.364 1812.855 1816.505 1816.912 1815.713 1812.445 1809.194 1805.159 1801.566 1797.912 1794.310 1791.092 1788.687 1786.811 1785.473 1785.021 1783.775 1782.383 1780.487 1776.101 1770.770 1764.330 1757.693 1751.069 1737.798 1732.668 1723.638 1711.530 1684.637 1665.822 1652.115 1637.872 1625.799 1613.172 1602.373 1594.781 1592.159 1587.385 1580.487 1572.710 1576.762 1586.301 1591.145 1592.253 1589.553 1587.605 1587.809 1590.126 1593.434 1594.136 1593.872 1591.849 1590.479 1586.499 1581.656 1577.080 1571.726 1565.198 1554.302 1544.145 1531.606 1533.371 1528.781 1523.475 1508.075 1501.723 1494.632 1485.351 1477.745 1469.436 1460.679 1450.131 1433.336 1414.490 1398.688 1389.471 1379.367 1369.920 1353.417 1338.357 1322.046 1310.071 1294.956 1282.960 1274.061 1263.102 1253.137 1246.397 1237.098 1226.201 1216.918 1208.664 1197.455 1187.099 1180.113 1173.106 1161.088 1149.744 1143.611 1135.585 1127.575 1123.988 1116.102 1108.779 1102.427 1095.226 1088.870 1085.031 1082.374 1078.650 1074.157 1063.812 1042.237 1024.491 1010.321 997.157 983.990 970.229 962.646 953.856 944.756 936.495 928.185 925.951 925.116 921.361 913.505 907.261 903.716 898.489 893.573 890.110 886.172 883.375 879.614 874.166 868.530 860.389 852.527 844.962 844.417 844.183 843.368 840.138 837.477 834.232 830.156 826.732 823.748 823.217 821.290 817.917 811.652 805.350 798.366 795.093 793.909 791.742 793.411 793.968 789.534 786.267 787.338 788.029 787.108 783.970 779.112 775.668 768.266 763.161 762.949 762.506 760.479 755.698 750.046 742.378 731.397 718.823 713.606 708.736 705.298 701.427 698.003 694.044 689.603 683.474 680.405 671.966 667.493 661.158 653.263 646.925 642.495 639.750 635.534 631.748 629.694 626.191 622.698 619.673 617.653 614.156 607.908 605.343 602.205 600.328 595.286 594.414 590.908 586.565 584.572 585.884 587.816 590.223 588.644 584.982 579.130 571.938 566.043 562.194 560.469 558.909 556.200 553.089 549.398 544.556 542.229 537.421 532.117 531.524 526.873 524.653 521.725 518.900 518.889 511.583 505.688 504.550 500.367 492.707 489.241 502.885 514.253 518.627 521.800 528.455 538.883 548.638 562.767 567.897 575.864 582.743 590.117 602.542 622.361 630.441 636.844 640.593 643.820 647.773 650.084 654.653 656.346 658.762 668.443 676.029 685.183 689.967 699.869 710.640 719.532 729.096 740.433 751.164 762.438 772.185 783.326 791.391 800.206 805.586 805.957 807.612 813.400 820.131 826.620 833.411 843.953 857.742 870.154 884.329 897.318 912.655 924.363 937.899 967.260 987.498 1017.357 979.851 956.386 1007.121 1036.673 1052.430 1074.818 1092.593 1137.721 1155.385 1167.928 1174.479 1194.877 1203.447 1201.634 1203.317 1224.903 1294.819 1296.316 1301.762 1313.408 1308.635 1300.351 1300.321 1303.364 1310.060 1317.445 1310.981 1335.599 1346.399 1337.261 1341.486 1340.966 1338.145 1331.869 1320.929 1313.487 1308.121 1302.885 1298.041 1292.617 1283.073 1281.104 1281.697
1856.005 1852.022 1848.198 1843.166 1838.143 1832.675 1827.793 1823.610 1820.427 1817.759 1816.312 1814.423 1815.687 1818.122 1818.059 1815.957 1813.371 1809.874 1806.414 1802.693 1799.072 1794.957 1791.679 1788.815 1787.023 1785.995 1785.328 1785.240 1786.426 1785.624 1779.850 1772.555 1764.693 1757.666 1747.265 1736.719 1728.866 1720.771 1710.564 1700.030 1673.612 1658.451 1643.913 1629.569 1616.179 1603.668 1593.172 1587.850 1582.534 1575.677 1570.668 1572.832 1582.647 1586.436 1586.031 1584.814 1582.271 1584.137 1585.581 1589.500 1591.251 1591.364 1589.673 1586.426 1583.322 1579.197 1575.295 1571.131 1566.828 1562.337 1558.673 1553.444 1547.828 1540.130 1531.104 1518.999 1509.317 1500.042 1490.813 1482.897 1474.956 1467.545 1458.093 1442.617 1424.624 1410.361 1396.959 1383.594 1371.251 1361.808 1342.124 1327.445 1314.068 1302.705 1291.336 1278.793 1266.705 1257.189 1248.043 1241.237 1229.385 1219.330 1210.108 1200.940 1190.930 1183.661 1176.003 1166.077 1157.711 1148.687 1138.780 1132.632 1127.231 1119.580 1111.310 1107.095 1101.419 1094.589 1091.912 1089.902 1086.508 1080.839 1074.613 1058.503 1035.428 1015.831 1001.539 987.223 969.471 955.932 947.955 938.837 930.638 925.412 924.365 923.415 921.070 916.613 908.103 902.489 899.238 893.614 889.297 884.922 882.735 876.029 869.342 864.603 860.234 852.738 847.066 843.922 843.264 841.514 839.420 837.413 834.726 831.083 827.044 824.662 824.593 822.785 818.842 811.568 804.848 796.999 795.286 792.456 791.247 790.044 792.510 790.853 785.287 782.498 781.978 782.442 780.913 780.570 775.092 768.220 766.830 766.268 762.465 758.478 754.519 749.293 741.904 734.158 723.546 711.880 708.378 703.794 700.289 697.600 692.624 688.117 682.780 678.003 671.985 665.934 658.378 650.912 646.447 644.224 640.618 636.140 633.741 630.753 626.684 623.517 621.113 618.543 614.652 610.787 608.251 600.284 600.604 600.047 595.372 590.489 587.581 587.073 588.491 589.129 589.367 587.597 583.679 578.420 572.086 565.515 564.511 562.897 558.522 556.598 554.067 550.559 544.002 540.144 539.631 535.328 534.073 531.641 529.480 527.247 523.558 517.568 511.171 508.524 508.920 502.860 496.298 489.803 496.011 512.433 518.809 524.234 535.248 547.116 562.497 569.575 576.284 580.392 590.106 606.389 621.142 629.948 639.005 641.712 646.053 648.614 649.273 654.960 660.335 657.150 665.789 674.471 682.896 686.028 692.199 699.471 709.448 715.809 727.129 740.985 756.560 766.630 776.103 782.761 792.448 800.759 806.266 808.389 810.690 813.276 820.450 832.714 843.409 851.781 865.229 877.515 892.857 906.454 921.340 945.242 969.277 984.833 1018.865 1022.910 1000.715 979.217 1020.135 1041.457 1068.348 1085.540 1145.446 1152.715 1171.046 1196.336 1204.625 1219.219 1222.320 1220.701 1228.740 1294.210 1327.342 1332.722 1351.630 1358.986 1338.398 1323.368 1319.882 1337.160 1379.058 1366.708 1349.747 1358.724 1364.339 1366.060 1355.902 1353.829 1350.725 1342.744 1337.779 1334.473 1325.041 1320.750 1314.435 1308.590 1304.630 1298.569 1293.981
1856.292 1852.989 1849.074 1844.844 1839.638 1833.984 1831.777 1826.874 1824.067 1821.894 1819.928 1818.377 1819.408 1819.489 1818.295 1816.173 1813.619 1810.584 1806.867 1803.291 1799.026 1795.321 1791.278 1788.470 1786.152 1785.239 1784.286 1784.927 1788.290 1782.997 1776.416 1769.265 1761.363 1753.783 1737.446 1730.956 1724.333 1716.842 1706.783 1694.642 1681.446 1667.064 1649.178 1633.497 1619.821 1606.026 1593.418 1584.872 1578.738 1572.814 1568.515 1568.546 1578.634 1585.238 1577.428 1571.421 1574.134 1577.525 1580.571 1584.177 1587.408 1587.952 1587.513 1583.973 1580.166 1576.043 1572.883 1569.495 1565.989 1562.088 1558.212 1553.817 1546.969 1539.076 1530.102 1520.168 1510.253 1501.452 1493.049 1484.907 1477.089 1469.882 1463.384 1447.444 1429.499 1415.094 1400.278 1386.868 1373.865 1362.665 1347.076 1334.108 1319.756 1308.379 1297.989 1284.458 1271.352 1261.467 1252.243 1243.742 1232.832 1222.602 1216.054 1203.580 1194.841 1187.537 1181.232 1170.234 1162.316 1152.525 1144.273 1139.077 1133.457 1126.370 1122.200 1119.254 1115.512 1109.867 1103.903 1098.442 1093.661 1088.786 1079.717 1057.791 1039.659 1019.157 1005.885 994.535 973.209 956.197 945.004 936.998 931.361 926.527 923.810 922.602 920.134 912.797 906.864 899.658 895.093 891.218 887.047 883.970 880.608 876.823 870.501 865.297 860.235 855.046 852.271 847.534 847.126 844.650 841.699 838.965 835.376 830.193 826.060 824.252 824.331 821.935 819.624 813.760 805.028 797.509 796.201 792.833 790.398 788.487 791.828 790.520 785.952 784.268 782.024 782.056 781.754 779.741 776.260 770.809 765.760 762.912 758.164 757.106 754.431 747.762 739.595 731.170 722.270 710.798 706.990 702.482 698.794 695.707 691.952 686.918 681.979 676.974 670.012 663.159 656.951 650.366 648.359 645.159 640.528 637.186 637.286 631.246 628.004 625.894 623.494 620.447 617.245 613.562 608.229 603.613 603.679 599.800 595.900 589.257 588.162 588.560 590.641 590.849 589.878 587.984 582.506 577.441 571.657 567.499 565.448 563.519 559.122 555.548 552.708 548.292 543.127 540.116 539.748 541.515 539.357 536.607 533.907 531.689 527.281 520.778 513.757 510.592 510.157 504.392 499.082 490.973 495.071 511.687 517.672 526.237 536.385 548.888 563.362 573.321 582.018 590.221 605.696 620.582 629.873 637.462 640.460 649.289 652.551 654.634 656.175 658.772 662.933 661.748 670.801 679.029 682.863 686.893 691.738 703.079 708.399 717.219 728.343 741.884 757.249 769.146 777.006 785.655 793.323 798.965 805.044 809.396 814.806 819.475 825.171 836.935 850.550 862.055 871.974 888.791 906.726 920.865 940.650 956.700 988.628 1002.463 1019.781 1036.035 1003.560 1059.518 1065.771 1080.965 1087.861 1117.695 1155.526 1168.788 1230.567 1241.016 1246.002 1253.731 1261.400 1291.002 1300.417 1348.361 1351.250 1354.205 1368.547 1374.178 1417.565 1412.503 1401.799 1409.158 1400.166 1373.863 1389.791 1397.042 1393.438 1397.319 1391.120 1382.028 1379.547 1368.634 1353.586 1347.921 1342.221 1336.191 1329.910 1327.938 1319.997 1313.029 1306.791
1857.260 1854.385 1850.474 1846.581 1841.013 1836.822 1833.582 1830.107 1827.276 1824.693 1822.035 1822.312 1821.895 1821.145 1819.190 1816.842 1814.201 1811.372 1807.643 1803.627 1799.530 1794.716 1790.544 1787.147 1784.435 1782.272 1775.877 1770.855 1782.151 1776.616 1770.410 1763.269 1754.552 1743.259 1730.797 1725.493 1719.066 1711.414 1700.467 1687.203 1676.205 1666.904 1651.075 1635.758 1620.606 1607.106 1594.438 1585.018 1578.833 1572.960 1566.291 1565.710 1574.583 1581.572 1572.339 1561.179 1561.895 1566.506 1573.732 1578.523 1580.814 1583.630 1583.462 1578.843 1571.202 1571.838 1569.207 1566.133 1563.136 1559.029 1555.136 1551.168 1544.760 1536.499 1527.953 1518.574 1509.178 1500.808 1492.666 1483.869 1475.806 1468.042 1463.452 1454.518 1437.638 1421.535 1403.273 1387.682 1375.278 1365.061 1351.973 1335.639 1322.928 1309.450 1297.894 1285.498 1272.612 1262.643 1254.286 1244.119 1234.619 1225.720 1218.767 1211.546 1202.649 1194.806 1185.361 1172.146 1163.257 1156.241 1156.863 1149.564 1145.032 1137.766 1135.823 1134.200 1130.377 1122.641 1112.792 1106.064 1099.662 1093.252 1086.324 1066.711 1063.440 1054.169 1023.734 1007.915 992.329 977.337 961.361 944.672 933.792 928.223 923.036 921.547 916.678 911.994 906.534 900.481 895.493 892.135 887.404 885.455 879.876 875.093 867.688 863.799 859.990 857.241 856.016 853.324 850.412 847.398 843.719 839.489 833.957 828.449 825.584 824.776 824.465 821.493 818.652 809.298 802.824 799.664 797.278 793.485 793.002 787.280 787.773 787.795 786.416 785.073 784.094 783.553 782.959 779.413 773.378 767.272 761.843 758.652 758.248 759.032 754.604 747.526 739.270 729.203 717.359 710.139 705.826 701.160 696.736 693.646 689.584 685.662 681.557 676.180 670.854 663.496 656.735 651.572 649.002 645.390 641.484 639.564 637.139 633.050 630.334 627.146 626.690 623.838 619.411 608.776 609.215 608.871 604.645 599.801 594.766 587.938 588.911 589.737 589.627 589.023 587.700 583.505 579.587 575.719 570.488 568.277 566.958 565.617 560.246 556.864 553.602 549.360 546.390 543.824 542.367 542.018 540.947 539.393 537.556 534.954 529.076 521.767 517.750 514.428 511.799 507.974 502.049 493.511 495.874 504.325 514.193 522.804 539.367 556.226 566.281 577.608 589.248 596.887 603.292 612.656 625.735 640.995 646.906 651.620 653.224 654.364 656.154 659.716 664.109 667.389 669.669 677.056 685.886 690.320 695.599 702.677 712.130 721.993 731.432 745.896 758.576 769.901 778.349 787.784 791.352 795.292 802.620 810.525 815.133 823.166 831.194 840.431 858.059 871.205 882.093 899.033 914.337 932.256 952.296 975.541 995.627 1019.645 1026.263 1050.318 1034.165 1070.193 1085.860 1093.417 1109.428 1143.520 1170.936 1249.824 1291.279 1277.262 1274.140 1283.928 1299.543 1331.269 1354.125 1361.698 1368.725 1374.441 1386.414 1424.695 1430.444 1424.744 1425.449 1425.388 1417.685 1413.165 1407.455 1408.593 1408.045 1409.712 1404.748 1402.621 1401.270 1399.075 1398.005 1371.703 1356.010 1350.006 1342.231 1340.208 1334.908 1328.847 1322.729
1858.272 1855.308 1851.549 1847.085 1842.313 1838.619 1836.042 1831.305 1821.095 1811.493 1806.462 1804.514 1810.448 1822.657 1819.884 1816.947 1814.470 1811.472 1807.830 1803.613 1798.657 1793.673 1789.080 1784.392 1778.844 1768.760 1765.250 1760.643 1757.432 1755.691 1758.556 1753.533 1745.415 1734.330 1725.858 1719.550 1712.454 1705.054 1694.725 1681.096 1670.829 1663.621 1651.817 1635.043 1622.643 1610.013 1597.788 1588.743 1580.258 1574.225 1568.754 1565.255 1568.333 1575.881 1564.379 1555.982 1552.327 1552.897 1560.177 1565.682 1561.883 1564.844 1565.197 1567.076 1557.647 1563.520 1564.008 1560.510 1557.218 1553.506 1550.483 1546.796 1539.795 1532.444 1524.473 1514.573 1507.031 1498.469 1489.671 1482.856 1474.830 1466.251 1461.226 1449.280 1438.099 1424.445 1405.933 1391.427 1377.421 1364.694 1353.546 1338.862 1323.878 1311.889 1300.704 1286.683 1274.921 1266.062 1257.430 1248.585 1241.128 1230.346 1223.066 1215.112 1206.518 1192.128 1181.870 1177.441 1175.200 1169.420 1169.236 1164.064 1156.972 1148.428 1146.452 1146.207 1137.230 1125.391 1117.398 1109.684 1103.380 1095.307 1087.713 1079.843 1072.969 1058.625 1043.128 1016.523 997.183 980.107 972.644 957.226 948.353 935.533 931.478 920.885 914.026 909.090 903.502 899.688 896.799 892.009 888.172 885.470 879.623 875.098 868.074 862.894 860.228 858.670 856.978 855.306 852.728 849.886 846.206 840.374 835.659 829.916 825.669 826.010 824.403 820.345 813.614 806.867 802.107 799.997 797.681 793.389 791.444 785.425 785.860 785.990 786.739 787.296 787.251 785.068 780.901 775.473 771.515 767.077 759.615 757.640 758.653 755.820 749.959 743.759 735.883 725.603 712.155 708.209 704.205 699.552 695.797 692.536 688.905 686.439 681.838 676.785 671.175 664.338 657.194 651.209 646.782 644.701 642.121 640.278 637.191 634.744 632.731 631.596 631.203 628.834 615.264 616.749 615.414 611.227 604.824 599.470 595.588 590.881 590.108 591.161 590.010 588.499 585.591 580.668 576.162 572.978 571.494 570.566 568.920 565.499 562.131 559.876 555.547 551.303 548.118 545.558 543.679 542.104 543.046 539.957 538.370 535.623 529.312 525.437 521.716 518.294 514.615 509.191 503.979 497.587 495.218 502.068 513.290 521.678 537.176 551.354 564.896 575.464 578.847 587.268 600.216 624.615 633.475 639.096 645.189 649.558 652.861 653.888 655.485 658.596 663.288 671.139 675.132 681.731 681.978 690.494 695.628 702.307 713.477 723.358 735.335 747.732 759.780 769.722 777.769 785.237 789.866 796.094 800.593 809.833 817.577 823.555 833.385 849.335 863.747 879.846 893.568 906.808 921.052 947.332 966.322 995.013 1020.154 1035.747 1048.666 1060.225 1059.234 1098.419 1105.275 1107.968 1140.870 1153.839 1289.947 1302.837 1307.726 1312.049 1312.661 1321.930 1346.481 1376.550 1416.088 1380.303 1389.786 1392.189 1397.923 1435.853 1443.151 1437.909 1436.252 1441.891 1443.233 1433.423 1425.229 1424.288 1423.038 1422.410 1419.442 1415.219 1414.769 1413.185 1414.317 1414.477 1417.516 1371.869 1356.782 1352.246 1346.680 1340.914 1334.535
1860.511 1856.920 1853.067 1848.799 1844.811 1841.463 1836.159 1822.182 1810.591 1801.555 1794.578 1790.504 1786.969 1822.836 1819.570 1811.842 1812.451 1810.708 1806.654 1801.875 1794.001 1785.830 1777.314 1768.552 1757.293 1747.685 1745.346 1748.836 1746.238 1737.456 1731.040 1723.309 1733.475 1726.888 1717.838 1712.030 1704.018 1697.241 1685.275 1674.498 1665.119 1657.627 1643.172 1631.564 1620.322 1610.627 1599.981 1589.402 1582.269 1576.649 1572.115 1566.694 1563.830 1567.044 1560.570 1549.046 1545.249 1542.303 1547.249 1546.974 1545.372 1545.479 1550.125 1548.191 1548.422 1546.722 1550.956 1552.935 1551.114 1547.552 1544.000 1540.945 1535.261 1528.981 1520.895 1512.430 1503.107 1494.594 1486.895 1477.656 1470.563 1462.543 1455.398 1443.767 1434.366 1420.414 1405.400 1392.873 1377.666 1366.157 1351.762 1339.906 1325.278 1312.832 1302.024 1288.620 1278.507 1270.084 1260.933 1257.615 1249.395 1236.033 1224.360 1212.684 1205.050 1202.089 1195.450 1189.062 1185.443 1183.212 1183.604 1178.462 1167.620 1157.849 1155.583 1150.680 1137.155 1128.501 1118.724 1113.623 1105.657 1095.804 1089.352 1081.536 1070.590 1057.442 1045.947 1037.226 1023.230 1006.843 992.560 989.251 975.338 966.251 955.461 932.749 920.592 910.887 904.572 899.107 895.404 890.465 888.746 884.683 877.735 872.785 867.270 864.723 863.152 861.189 858.440 856.039 853.799 850.750 847.085 840.896 836.939 831.809 828.190 826.637 823.799 818.551 811.589 803.617 801.212 798.664 796.460 792.124 789.489 785.229 786.402 786.396 787.362 785.163 785.431 782.693 775.944 774.512 770.155 765.830 761.632 757.029 755.698 747.951 742.008 733.758 724.023 716.092 711.758 708.400 704.980 700.828 697.649 693.762 691.164 687.508 682.372 675.819 669.982 663.945 657.414 652.401 651.012 648.245 642.891 639.339 636.121 634.555 634.594 634.320 633.055 626.318 625.935 622.586 618.690 613.497 606.491 599.852 599.056 594.207 593.085 594.371 591.420 587.942 583.849 580.547 578.022 575.839 574.116 571.280 569.837 568.062 566.021 565.074 561.454 556.266 549.714 546.537 543.914 542.462 542.240 540.256 537.482 535.595 531.724 528.387 523.120 520.533 517.373 511.119 505.612 497.042 495.171 505.558 513.901 523.257 539.013 549.758 559.607 564.165 578.334 590.347 611.911 628.492 641.189 646.668 647.310 651.448 652.472 654.956 656.135 659.993 666.068 673.675 680.269 684.206 687.985 695.042 698.104 706.959 715.681 728.224 737.154 746.723 758.745 770.971 774.933 781.044 788.044 796.913 803.203 812.369 817.710 829.084 842.508 857.531 871.347 886.751 900.516 915.464 940.497 959.723 982.597 1008.416 1037.439 1052.520 1068.704 1057.637 1087.203 1102.351 1116.073 1143.027 1154.408 1252.760 1313.094 1319.222 1334.656 1331.574 1372.219 1408.457 1429.090 1435.913 1431.547 1434.266 1431.516 1424.277 1428.872 1444.051 1458.431 1455.922 1458.015 1456.079 1458.338 1462.974 1451.289 1447.573 1436.977 1434.632 1433.475 1429.523 1427.568 1425.695 1426.094 1426.651 1427.779 1426.596 1420.374 1369.820 1361.398 1354.281 1348.613
1861.804 1858.240 1853.976 1850.227 1846.363 1841.311 1827.283 1814.918 1802.247 1794.878 1786.733 1779.944 1773.221 1773.279 1817.774 1802.168 1785.544 1775.758 1789.082 1798.864 1785.976 1771.587 1754.101 1739.480 1727.309 1734.169 1725.827 1730.002 1734.056 1732.106 1720.546 1713.167 1703.894 1718.944 1711.246 1703.700 1696.466 1688.250 1676.784 1666.856 1659.340 1647.949 1635.432 1625.958 1615.274 1607.897 1596.864 1589.181 1584.136 1580.801 1575.840 1570.035 1564.269 1561.296 1552.868 1542.991 1536.758 1535.638 1534.567 1532.102 1530.753 1533.207 1535.159 1534.972 1533.335 1534.784 1536.342 1537.464 1543.831 1540.959 1538.233 1535.196 1530.012 1524.320 1516.252 1508.027 1499.514 1491.863 1481.679 1471.734 1463.578 1455.819 1448.948 1441.210 1431.515 1418.087 1403.800 1391.247 1377.692 1366.756 1354.255 1341.045 1329.403 1317.302 1306.530 1293.735 1284.621 1276.489 1268.863 1261.991 1251.738 1238.951 1229.069 1221.247 1215.230 1210.189 1202.363 1198.168 1194.365 1191.553 1189.499 1180.812 1170.647 1161.617 1157.514 1144.740 1135.437 1127.327 1116.887 1114.192 1106.271 1098.143 1089.217 1075.217 1061.694 1051.303 1045.640 1035.496 1027.504 1020.831 1016.557 1002.929 993.904 984.999 969.769 956.355 937.828 931.643 922.358 911.149 898.350 894.126 888.635 881.215 875.139 871.175 868.540 866.478 864.921 863.376 861.493 858.821 855.302 850.989 846.562 841.652 837.359 833.497 829.731 827.271 821.982 817.674 808.803 800.469 797.576 796.001 792.531 787.728 786.816 784.022 785.471 786.542 785.995 783.866 778.188 774.443 769.855 769.037 769.461 766.469 762.445 754.490 751.252 742.062 735.719 731.134 724.664 717.832 713.767 710.448 705.290 700.743 696.600 693.512 690.934 686.769 681.045 675.479 669.473 662.867 659.807 654.338 650.934 647.138 645.411 643.685 641.932 639.883 638.793 638.639 632.797 635.799 631.838 626.656 621.407 614.719 609.713 604.137 599.610 599.502 596.878 595.693 591.694 587.793 585.222 583.570 581.185 578.494 578.667 576.585 573.349 572.194 570.763 567.859 564.412 560.367 555.217 549.099 546.130 544.826 543.560 541.022 537.258 535.524 536.195 533.152 529.249 517.860 507.299 503.883 502.474 497.253 498.120 507.020 514.634 524.545 532.040 542.864 553.436 567.777 581.630 594.173 613.402 625.009 636.732 649.304 653.519 656.709 657.732 658.637 660.721 661.801 671.915 679.821 686.286 690.423 695.110 698.133 700.766 709.371 723.040 731.339 740.603 751.520 761.392 771.985 774.634 783.485 789.216 799.601 808.068 817.012 826.026 838.925 854.387 871.968 886.574 900.648 911.905 937.826 962.302 980.324 999.090 1021.509 1052.181 1067.454 1082.123 1082.257 1099.933 1110.648 1124.633 1157.580 1242.706 1307.127 1324.325 1340.869 1373.781 1374.932 1389.701 1406.924 1432.444 1444.944 1449.392 1450.233 1446.483 1442.745 1443.145 1451.135 1473.230 1471.046 1470.988 1474.939 1472.164 1473.800 1469.257 1474.214 1451.947 1450.612 1446.633 1444.798 1442.804 1440.357 1439.033 1438.116 1436.686 1435.265 1430.329 1423.426 1394.556 1373.466 1366.870
1863.900 1859.917 1855.747 1851.524 1846.912 1832.870 1819.527 1806.937 1795.699 1786.751 1780.552 1771.945 1765.367 1763.888 1761.119 1772.929 1764.922 1756.747 1755.626 1772.831 1752.845 1738.544 1727.426 1717.027 1707.538 1703.121 1710.989 1708.702 1717.485 1719.188 1712.813 1702.418 1693.174 1688.678 1696.347 1693.444 1685.531 1678.276 1667.930 1657.535 1652.492 1642.512 1629.581 1620.895 1611.013 1602.061 1596.508 1589.725 1585.863 1584.504 1580.813 1575.476 1569.132 1564.129 1555.320 1547.586 1541.021 1537.666 1523.129 1517.494 1515.997 1520.546 1521.270 1522.250 1521.276 1520.836 1524.003 1526.030 1527.236 1532.219 1531.732 1528.695 1523.179 1516.969 1508.835 1501.379 1494.344 1483.627 1473.302 1464.389 1458.151 1450.264 1444.758 1436.497 1425.244 1414.332 1402.068 1392.182 1380.289 1366.085 1354.420 1343.089 1332.676 1322.795 1311.992 1300.194 1292.974 1285.162 1276.191 1266.385 1254.592 1245.014 1237.640 1230.500 1222.493 1217.402 1211.540 1206.214 1201.306 1196.855 1191.241 1181.051 1168.183 1160.559 1151.891 1143.090 1135.713 1124.801 1115.308 1110.092 1105.254 1098.538 1083.295 1069.682 1056.570 1047.411 1039.469 1032.277 1021.497 1013.768 1012.790 1012.104 1005.553 993.443 982.382 971.500 969.777 960.686 951.991 932.690 920.445 906.203 898.265 889.762 877.121 869.977 866.739 865.091 862.594 861.724 860.263 857.110 854.542 852.115 848.179 841.506 836.384 833.950 829.911 825.026 817.137 813.046 805.163 798.005 795.871 792.683 789.536 782.846 783.490 782.145 782.337 782.581 782.314 779.684 775.453 771.915 765.747 762.671 760.458 760.715 759.968 756.315 749.299 742.648 736.706 732.668 725.633 718.381 714.517 708.800 703.502 698.325 694.616 691.883 690.755 687.911 682.818 677.578 671.301 664.618 660.609 655.515 651.742 649.133 649.585 649.396 646.346 644.003 642.606 639.260 633.470 638.674 635.633 631.270 625.906 620.920 614.894 611.772 604.784 601.154 600.213 598.048 594.104 590.780 589.520 588.399 587.630 585.300 583.290 579.768 577.327 574.651 574.776 571.473 568.593 564.213 558.101 554.564 550.909 547.042 545.279 543.093 540.938 538.498 533.939 529.761 517.734 516.286 516.742 512.005 508.002 498.196 501.295 511.447 520.126 528.314 535.048 547.914 561.243 573.615 583.947 598.091 615.900 631.072 641.533 651.899 654.223 656.032 655.824 657.334 664.831 667.863 676.353 684.506 688.252 692.499 696.365 699.533 703.323 708.766 728.263 736.656 745.774 750.219 763.423 770.519 773.574 781.344 788.635 799.312 805.592 820.830 835.173 848.667 864.242 877.836 893.010 908.224 936.436 961.584 976.874 992.300 1014.373 1038.336 1054.078 1075.717 1096.992 1097.955 1107.667 1122.021 1150.485 1179.629 1314.821 1322.341 1336.587 1394.435 1406.907 1409.673 1410.120 1413.931 1435.742 1452.255 1463.006 1469.903 1471.292 1468.451 1472.088 1475.984 1488.576 1484.580 1486.122 1489.521 1486.365 1486.837 1483.643 1478.140 1475.286 1493.288 1463.001 1459.319 1456.898 1454.379 1453.973 1450.211 1447.646 1444.780 1439.449 1435.402 1428.283 1419.705 1396.422
1865.985 1861.444 1857.036 1852.142 1840.157 1826.695 1813.760 1801.597 1789.651 1780.373 1775.646 1765.418 1758.320 1752.280 1749.340 1746.427 1753.730 1744.801 1738.396 1733.312 1739.439 1728.293 1717.473 1707.221 1698.369 1689.952 1680.958 1674.451 1696.442 1698.944 1705.475 1691.996 1683.656 1675.792 1672.951 1675.327 1673.164 1667.111 1660.084 1650.442 1643.654 1633.748 1622.888 1614.934 1605.852 1593.788 1585.878 1585.998 1585.523 1584.562 1585.586 1579.200 1568.641 1562.009 1560.421 1551.121 1543.947 1534.470 1522.965 1513.197 1503.289 1511.406 1509.123 1509.925 1510.503 1508.393 1510.387 1514.071 1516.208 1516.019 1525.384 1520.717 1512.706 1506.274 1499.429 1494.029 1488.293 1476.261 1467.453 1459.874 1453.269 1445.570 1441.506 1431.298 1419.679 1407.291 1397.667 1389.530 1381.992 1370.298 1355.891 1343.890 1333.457 1324.250 1315.225 1307.255 1300.291 1292.514 1283.023 1270.333 1259.922 1251.759 1244.347 1236.363 1231.044 1225.061 1214.476 1208.783 1199.207 1193.698 1186.476 1177.016 1164.503 1156.602 1149.480 1140.791 1126.961 1111.810 1101.214 1094.191 1091.120 1086.305 1075.196 1064.656 1049.098 1041.312 1033.011 1026.056 1014.664 1008.147 1003.980 1003.697 1003.534 996.838 992.829 990.953 984.359 975.310 963.330 949.454 930.309 926.729 933.916 910.692 896.699 886.321 874.013 867.105 863.231 861.784 857.678 854.441 851.654 851.545 848.292 843.870 838.082 834.758 830.437 821.975 813.268 805.711 798.860 794.118 792.033 788.833 784.743 780.228 779.977 779.485 779.990 779.512 779.523 771.638 769.006 764.705 761.339 759.325 756.382 755.672 754.574 749.488 745.769 741.464 738.675 735.898 729.138 720.258 715.663 709.571 704.410 699.256 693.702 692.538 690.733 687.970 684.181 679.493 674.801 669.949 663.068 657.996 653.844 652.202 652.879 650.282 649.278 646.434 642.774 645.563 643.700 641.868 637.990 633.328 627.701 623.574 618.624 614.250 610.177 605.354 601.545 599.519 596.517 594.764 592.201 590.144 588.944 588.436 587.150 583.909 580.113 576.960 575.131 573.300 570.694 565.179 561.309 557.619 554.172 551.172 548.519 545.464 542.217 535.805 524.961 523.875 523.246 528.842 524.939 517.635 510.002 499.272 502.730 513.688 522.460 530.391 538.872 547.428 557.370 575.711 586.417 603.406 619.409 633.431 643.537 651.525 652.014 654.060 656.348 660.478 665.852 675.077 681.143 687.588 689.168 691.452 695.940 698.656 710.444 725.217 727.639 736.592 745.769 755.444 761.820 768.333 774.221 779.788 788.237 798.708 814.022 825.179 838.094 849.035 858.137 880.038 893.533 916.881 949.509 969.874 988.128 1012.534 1029.470 1043.509 1066.464 1089.197 1105.514 1115.611 1116.198 1139.204 1164.878 1273.847 1324.227 1340.369 1373.948 1423.068 1423.915 1429.397 1428.020 1430.393 1440.541 1456.895 1471.279 1480.344 1486.018 1491.292 1498.113 1498.469 1506.716 1511.089 1503.073 1504.812 1503.090 1498.624 1497.215 1488.083 1494.100 1496.543 1494.706 1473.941 1469.073 1467.020 1465.607 1461.166 1457.885 1455.719 1453.745 1452.001 1441.055 1434.470 1418.392
1867.244 1862.589 1856.377 1844.943 1831.499 1818.437 1806.867 1794.686 1783.433 1772.061 1762.447 1754.819 1746.468 1743.354 1736.558 1732.655 1731.582 1732.238 1725.744 1721.918 1714.610 1712.100 1714.121 1703.280 1693.472 1684.904 1675.129 1663.707 1658.823 1672.993 1664.861 1658.604 1655.009 1661.935 1660.316 1660.639 1657.772 1656.862 1651.964 1641.958 1635.349 1626.516 1616.811 1611.004 1602.023 1589.816 1579.259 1576.474 1582.174 1583.331 1583.446 1572.037 1559.447 1553.446 1547.386 1540.669 1533.967 1525.166 1516.062 1504.308 1492.702 1497.139 1497.950 1500.486 1501.085 1496.459 1499.810 1501.544 1506.170 1506.201 1511.969 1506.161 1500.538 1496.214 1490.688 1486.784 1477.867 1468.093 1461.913 1454.234 1447.286 1442.757 1436.437 1426.788 1416.315 1403.544 1392.905 1384.631 1376.505 1368.959 1359.158 1344.923 1332.833 1322.362 1315.291 1311.466 1305.146 1297.269 1288.308 1275.983 1267.434 1257.928 1248.630 1244.046 1235.070 1223.462 1213.481 1209.377 1200.881 1195.868 1186.678 1174.924 1162.077 1148.614 1139.639 1131.535 1113.064 1097.617 1087.036 1075.764 1074.230 1072.551 1065.323 1054.899 1041.884 1033.621 1024.011 1019.717 1010.666 1004.079 999.437 1000.555 998.120 991.889 998.918 990.246 981.832 976.258 968.822 957.229 960.734 952.204 947.075 940.306 920.221 908.959 893.682 886.928 869.505 863.037 856.340 853.934 850.406 849.002 847.288 842.901 837.679 833.926 827.410 817.652 808.738 800.434 794.852 790.646 788.323 784.527 780.374 779.389 777.252 775.864 775.780 776.111 774.719 770.576 768.078 762.022 758.590 754.539 752.961 751.074 748.336 745.198 741.597 740.717 738.050 735.465 730.286 724.007 716.673 708.597 705.868 698.589 692.196 691.750 689.746 684.931 682.550 679.170 675.038 671.542 665.206 660.173 656.711 653.474 651.636 650.756 649.283 649.275 649.352 646.800 644.036 642.641 639.851 633.327 629.480 626.249 622.739 620.046 614.435 609.586 603.474 601.228 598.914 596.436 591.430 589.168 588.292 587.322 585.502 584.003 581.273 578.724 577.407 575.719 573.185 567.150 564.343 559.387 554.982 553.168 550.325 542.319 535.892 532.575 534.189 536.467 535.339 537.631 526.542 518.422 508.756 501.338 502.686 518.776 534.167 536.452 545.514 555.302 561.292 571.202 583.777 594.257 606.768 620.084 641.983 654.349 653.860 657.291 662.006 666.501 672.828 680.478 685.332 691.412 692.033 694.556 695.541 703.776 717.946 728.948 732.885 742.139 750.622 757.965 764.167 772.845 779.418 782.701 789.262 807.587 821.331 835.921 852.673 863.680 873.319 887.697 900.934 937.408 957.753 977.749 1009.087 1024.694 1041.464 1054.181 1096.788 1128.194 1147.558 1162.214 1152.698 1175.551 1206.873 1308.150 1335.361 1376.585 1405.326 1424.379 1438.993 1443.144 1444.720 1445.785 1450.924 1464.450 1477.744 1493.916 1501.054 1508.650 1518.386 1539.789 1528.734 1524.982 1520.643 1520.247 1517.677 1513.136 1511.240 1504.739 1511.229 1509.693 1513.905 1502.209 1483.524 1479.687 1477.479 1473.036 1468.974 1466.246 1465.214 1460.553 1451.529 1445.660 1434.448
1869.152 1859.440 1849.392 1834.762 1824.558 1811.195 1801.000 1790.219 1778.705 1767.065 1755.247 1749.732 1739.004 1730.543 1726.133 1722.701 1718.914 1713.988 1712.877 1703.266 1697.996 1694.784 1695.658 1702.623 1690.687 1679.752 1669.592 1659.233 1649.294 1642.094 1647.223 1642.787 1642.384 1640.719 1638.948 1648.896 1645.166 1644.863 1639.063 1633.317 1627.387 1619.231 1612.753 1603.678 1594.096 1584.323 1571.670 1570.072 1574.036 1578.283 1579.829 1566.966 1554.693 1544.029 1537.450 1528.900 1524.038 1516.522 1508.976 1498.917 1485.829 1486.106 1488.120 1490.440 1491.127 1487.160 1486.319 1487.747 1492.640 1493.678 1495.339 1493.200 1490.649 1489.258 1482.821 1478.335 1467.883 1462.327 1454.005 1448.725 1442.916 1440.751 1430.076 1419.480 1409.192 1396.985 1386.723 1378.338 1368.538 1361.925 1352.327 1339.159 1326.272 1318.720 1314.623 1311.237 1307.329 1298.306 1290.564 1280.043 1273.777 1263.550 1255.746 1247.366 1232.661 1220.912 1214.138 1210.094 1202.991 1191.789 1181.299 1166.063 1153.588 1141.213 1129.643 1121.233 1105.614 1091.390 1078.274 1070.261 1065.721 1062.359 1060.598 1050.109 1036.008 1025.035 1020.581 1016.599 1006.784 1001.008 999.452 998.718 996.990 993.704 990.656 986.304 981.094 973.703 969.093 966.369 955.147 947.733 939.898 931.673 924.417 918.859 909.593 899.233 889.439 875.303 867.145 856.480 851.831 848.430 843.046 838.426 837.242 833.445 825.806 815.558 805.504 796.512 791.182 788.286 783.684 780.677 775.833 775.484 776.171 774.108 773.443 773.763 772.213 769.476 763.703 761.401 755.150 753.084 750.322 748.304 746.458 743.309 739.813 737.632 735.794 733.249 729.109 725.483 719.062 714.072 706.118 701.901 696.475 692.965 688.900 685.760 683.517 679.128 674.714 669.739 663.629 660.988 658.037 654.925 651.615 651.349 647.366 651.184 649.182 646.602 642.964 640.925 639.282 634.831 633.966 630.021 626.934 622.493 618.351 613.451 608.468 602.824 599.141 593.715 589.352 588.903 588.639 587.699 585.580 583.762 581.923 578.720 576.541 574.240 571.190 564.666 561.838 558.519 556.040 551.897 543.339 541.662 544.740 541.588 540.077 543.771 542.412 537.847 529.112 519.431 510.259 504.281 501.357 517.659 535.402 542.866 549.410 557.030 565.958 575.092 587.977 598.321 610.657 630.224 650.227 654.832 655.128 661.940 668.375 676.623 681.525 688.348 694.355 699.253 698.216 699.768 704.549 715.896 728.363 731.688 740.511 741.836 753.312 760.849 768.480 777.395 786.302 790.632 801.831 817.740 832.868 845.823 859.842 874.500 890.489 922.095 934.690 944.923 959.079 991.213 1017.137 1040.722 1056.248 1088.185 1115.657 1156.043 1176.816 1184.313 1184.819 1205.557 1271.633 1324.601 1343.361 1395.180 1420.214 1433.973 1447.919 1453.191 1459.104 1464.353 1465.964 1474.010 1488.201 1502.003 1517.894 1530.776 1535.791 1551.220 1545.741 1539.481 1536.681 1533.861 1531.242 1527.428 1524.566 1523.196 1523.003 1523.522 1521.783 1512.237 1500.585 1494.127 1490.203 1486.104 1482.472 1479.389 1474.243 1469.684 1456.972 1449.333 1441.037
1860.835 1850.485 1837.481 1824.933 1812.408 1800.581 1793.951 1783.509 1771.879 1760.721 1749.016 1739.725 1730.616 1724.023 1714.782 1706.946 1706.960 1702.124 1697.619 1696.031 1686.861 1680.438 1674.120 1677.182 1685.820 1672.826 1664.627 1654.738 1645.989 1636.295 1629.126 1631.064 1629.478 1627.982 1627.550 1632.730 1634.870 1633.612 1625.173 1622.576 1620.203 1613.502 1604.824 1596.444 1588.067 1578.582 1566.363 1559.247 1566.115 1570.278 1569.751 1559.432 1548.042 1538.894 1530.034 1520.865 1513.505 1506.341 1500.191 1490.531 1477.515 1477.814 1480.028 1481.365 1481.106 1478.165 1477.430 1478.083 1479.229 1483.307 1482.197 1482.432 1479.558 1480.220 1476.730 1467.959 1458.920 1453.399 1448.024 1443.165 1440.175 1435.735 1426.287 1414.383 1400.319 1391.045 1381.699 1372.334 1363.909 1353.546 1343.964 1333.826 1325.556 1316.314 1311.971 1309.782 1305.369 1297.350 1292.101 1283.807 1276.794 1268.460 1257.646 1245.491 1232.136 1221.120 1213.998 1207.992 1198.546 1187.049 1173.519 1159.586 1147.235 1134.506 1122.540 1113.224 1093.294 1079.302 1069.368 1063.348 1058.869 1056.257 1049.220 1040.857 1028.800 1021.361 1017.451 1011.974 1002.549 998.157 997.818 999.091 995.746 994.241 990.780 983.614 978.791 972.786 969.554 963.721 951.303 942.841 934.522 927.147 917.706 913.241 904.646 896.387 887.740 882.741 873.597 866.842 860.206 854.990 844.810 842.097 838.189 832.323 824.358 816.026 807.486 796.232 787.860 783.280 781.350 777.625 772.264 771.059 769.949 771.879 771.726 771.008 769.865 765.844 762.534 757.025 752.213 750.491 748.884 744.987 744.181 742.024 739.754 737.215 734.378 732.232 728.151 724.605 718.969 714.231 705.681 702.097 700.346 694.452 690.492 688.991 685.565 679.027 674.500 668.318 663.594 661.166 658.376 654.806 651.894 650.578 652.360 651.339 647.907 643.967 642.684 642.420 641.728 640.028 638.649 634.589 632.254 626.888 621.454 616.589 612.016 606.447 601.544 594.352 589.975 587.109 578.750 576.353 573.332 571.132 567.885 567.474 567.600 560.935 558.310 556.389 553.908 547.622 546.262 548.588 544.830 548.757 548.788 548.386 546.490 547.647 545.923 541.287 533.910 525.331 517.628 511.997 501.640 512.673 531.608 542.482 551.078 560.632 567.702 578.761 590.417 601.418 615.544 634.265 651.728 656.884 659.074 665.467 674.267 684.092 689.803 697.496 702.782 709.728 712.192 712.439 716.319 724.331 734.663 739.682 746.917 751.476 755.581 759.357 771.576 781.221 790.327 798.676 809.674 827.960 842.519 855.881 873.459 890.534 917.543 937.182 949.302 960.506 974.502 1005.728 1029.253 1054.669 1094.362 1110.785 1141.618 1146.649 1200.595 1204.499 1227.347 1279.758 1321.035 1359.650 1381.172 1401.259 1430.949 1445.052 1454.618 1461.701 1471.296 1477.339 1482.857 1488.120 1496.192 1512.917 1529.631 1543.599 1553.662 1565.946 1563.224 1555.832 1553.538 1549.363 1544.140 1543.156 1541.218 1539.490 1535.951 1535.414 1532.455 1525.083 1517.580 1511.871 1509.530 1503.065 1496.798 1495.184 1486.184 1472.200 1459.705 1451.901 1438.133
1850.076 1834.393 1827.547 1818.254 1806.921 1795.023 1784.760 1775.216 1762.290 1751.056 1741.550 1732.426 1724.491 1715.885 1705.969 1699.089 1692.240 1687.219 1684.229 1686.208 1675.889 1669.057 1662.533 1662.915 1662.105 1667.586 1652.681 1646.561 1639.853 1631.483 1622.784 1618.403 1617.735 1614.635 1614.735 1612.422 1614.057 1612.839 1606.013 1614.132 1612.012 1604.738 1597.931 1590.779 1580.930 1570.875 1559.475 1552.948 1557.258 1562.799 1560.490 1551.496 1541.027 1531.451 1523.869 1516.009 1507.754 1500.488 1491.307 1484.083 1475.038 1470.795 1471.503 1472.785 1471.693 1468.851 1466.885 1467.060 1469.453 1472.447 1471.253 1471.282 1469.473 1471.522 1468.120 1457.809 1450.150 1444.821 1440.972 1436.782 1437.757 1431.315 1420.166 1405.152 1393.498 1384.074 1375.232 1366.625 1358.436 1348.466 1336.930 1328.987 1322.862 1313.925 1307.944 1305.637 1299.429 1293.501 1288.450 1283.811 1277.304 1266.278 1255.159 1243.015 1230.529 1220.701 1211.568 1203.639 1191.257 1183.223 1170.501 1158.387 1142.219 1129.251 1119.096 1102.978 1085.902 1072.665 1064.950 1056.310 1053.918 1051.521 1046.742 1039.967 1027.283 1018.307 1013.579 1008.495 1001.344 998.069 997.311 996.557 995.985 993.721 988.036 980.591 976.902 973.332 968.634 957.654 945.554 938.891 931.447 922.096 915.540 904.237 896.478 887.370 880.131 875.812 866.738 861.112 857.112 855.475 851.404 846.740 840.275 832.963 824.293 813.454 804.498 793.879 783.896 780.030 776.700 774.622 770.282 768.170 767.363 768.034 769.766 769.170 765.683 762.500 758.999 753.473 749.944 749.358 747.041 743.542 741.734 740.257 738.655 735.064 732.054 730.466 725.592 721.598 717.331 713.763 706.911 703.868 702.486 694.903 692.549 691.564 685.318 677.577 674.576 670.250 664.149 661.550 658.195 654.483 652.655 653.802 651.349 649.798 650.183 649.800 647.341 647.153 645.166 643.131 641.519 639.074 633.820 629.140 623.986 618.622 612.608 608.719 604.426 597.331 591.450 581.265 586.559 586.495 582.313 578.936 577.403 571.623 569.632 568.554 572.162 565.810 563.309 557.763 550.627 547.250 550.584 551.685 551.761 551.829 549.722 549.055 547.500 544.491 537.235 531.479 523.544 515.309 503.077 512.928 532.009 546.688 556.227 564.793 573.330 585.119 597.080 607.199 620.382 642.661 656.394 658.159 663.798 672.057 680.865 691.258 698.554 703.993 709.464 716.784 720.453 724.142 728.285 736.207 742.904 746.388 751.937 756.488 761.885 772.558 771.975 779.549 794.334 805.252 822.396 833.323 854.561 868.010 892.056 912.034 932.187 947.273 961.285 979.195 1001.553 1017.314 1029.611 1046.603 1085.193 1100.025 1108.537 1123.215 1185.984 1260.951 1313.739 1329.761 1353.594 1366.284 1392.138 1412.600 1443.057 1453.854 1463.999 1473.456 1490.814 1494.006 1499.931 1506.036 1512.054 1530.141 1545.295 1554.657 1570.135 1578.284 1576.879 1571.791 1568.126 1563.562 1558.297 1557.623 1555.193 1553.007 1551.282 1549.779 1544.706 1537.859 1531.229 1525.330 1521.819 1515.745 1510.272 1506.182 1499.043 1479.402 1463.460 1452.505 1433.091
1803.992 1801.392 1813.244 1802.872 1799.988 1790.049 1778.965 1769.493 1757.305 1745.838 1734.376 1723.204 1713.999 1709.673 1701.188 1693.239 1687.016 1679.486 1674.696 1671.769 1665.669 1660.320 1652.933 1646.475 1647.201 1658.187 1649.125 1636.079 1631.617 1624.938 1618.543 1610.296 1607.146 1603.670 1603.745 1600.448 1597.103 1596.724 1592.973 1590.136 1602.689 1594.694 1588.943 1580.365 1573.271 1562.887 1549.990 1548.429 1551.328 1561.309 1554.211 1542.248 1532.518 1524.822 1515.427 1507.649 1501.992 1494.650 1485.513 1479.927 1470.036 1464.431 1464.436 1464.686 1463.553 1458.740 1457.356 1457.857 1461.851 1462.775 1461.360 1461.789 1460.286 1462.059 1460.133 1450.589 1445.019 1439.385 1435.295 1435.838 1434.310 1425.065 1411.770 1398.483 1387.942 1377.575 1369.459 1361.912 1353.043 1343.444 1334.066 1324.643 1317.659 1309.767 1303.718 1298.663 1294.133 1288.085 1282.884 1278.465 1270.381 1259.180 1249.118 1239.127 1228.614 1214.978 1210.049 1194.702 1180.982 1166.884 1158.668 1143.248 1130.083 1117.888 1106.805 1094.567 1078.713 1066.953 1054.981 1045.265 1042.298 1039.679 1034.386 1026.870 1023.559 1017.520 1011.257 1008.034 1004.843 1003.184 998.984 995.634 994.432 991.419 984.968 978.424 974.447 969.090 968.961 963.163 950.349 936.167 928.692 921.604 911.544 901.539 891.590 881.767 875.642 868.543 861.167 859.542 858.148 856.292 851.489 846.888 841.164 831.234 819.711 806.776 797.140 787.064 778.472 775.611 773.860 771.932 769.836 767.880 767.453 767.051 768.564 767.235 764.480 760.468 756.678 751.578 747.063 743.350 741.648 739.468 737.513 736.935 735.534 734.222 733.516 730.333 726.754 722.113 717.812 713.397 709.683 706.632 704.745 700.307 695.012 692.402 686.518 679.857 675.247 672.346 668.366 662.964 656.340 656.447 654.750 662.007 658.107 656.389 653.617 651.051 651.050 650.726 647.824 646.077 642.497 638.382 633.575 630.642 625.073 621.042 615.231 611.289 605.553 599.941 592.325 592.187 597.083 596.079 593.552 588.807 585.337 582.557 578.980 576.419 574.564 571.338 565.556 561.532 559.441 557.323 554.004 554.588 555.383 555.777 553.211 551.057 548.641 545.540 538.339 532.918 525.428 518.592 504.968 511.761 527.416 544.388 559.041 568.624 578.990 587.785 597.642 613.154 627.986 637.911 651.436 661.700 668.857 679.233 687.837 696.088 704.363 712.944 717.449 721.851 724.457 730.616 736.762 742.052 747.500 754.665 762.245 766.856 773.968 780.120 784.141 798.203 811.302 821.956 830.970 856.701 866.581 886.974 907.100 928.454 943.438 958.400 974.709 995.697 1013.149 1035.101 1056.425 1087.611 1088.881 1095.953 1106.302 1124.072 1184.273 1293.661 1342.612 1362.490 1382.642 1387.346 1397.113 1424.280 1447.007 1461.772 1473.297 1492.115 1503.906 1537.883 1520.810 1534.049 1541.102 1549.568 1557.123 1569.784 1579.769 1589.994 1590.807 1586.884 1582.667 1575.310 1573.501 1572.883 1569.217 1566.989 1565.014 1563.817 1557.196 1550.564 1544.816 1538.486 1535.196 1528.866 1522.428 1516.959 1510.590 1482.489 1462.532 1451.512 1418.798
1770.111 1773.277 1768.084 1793.274 1786.068 1776.608 1767.758 1756.810 1752.890 1740.143 1728.501 1717.280 1706.621 1697.541 1689.429 1680.739 1676.756 1668.251 1663.396 1663.539 1655.317 1649.704 1643.578 1637.444 1629.171 1628.960 1638.948 1631.171 1620.968 1617.034 1611.606 1605.090 1599.086 1594.297 1591.498 1589.627 1585.909 1583.084 1580.899 1576.383 1583.636 1577.707 1575.341 1566.839 1563.631 1556.231 1545.646 1535.807 1538.104 1549.229 1545.752 1535.323 1526.927 1518.321 1510.076 1501.534 1494.347 1487.899 1480.107 1474.162 1468.454 1461.910 1458.987 1458.746 1457.601 1454.637 1451.289 1447.044 1453.456 1455.484 1451.995 1454.815 1455.137 1450.047 1447.202 1443.606 1437.543 1432.717 1431.276 1434.909 1425.325 1412.098 1401.958 1390.917 1381.498 1371.439 1363.732 1355.714 1347.275 1339.733 1330.092 1322.833 1315.011 1307.750 1301.996 1292.495 1287.474 1281.108 1276.650 1270.663 1263.705 1253.414 1244.268 1235.282 1227.227 1210.925 1200.226 1187.971 1172.986 1159.739 1149.168 1137.804 1120.520 1107.830 1097.025 1088.684 1075.535 1059.869 1051.101 1040.983 1037.292 1031.806 1028.376 1027.394 1027.918 1022.593 1018.648 1015.992 1012.520 1006.392 998.855 992.197 987.478 982.478 979.948 972.731 968.615 965.076 961.931 961.711 955.984 941.916 929.242 923.310 911.397 899.160 891.783 880.893 872.638 865.836 861.915 859.226 856.587 852.002 845.100 841.140 835.982 823.650 814.285 802.750 794.038 784.837 779.604 775.429 774.293 772.349 770.423 767.896 767.247 766.446 765.625 763.331 761.543 758.691 752.831 748.380 743.798 740.660 738.277 736.106 734.403 734.203 733.761 732.603 732.065 729.577 725.969 722.049 717.922 714.699 711.669 706.791 704.640 701.363 697.917 695.274 689.117 682.394 679.174 678.253 671.425 666.020 668.122 666.588 669.086 669.039 664.443 661.541 659.420 655.807 654.008 652.692 651.515 648.773 642.375 639.220 635.967 631.461 629.142 624.382 618.218 614.515 610.131 604.349 593.663 600.238 602.341 600.070 598.240 594.966 590.675 587.359 582.955 579.730 578.476 575.891 568.823 564.522 563.776 561.427 558.174 556.323 556.867 556.664 553.815 549.036 546.978 542.217 534.788 530.264 522.718 519.226 511.070 512.290 527.906 545.373 559.579 572.557 578.834 590.148 597.748 614.194 630.790 643.047 653.925 663.403 673.069 681.691 690.756 700.524 710.169 721.259 727.346 730.400 733.847 739.948 746.198 746.285 752.485 762.395 769.103 776.405 784.661 795.046 804.439 815.022 814.767 831.849 849.698 866.247 885.941 904.264 918.411 936.187 949.641 971.427 989.694 1010.129 1027.353 1051.872 1075.669 1102.654 1117.729 1110.916 1119.922 1130.348 1215.686 1327.627 1357.083 1384.426 1395.877 1399.319 1418.508 1437.759 1454.909 1472.320 1488.046 1503.357 1565.806 1550.252 1549.733 1550.608 1556.123 1564.344 1571.639 1583.491 1593.198 1603.308 1605.188 1602.794 1598.890 1591.643 1589.460 1588.548 1584.371 1580.891 1579.779 1577.812 1570.383 1563.457 1559.413 1553.115 1552.341 1552.155 1537.379 1529.039 1521.300 1485.734 1463.266 1442.092 1416.102
1755.544 1745.999 1757.922 1745.624 1725.710 1739.995 1760.574 1748.888 1745.938 1741.648 1732.143 1720.278 1704.044 1693.461 1682.962 1674.771 1666.859 1658.616 1655.849 1653.474 1649.252 1638.493 1634.516 1628.951 1620.419 1611.892 1617.927 1624.404 1613.352 1608.637 1605.266 1598.584 1593.124 1586.931 1581.932 1579.115 1575.040 1571.928 1567.119 1565.957 1560.285 1559.996 1562.116 1556.814 1550.361 1545.161 1537.549 1527.249 1528.037 1537.606 1536.893 1528.100 1519.535 1511.276 1504.354 1495.859 1487.207 1479.648 1474.102 1468.461 1464.217 1461.062 1457.242 1453.490 1453.337 1446.896 1444.792 1442.532 1445.334 1445.498 1443.046 1448.245 1447.276 1443.516 1441.043 1436.447 1431.853 1425.874 1424.134 1427.133 1414.322 1401.542 1392.526 1383.185 1374.552 1366.590 1358.631 1350.209 1343.007 1335.664 1328.625 1321.468 1313.605 1306.494 1296.294 1282.520 1271.111 1271.592 1267.723 1260.102 1251.372 1243.255 1235.264 1229.790 1219.794 1206.516 1190.977 1174.437 1163.675 1151.139 1141.217 1132.012 1119.067 1102.354 1093.232 1077.781 1066.363 1055.097 1047.010 1040.710 1035.784 1032.120 1029.864 1028.328 1026.835 1025.574 1023.907 1022.360 1008.621 1002.440 992.883 989.095 982.214 977.150 972.127 967.441 964.381 961.465 957.696 954.421 952.119 947.697 941.486 932.859 924.297 909.280 894.332 883.452 872.433 866.555 858.265 855.193 853.681 849.843 845.325 840.456 832.299 820.530 811.560 804.364 793.506 785.982 779.833 776.013 774.190 773.490 771.462 769.742 768.628 766.787 764.474 763.243 760.525 756.959 753.745 749.337 746.539 742.814 740.508 737.410 736.380 735.703 734.636 733.201 730.891 728.070 725.588 721.715 718.763 715.158 712.359 709.909 706.288 701.016 696.406 695.546 692.128 686.133 683.476 681.477 677.986 681.064 680.158 677.688 675.571 670.392 668.671 667.511 662.327 657.366 656.621 654.428 652.475 648.403 643.780 640.962 639.220 635.948 631.722 626.288 621.025 616.507 611.534 604.393 602.836 608.464 607.864 605.661 604.310 599.259 595.214 592.339 586.927 583.390 582.018 579.144 572.544 568.401 567.578 564.696 562.070 559.914 558.501 557.878 554.840 550.649 545.585 539.762 533.664 530.418 523.064 519.374 507.640 512.717 532.625 546.870 562.937 577.049 582.545 590.720 602.008 614.462 630.569 644.593 658.315 667.941 675.813 686.377 696.552 705.129 716.050 727.480 736.940 741.740 742.936 746.432 750.244 755.227 761.984 772.451 781.147 790.439 801.054 809.395 823.098 835.594 841.597 851.309 863.511 881.807 901.129 916.504 932.639 946.323 959.881 986.051 999.714 1024.493 1041.750 1064.543 1099.564 1119.193 1137.990 1138.991 1137.438 1194.683 1287.527 1339.043 1361.480 1386.090 1406.280 1422.311 1438.498 1448.390 1463.634 1479.933 1497.819 1512.627 1535.685 1562.051 1576.293 1582.258 1577.379 1581.022 1585.397 1596.153 1612.016 1618.036 1619.179 1617.268 1609.962 1607.898 1604.858 1603.819 1598.826 1595.674 1593.920 1591.167 1582.739 1578.325 1572.760 1568.458 1567.014 1569.082 1568.858 1542.368 1533.705 1477.348 1460.861 1450.716 1432.118
1738.077 1726.052 1718.250 1720.376 1711.475 1704.020 1723.908 1738.111 1737.550 1733.803 1727.023 1717.381 1705.494 1690.891 1677.059 1666.278 1658.705 1652.431 1645.524 1642.393 1640.379 1632.162 1624.372 1620.170 1613.232 1606.454 1598.736 1601.939 1607.559 1598.598 1596.734 1595.122 1589.414 1581.831 1575.088 1569.970 1565.703 1562.448 1553.614 1554.224 1550.965 1548.544 1546.966 1543.646 1542.453 1536.277 1531.511 1521.467 1517.226 1527.096 1528.640 1522.172 1513.165 1504.609 1497.871 1490.271 1483.339 1475.021 1469.644 1464.928 1460.267 1458.692 1456.464 1454.174 1448.189 1443.260 1439.174 1430.728 1436.332 1437.092 1433.275 1438.572 1440.014 1435.748 1434.213 1431.706 1425.004 1420.258 1413.375 1405.400 1400.585 1391.813 1384.731 1376.033 1368.933 1362.225 1354.192 1346.075 1338.201 1332.442 1327.184 1320.096 1311.944 1302.487 1291.529 1273.753 1261.507 1255.470 1252.412 1246.560 1238.164 1230.132 1222.873 1225.137 1214.429 1197.807 1181.096 1165.236 1154.548 1142.451 1134.326 1125.937 1112.077 1098.444 1085.947 1069.950 1061.911 1053.678 1046.925 1040.365 1035.714 1032.374 1030.766 1030.553 1031.813 1029.546 1028.409 1013.780 1007.958 997.689 992.517 988.631 980.124 971.363 968.011 966.268 962.090 956.418 952.164 951.366 949.206 944.607 942.434 937.160 927.153 914.036 905.505 896.111 884.832 872.021 860.443 858.693 851.866 847.956 843.981 837.081 830.597 821.482 812.077 804.365 794.665 787.026 783.246 779.511 777.728 776.000 772.169 769.621 768.840 766.712 765.858 763.927 761.352 757.076 753.609 750.469 747.039 743.216 740.033 737.729 735.696 734.481 733.361 731.584 728.671 723.576 721.272 717.379 715.667 715.991 714.008 712.020 709.904 705.015 698.523 696.116 690.890 686.971 687.419 679.682 687.867 689.000 685.309 681.123 678.016 672.550 669.692 669.593 666.874 661.745 657.848 656.126 653.529 648.608 646.442 643.311 640.730 636.839 633.753 628.830 624.330 618.981 613.234 606.568 609.276 611.273 611.918 608.923 606.186 603.715 600.087 595.401 588.960 584.460 583.054 582.500 577.090 573.150 571.141 567.152 564.436 563.838 562.727 559.122 556.274 553.961 545.144 539.279 534.474 529.881 522.491 515.417 507.084 528.012 545.506 556.014 570.124 586.143 589.982 596.546 608.740 623.755 637.142 646.347 659.500 668.629 677.495 690.844 703.844 711.661 719.042 730.001 740.650 744.262 748.579 752.147 757.560 763.831 771.446 782.708 792.257 802.656 813.458 822.064 831.523 844.861 856.029 861.043 874.964 894.695 909.546 926.200 939.939 960.731 977.672 998.343 1008.061 1036.181 1068.866 1090.720 1119.155 1135.832 1163.049 1174.056 1266.995 1321.009 1339.456 1359.689 1390.545 1406.422 1420.257 1449.159 1453.919 1462.562 1476.845 1490.222 1507.124 1523.721 1537.302 1560.425 1592.339 1598.651 1594.732 1600.661 1602.898 1610.462 1621.366 1633.015 1639.647 1634.386 1628.222 1623.025 1621.072 1619.388 1621.182 1630.603 1608.320 1605.013 1596.547 1591.600 1585.886 1582.672 1580.192 1579.112 1573.783 1547.309 1532.221 1483.163 1465.792 1455.404 1445.280
1715.331 1717.649 1702.943 1694.871 1699.444 1695.481 1691.843 1710.154 1701.985 1722.485 1719.310 1710.597 1700.272 1690.139 1675.393 1658.699 1653.414 1646.836 1640.278 1631.380 1631.324 1624.102 1616.865 1610.875 1604.108 1598.393 1589.781 1583.937 1584.741 1588.517 1584.162 1580.447 1576.920 1572.607 1569.495 1561.206 1556.830 1551.937 1539.218 1539.772 1538.187 1536.406 1532.050 1530.489 1529.616 1525.145 1521.244 1514.533 1509.002 1514.783 1516.472 1513.201 1507.492 1501.491 1494.103 1487.387 1480.028 1472.080 1467.463 1463.335 1459.893 1457.580 1456.123 1453.566 1450.434 1448.548 1445.205 1440.718 1428.704 1428.020 1425.822 1424.644 1429.395 1426.559 1426.197 1424.487 1419.130 1413.790 1406.827 1396.525 1390.126 1383.035 1376.350 1368.897 1362.779 1354.977 1347.102 1340.024 1333.555 1329.372 1322.956 1316.042 1307.343 1296.034 1282.359 1267.620 1252.962 1240.414 1237.574 1232.771 1226.275 1219.212 1213.856 1212.422 1206.741 1193.106 1176.096 1161.339 1146.286 1135.195 1127.422 1116.970 1106.942 1092.153 1076.725 1068.329 1060.344 1052.541 1045.433 1038.652 1033.598 1031.811 1030.524 1030.616 1031.903 1030.609 1022.289 1011.489 1006.367 998.270 992.612 988.270 979.191 969.550 965.139 961.955 959.087 953.678 948.313 945.582 944.039 939.814 936.909 936.858 930.242 917.842 910.215 900.332 889.244 872.502 866.385 858.703 852.810 847.281 842.767 835.500 827.850 819.976 811.146 802.809 795.365 789.529 783.892 781.269 781.080 778.330 775.340 768.961 765.129 764.958 764.840 763.597 760.536 757.464 754.106 751.551 748.255 744.714 741.273 737.956 736.793 735.766 734.033 732.121 729.354 725.496 723.073 720.407 719.534 716.325 715.048 714.462 712.344 709.689 706.571 705.430 694.960 689.158 688.549 690.856 694.287 691.815 687.225 683.140 679.760 674.790 672.407 671.599 668.400 663.102 660.190 657.328 653.843 650.174 647.046 642.023 639.688 637.032 634.266 628.503 624.192 618.451 610.065 608.804 612.805 615.358 614.358 613.845 610.981 605.878 602.891 597.783 590.018 586.051 585.261 585.567 581.269 577.375 574.364 571.110 566.750 565.199 564.567 561.552 558.733 553.960 546.883 542.025 536.318 529.594 523.549 511.095 516.635 532.028 550.739 566.877 579.576 590.035 594.464 600.057 612.402 631.985 644.443 651.795 662.968 670.735 678.114 690.983 703.626 713.520 723.297 733.968 739.542 745.338 750.385 761.813 770.222 774.129 782.941 793.773 806.332 815.079 824.924 835.177 841.838 853.151 864.542 876.422 890.376 906.419 921.189 936.271 961.520 973.097 992.151 1016.032 1025.496 1034.646 1072.384 1099.159 1110.901 1142.326 1157.406 1197.296 1295.159 1350.642 1375.784 1388.464 1411.874 1425.827 1436.245 1455.854 1467.872 1476.884 1485.232 1499.151 1514.771 1530.732 1548.219 1569.392 1597.416 1621.593 1622.174 1620.685 1624.882 1627.943 1705.838 1660.750 1669.745 1649.302 1674.886 1744.945 1783.251 1660.586 1642.209 1638.721 1627.589 1622.493 1612.726 1603.446 1599.687 1595.384 1589.931 1579.368 1560.196 1544.240 1504.113 1486.146 1473.331 1460.480 1465.735
1698.207 1701.549 1694.685 1682.712 1679.625 1683.158 1678.092 1673.153 1672.646 1674.090 1698.645 1703.925 1695.033 1686.859 1674.160 1656.362 1644.708 1640.419 1635.840 1627.928 1618.837 1616.220 1609.613 1603.032 1596.389 1589.802 1581.583 1576.764 1569.484 1569.288 1574.044 1572.031 1567.448 1561.058 1560.006 1554.692 1549.573 1544.453 1536.062 1531.986 1529.444 1525.434 1521.321 1516.699 1517.262 1514.043 1509.574 1505.152 1499.856 1501.458 1502.999 1501.969 1496.299 1492.851 1487.849 1480.741 1474.255 1469.066 1464.719 1460.734 1457.469 1455.499 1455.410 1453.282 1451.255 1449.377 1446.798 1443.414 1437.777 1428.907 1424.210 1416.348 1417.320 1418.898 1418.335 1416.923 1412.016 1407.615 1399.231 1390.600 1384.355 1378.082 1371.093 1364.032 1356.763 1349.362 1342.660 1336.872 1331.353 1325.934 1320.287 1310.297 1302.091 1286.866 1273.674 1260.779 1246.458 1234.144 1226.004 1223.093 1213.194 1207.944 1203.250 1195.085 1192.224 1183.412 1168.580 1154.145 1139.635 1127.027 1118.026 1109.620 1096.327 1084.430 1074.826 1066.320 1056.932 1049.499 1044.672 1036.067 1030.712 1029.032 1028.618 1030.112 1031.679 1030.443 1019.280 1010.953 1004.832 997.660 993.479 984.847 977.589 968.533 963.954 958.664 956.898 951.479 944.428 940.755 937.183 935.364 932.624 931.707 932.705 923.462 917.360 909.114 894.315 884.893 872.248 861.090 855.378 850.567 843.918 835.599 827.654 817.694 809.898 802.353 796.629 788.082 785.750 786.524 781.147 782.777 779.969 771.655 766.959 767.964 768.433 765.392 761.211 757.303 753.838 752.775 750.589 747.467 744.821 741.380 738.902 736.716 734.760 731.524 728.733 724.967 720.413 718.382 718.420 716.394 714.263 714.033 713.269 711.920 709.930 699.594 692.461 695.565 697.054 698.370 695.018 692.551 688.143 684.530 680.936 676.669 674.374 671.744 667.303 662.172 659.177 655.941 653.512 651.026 646.566 642.032 640.066 636.906 634.540 628.726 623.817 617.615 610.578 609.897 616.896 616.010 614.927 613.640 611.741 608.616 604.244 597.931 592.257 589.664 588.594 586.916 582.641 580.681 576.633 571.558 568.193 566.246 564.731 563.426 560.433 554.529 546.616 542.548 538.847 530.776 521.260 509.631 518.008 531.921 543.095 554.231 565.875 571.539 580.790 592.047 608.761 636.020 646.747 655.360 664.412 672.697 681.479 688.562 698.922 710.912 724.675 734.864 737.848 743.242 754.366 768.062 780.021 787.616 795.607 805.159 814.539 824.830 836.236 845.816 854.020 863.585 873.258 889.507 904.645 922.390 940.290 955.115 971.072 982.490 1021.474 1038.792 1050.676 1059.691 1058.130 1083.683 1104.869 1120.145 1151.618 1255.085 1317.499 1352.017 1401.601 1418.927 1421.877 1430.724 1450.455 1465.468 1477.740 1488.492 1499.193 1508.944 1524.813 1539.294 1555.907 1575.850 1602.954 1637.046 1637.814 1637.145 1649.178 1813.391 1801.783 1710.624 1714.640 1699.871 1720.342 1777.110 1791.718 1800.432 1709.154 1652.690 1645.098 1636.378 1626.438 1619.939 1613.604 1606.294 1588.691 1570.743 1551.440 1531.604 1506.486 1492.826 1481.783 1476.056 1477.297
1686.074 1684.297 1680.979 1675.089 1668.385 1671.546 1668.867 1662.860 1661.155 1659.987 1660.360 1659.527 1681.938 1676.335 1663.734 1652.427 1638.940 1629.634 1626.927 1621.052 1613.823 1607.447 1601.849 1596.028 1588.377 1583.244 1575.856 1568.965 1562.025 1557.076 1558.350 1558.922 1561.951 1555.654 1550.596 1545.429 1541.438 1538.514 1532.197 1526.137 1520.770 1516.755 1512.817 1508.558 1504.281 1502.538 1500.355 1495.315 1492.205 1490.826 1491.309 1489.307 1484.091 1482.429 1477.747 1478.161 1475.069 1470.355 1464.832 1459.212 1454.377 1452.297 1452.284 1452.093 1451.122 1448.708 1446.434 1445.318 1441.708 1435.633 1427.692 1418.795 1412.695 1415.653 1413.359 1409.917 1405.770 1402.501 1392.434 1383.777 1377.827 1370.630 1363.434 1356.283 1351.232 1345.891 1341.305 1335.537 1330.108 1323.930 1318.542 1306.557 1291.536 1279.291 1265.927 1252.438 1240.425 1227.184 1217.947 1219.629 1210.178 1201.372 1193.805 1181.644 1176.030 1175.339 1164.089 1147.260 1133.787 1118.514 1109.296 1103.339 1091.594 1083.271 1074.290 1063.304 1053.344 1047.651 1042.236 1032.714 1027.694 1026.672 1026.948 1027.989 1029.501 1029.690 1014.071 1006.518 1000.773 995.207 984.909 978.502 975.471 968.189 962.441 954.154 951.809 949.737 941.951 934.857 929.104 926.219 924.569 922.736 923.549 926.245 922.380 916.067 914.974 901.325 888.687 867.860 856.496 848.506 844.294 837.622 827.915 816.750 808.470 802.376 797.304 793.809 791.268 786.609 782.964 784.206 780.728 774.651 772.040 772.771 770.495 768.925 765.234 759.605 757.256 759.885 759.601 753.014 746.892 743.443 741.387 738.879 735.632 731.992 727.604 722.073 717.882 714.755 713.453 713.766 712.850 712.185 710.934 709.579 706.209 696.397 702.138 701.643 702.531 698.907 695.503 692.640 688.398 683.956 681.256 676.110 672.523 669.781 662.457 659.062 656.561 653.202 651.285 649.879 645.456 641.087 638.852 636.455 632.407 626.566 621.880 615.623 611.673 616.217 619.191 617.431 616.572 614.578 611.670 608.663 605.714 599.856 595.992 593.926 590.613 588.771 584.143 581.928 576.956 570.840 568.059 565.760 564.184 564.049 560.596 555.679 548.486 543.011 538.896 529.851 521.551 509.647 522.417 532.413 537.017 546.288 555.833 564.036 576.534 591.338 604.500 617.309 632.444 649.563 660.887 669.977 678.760 686.552 699.413 709.501 723.545 732.577 738.729 746.130 756.377 766.830 780.963 796.119 806.229 814.705 824.503 834.342 845.001 854.870 866.009 875.483 888.248 902.598 918.853 936.007 952.829 968.517 981.497 1025.395 1034.158 1048.706 1074.750 1073.112 1086.583 1086.830 1102.719 1118.861 1154.719 1293.521 1331.896 1363.919 1414.840 1436.554 1436.070 1445.266 1458.188 1464.746 1485.706 1500.510 1511.412 1523.468 1535.261 1548.296 1563.948 1582.123 1615.063 1645.565 1655.949 1723.364 1802.700 1813.969 1800.566 1763.648 1708.800 1714.856 1733.633 1748.575 1780.650 1810.494 1809.876 1791.921 1706.124 1652.488 1646.465 1645.509 1633.248 1620.552 1586.251 1568.170 1549.830 1530.676 1511.399 1499.203 1491.578 1492.200 1495.704
1674.920 1673.377 1667.299 1661.884 1658.536 1659.333 1657.160 1651.649 1649.889 1646.975 1644.369 1643.427 1639.505 1640.814 1648.070 1635.678 1629.922 1620.719 1618.237 1613.057 1608.302 1600.819 1594.436 1588.972 1582.395 1575.187 1569.115 1562.696 1555.306 1549.340 1546.215 1546.770 1547.955 1544.150 1542.085 1537.607 1532.853 1531.330 1526.581 1519.565 1514.101 1509.842 1503.922 1500.863 1495.913 1491.108 1489.835 1486.753 1486.375 1484.035 1480.602 1479.192 1475.651 1473.518 1465.911 1469.554 1475.571 1468.813 1461.135 1454.635 1450.767 1448.397 1448.623 1448.385 1447.577 1444.648 1444.346 1443.788 1441.857 1436.505 1427.397 1419.166 1410.079 1410.181 1407.180 1404.291 1400.184 1394.123 1386.590 1377.971 1371.272 1365.052 1359.344 1354.307 1349.920 1345.480 1340.852 1334.956 1326.801 1322.491 1316.146 1304.851 1288.114 1271.947 1258.244 1243.873 1231.227 1219.906 1210.698 1203.926 1199.027 1194.187 1181.844 1175.168 1163.827 1160.241 1153.882 1137.640 1122.553 1105.309 1099.607 1093.666 1085.786 1079.259 1068.372 1057.920 1049.826 1044.102 1038.882 1032.007 1026.439 1025.383 1025.667 1028.473 1030.334 1029.316 1012.901 1003.916 997.926 987.217 981.964 975.531 968.828 961.269 953.731 948.569 948.825 945.073 939.864 933.524 929.245 923.610 915.553 910.343 911.657 918.229 923.150 928.373 920.463 912.419 901.163 887.236 870.941 859.751 855.461 849.810 826.165 816.263 810.136 803.227 798.314 793.655 791.777 788.666 788.427 788.501 791.053 788.450 786.870 794.488 789.997 781.257 765.442 756.885 761.881 762.459 765.979 753.187 745.853 743.062 741.892 737.708 732.158 728.924 724.771 718.755 713.736 710.896 710.727 711.268 710.228 709.624 707.975 701.891 699.479 705.564 706.469 705.927 703.643 700.553 695.764 692.247 688.661 683.350 680.366 675.783 672.303 669.442 661.136 653.765 649.051 644.656 642.456 641.539 637.344 635.011 631.145 631.051 628.033 623.562 618.535 613.306 613.006 619.252 619.253 618.380 618.561 616.129 613.092 610.838 606.480 602.813 600.021 598.164 592.939 590.360 584.381 580.806 574.125 569.162 567.166 565.616 565.457 563.734 559.948 555.347 550.201 544.238 540.268 531.401 523.096 511.398 523.327 541.759 553.736 555.853 564.418 580.011 587.831 596.556 603.887 611.949 625.015 639.674 659.465 670.237 679.120 688.500 699.318 710.112 719.350 727.018 736.673 743.177 756.266 769.798 783.934 794.612 808.838 822.945 833.693 842.950 853.486 864.736 877.187 893.098 906.640 923.006 938.111 952.447 975.836 994.947 1027.015 1036.250 1045.841 1071.139 1089.773 1091.676 1104.460 1113.104 1125.183 1138.360 1182.432 1323.324 1359.795 1381.240 1440.929 1454.376 1453.716 1457.743 1469.115 1481.860 1486.852 1497.916 1515.778 1533.144 1548.550 1559.529 1573.693 1599.519 1624.723 1657.762 1747.260 1805.399 1822.631 1815.932 1794.336 1762.343 1723.838 1736.452 1793.899 1791.882 1787.488 1807.105 1837.253 1836.598 1818.049 1794.224 1711.822 1670.055 1642.793 1632.875 1588.154 1570.667 1552.869 1536.199 1520.708 1506.495 1500.757 1510.074 1521.043
1663.453 1662.659 1657.527 1650.966 1650.315 1647.027 1643.984 1639.800 1638.582 1636.288 1630.688 1626.407 1622.688 1621.817 1619.088 1618.390 1612.380 1606.382 1608.627 1604.255 1600.305 1594.046 1588.277 1581.341 1575.093 1568.972 1561.869 1556.640 1549.790 1542.625 1540.232 1535.489 1535.449 1533.363 1531.232 1529.381 1525.817 1524.188 1519.982 1514.913 1508.661 1503.592 1498.229 1493.532 1489.731 1484.413 1481.652 1479.070 1480.425 1477.334 1475.433 1469.416 1465.308 1464.175 1458.311 1456.682 1459.864 1458.697 1454.484 1449.682 1446.303 1442.219 1443.738 1443.328 1441.815 1438.771 1440.667 1441.271 1442.341 1436.302 1425.469 1417.140 1410.458 1403.317 1400.469 1397.716 1394.495 1386.809 1378.685 1372.939 1365.920 1359.861 1355.555 1350.987 1346.855 1342.085 1335.327 1329.801 1323.128 1316.110 1309.834 1300.803 1285.882 1271.012 1255.773 1245.437 1234.694 1222.674 1208.084 1194.384 1182.180 1179.997 1173.183 1159.838 1150.909 1145.431 1139.823 1128.313 1113.055 1100.390 1093.177 1085.381 1079.840 1072.321 1062.043 1051.059 1042.241 1036.255 1031.475 1028.576 1025.668 1024.870 1025.338 1028.393 1029.808 1026.087 1010.660 997.600 991.985 983.131 979.265 973.929 967.016 961.963 952.182 945.510 945.047 943.073 938.358 933.456 926.898 921.157 915.292 907.869 905.117 909.059 918.645 924.286 924.756 910.602 900.003 892.193 884.230 878.006 870.501 849.201 832.009 818.386 815.259 806.913 798.642 800.485 797.497 798.554 809.642 806.927 807.137 802.315 811.309 819.751 810.023 792.990 780.549 772.253 767.469 774.718 785.027 772.855 765.308 757.250 746.275 738.444 729.542 723.770 720.239 717.077 715.150 711.364 710.660 709.721 705.157 703.626 703.699 710.457 711.937 707.853 707.287 705.315 701.693 696.071 691.141 688.613 686.969 680.736 678.406 675.537 671.636 666.431 657.400 652.060 644.223 632.838 629.791 627.875 627.054 628.500 625.028 622.901 621.510 619.631 617.063 615.279 614.958 618.088 620.038 619.564 617.643 616.166 615.507 612.177 609.729 608.211 605.892 600.504 594.884 592.486 586.726 580.900 575.458 572.231 568.977 565.804 565.382 564.215 560.718 555.800 551.286 545.712 542.408 533.909 524.502 512.070 525.601 543.330 559.615 572.645 576.730 585.188 596.115 605.412 613.111 629.143 635.555 653.142 661.593 668.169 677.758 690.115 699.720 708.979 717.126 728.198 737.808 744.405 753.199 766.563 781.778 792.903 806.110 821.239 834.036 847.274 860.604 871.871 888.698 908.996 919.754 933.646 949.445 974.030 1003.222 1020.584 1038.519 1046.499 1062.952 1075.529 1092.387 1111.320 1132.172 1138.110 1146.373 1163.702 1266.945 1335.810 1373.063 1401.413 1437.753 1456.001 1467.129 1473.297 1481.776 1494.199 1501.469 1515.077 1526.442 1547.884 1560.245 1573.981 1598.991 1616.900 1649.873 1820.461 1841.511 1832.408 1850.515 1817.855 1795.479 1787.523 1749.706 1788.399 1802.289 1809.492 1807.800 1817.042 1845.017 1854.164 1849.335 1826.363 1807.073 1786.259 1709.478 1727.446 1659.302 1576.714 1561.512 1546.128 1537.589 1514.572 1522.726 1534.094 1552.139
1652.277 1650.970 1647.750 1642.098 1640.858 1636.830 1634.355 1629.350 1626.945 1626.290 1619.935 1614.311 1607.552 1605.646 1603.424 1600.004 1598.350 1594.523 1597.430 1595.127 1592.054 1586.571 1581.070 1574.772 1567.971 1563.334 1556.103 1550.208 1544.374 1538.335 1533.717 1530.355 1526.760 1523.666 1522.969 1519.390 1517.664 1515.628 1513.197 1510.618 1504.526 1498.853 1493.893 1487.361 1484.883 1480.223 1476.195 1474.426 1474.514 1469.788 1466.691 1464.429 1458.629 1455.582 1451.261 1447.678 1447.543 1445.570 1443.659 1440.754 1439.524 1438.426 1437.931 1438.340 1436.406 1434.190 1436.460 1438.942 1441.377 1432.924 1423.630 1415.184 1409.295 1397.434 1387.788 1389.718 1385.235 1378.388 1372.662 1366.394 1360.101 1354.448 1349.628 1345.514 1341.082 1337.118 1331.131 1323.766 1317.992 1311.057 1299.771 1292.900 1281.873 1269.808 1259.919 1249.002 1236.658 1221.980 1212.576 1201.007 1184.634 1168.179 1156.849 1151.545 1134.071 1132.851 1130.044 1119.656 1106.460 1095.794 1085.668 1075.922 1069.443 1064.518 1055.137 1044.920 1037.916 1031.939 1028.801 1026.629 1025.717 1025.305 1024.684 1024.933 1027.085 1020.788 1003.889 993.584 986.810 979.700 977.364 971.487 968.241 960.045 951.021 945.733 943.794 942.442 936.073 930.116 924.011 919.321 911.695 907.909 904.548 903.709 910.410 918.899 922.114 913.443 903.316 893.591 886.495 884.150 871.474 864.104 850.750 837.485 832.729 828.207 817.263 813.600 816.858 825.379 833.270 826.964 823.618 821.328 829.283 826.750 815.877 804.302 793.372 797.505 792.189 792.731 782.078 772.092 764.680 755.151 749.812 740.113 734.243 727.350 721.209 719.668 717.258 714.311 710.853 708.315 706.342 705.130 706.286 707.593 708.799 707.457 705.427 703.866 699.027 693.894 687.687 687.052 684.810 681.357 677.262 673.144 668.305 661.642 655.097 651.317 639.483 642.072 640.970 639.901 632.042 622.720 621.783 620.398 618.782 615.404 615.402 616.582 616.295 616.662 619.212 619.333 617.777 616.845 616.322 614.420 613.783 610.823 606.924 600.790 597.672 593.472 588.480 581.321 577.209 573.547 570.418 567.758 567.277 565.076 561.174 556.537 549.764 544.815 541.857 535.272 524.919 514.575 527.069 541.372 556.562 572.470 587.600 597.351 607.757 616.869 625.298 631.399 640.864 652.746 662.210 669.246 675.814 690.918 700.826 712.050 722.593 732.007 743.108 747.815 752.391 764.367 781.390 796.613 808.766 822.347 837.421 852.061 866.234 885.380 908.166 939.696 959.699 967.850 988.510 1010.645 1022.142 1040.431 1052.184 1063.051 1074.241 1084.309 1106.045 1130.936 1149.346 1158.215 1179.929 1250.137 1313.858 1347.145 1380.001 1406.381 1431.451 1452.379 1473.414 1487.895 1494.366 1504.699 1522.088 1536.293 1540.932 1556.520 1573.272 1590.313 1611.059 1651.701 1812.703 1834.031 1861.252 1858.545 1854.535 1865.002 1811.712 1790.875 1785.210 1797.376 1812.704 1826.236 1829.450 1837.750 1856.347 1866.503 1851.359 1826.958 1809.836 1797.797 1720.128 1732.988 1619.391 1578.886 1568.152 1550.755 1555.489 1527.677 1547.101 1555.205 1572.045
1641.168 1640.591 1637.031 1633.085 1627.272 1626.401 1625.105 1618.666 1616.483 1615.823 1611.002 1604.205 1596.819 1592.558 1589.581 1586.177 1585.500 1583.856 1585.942 1584.252 1583.170 1578.266 1573.721 1567.887 1561.098 1557.390 1551.160 1544.953 1539.941 1534.554 1530.370 1526.254 1522.669 1519.626 1516.104 1513.403 1510.276 1508.218 1506.356 1503.815 1499.605 1495.525 1490.750 1487.549 1482.346 1478.589 1475.481 1472.363 1470.542 1466.853 1463.125 1459.806 1456.844 1453.513 1451.260 1446.882 1443.307 1441.531 1439.993 1438.089 1436.079 1436.124 1434.537 1433.461 1432.548 1432.200 1434.282 1434.866 1433.138 1424.251 1416.891 1410.180 1405.799 1398.595 1389.515 1373.018 1373.477 1370.008 1366.588 1358.529 1353.258 1347.658 1344.674 1339.025 1335.250 1327.517 1323.658 1318.404 1310.783 1303.836 1296.630 1287.248 1275.553 1267.306 1257.811 1248.602 1237.813 1222.390 1207.675 1193.973 1183.742 1177.829 1166.968 1157.092 1138.791 1125.734 1112.882 1108.771 1101.754 1088.037 1079.156 1068.412 1062.346 1057.177 1049.560 1039.962 1034.438 1031.482 1029.169 1028.164 1026.527 1024.578 1023.181 1022.147 1020.429 1010.523 997.083 991.492 985.530 977.713 973.191 967.957 965.076 953.856 948.857 944.073 941.700 938.205 933.907 928.267 921.435 914.766 908.948 905.922 904.929 903.294 902.690 907.125 916.346 908.109 905.344 901.751 897.063 895.049 887.638 872.655 862.449 851.254 851.057 847.352 835.849 835.429 840.630 839.473 834.707 833.647 834.474 836.219 840.959 835.356 828.179 818.263 812.832 809.241 800.535 791.307 780.585 769.436 763.774 758.788 751.051 746.102 737.130 727.231 722.747 718.291 716.478 713.850 710.665 709.180 707.804 704.490 703.059 702.286 705.127 705.989 705.980 704.187 695.207 693.753 689.449 685.279 684.760 681.752 676.215 670.457 665.894 660.773 656.144 647.786 643.330 652.033 648.684 642.010 635.290 629.419 625.535 620.814 618.462 616.573 617.111 618.098 616.984 616.890 620.084 620.175 617.813 616.866 616.014 615.694 612.948 609.940 605.035 600.348 596.608 593.140 588.473 582.853 577.543 573.624 572.395 570.086 568.322 565.911 563.315 558.640 550.452 544.346 540.594 534.824 525.131 514.997 531.791 540.444 554.861 569.432 586.231 602.869 616.128 630.448 641.025 644.227 646.911 658.308 668.154 672.395 677.998 689.983 700.872 716.014 727.502 737.995 748.173 752.229 752.509 767.022 781.637 798.464 813.476 830.550 844.912 862.894 880.432 901.725 928.228 947.950 963.925 987.278 1006.890 1018.936 1042.644 1056.353 1067.506 1083.731 1088.320 1104.979 1119.339 1137.759 1167.111 1190.695 1242.965 1322.346 1338.259 1375.448 1399.451 1424.322 1440.676 1457.987 1479.518 1496.234 1510.000 1527.667 1538.159 1548.808 1559.425 1572.053 1590.864 1603.413 1631.478 1787.136 1814.098 1837.385 1868.902 1877.532 1881.628 1852.374 1817.825 1801.928 1819.558 1809.968 1826.131 1836.025 1852.271 1850.599 1866.014 1872.361 1856.515 1830.836 1818.030 1794.177 1713.045 1667.178 1610.572 1600.263 1575.931 1569.629 1567.496 1544.450 1556.226 1567.477 1583.273
1630.275 1629.718 1626.548 1623.641 1618.699 1616.849 1616.377 1610.404 1606.554 1605.501 1603.173 1596.316 1588.216 1583.070 1579.685 1575.450 1573.394 1574.425 1575.148 1572.715 1572.471 1568.805 1565.300 1559.736 1554.543 1550.043 1544.670 1540.511 1535.755 1531.276 1526.635 1522.259 1518.511 1515.095 1514.417 1508.741 1504.609 1502.146 1500.647 1499.150 1495.713 1491.818 1488.186 1485.255 1482.069 1478.252 1474.931 1472.271 1468.435 1464.645 1461.518 1459.102 1456.891 1454.443 1451.087 1447.466 1443.820 1440.055 1438.076 1436.299 1433.967 1434.493 1432.903 1431.313 1429.316 1429.462 1431.196 1429.779 1426.477 1418.043 1410.826 1405.891 1402.345 1395.047 1389.750 1379.352 1366.337 1360.150 1355.798 1353.125 1346.720 1338.670 1336.649 1330.861 1324.731 1319.337 1313.378 1308.933 1301.087 1294.614 1289.681 1278.793 1267.946 1261.414 1253.049 1240.993 1228.820 1218.091 1209.163 1194.493 1176.959 1164.703 1157.958 1150.480 1133.879 1123.851 1110.507 1100.173 1095.725 1083.358 1071.350 1063.015 1059.008 1052.554 1045.978 1039.844 1035.767 1032.591 1030.472 1029.099 1026.576 1023.237 1022.421 1021.235 1015.038 1003.193 992.608 987.820 982.518 977.785 972.718 965.852 960.266 953.213 946.544 941.940 940.771 935.618 929.751 925.752 917.417 910.777 904.842 905.042 902.651 902.892 902.188 901.402 907.691 907.245 897.527 890.130 883.614 878.745 879.189 869.993 867.697 862.422 860.239 855.770 850.030 843.031 838.995 834.685 831.929 830.095 828.946 829.208 831.460 829.441 821.192 814.879 812.704 809.172 800.111 788.628 781.531 775.062 764.374 758.603 751.645 746.221 734.650 730.171 721.515 718.959 718.570 716.926 715.912 715.122 711.624 707.007 703.559 701.604 702.131 704.448 704.097 697.985 694.434 692.090 690.958 689.649 686.007 680.191 675.689 670.405 664.656 657.380 648.014 645.755 652.282 651.919 649.219 643.392 636.556 631.022 626.105 620.317 617.784 617.530 617.651 617.930 617.554 618.451 621.048 619.841 617.505 615.638 613.368 612.477 610.482 608.434 604.606 599.445 595.748 592.698 588.726 583.544 579.394 575.902 575.115 572.578 570.761 567.578 563.886 558.546 549.493 542.432 537.793 530.997 521.969 516.385 536.233 544.916 557.362 569.841 585.897 603.294 621.046 637.868 649.935 655.052 659.702 667.940 671.482 676.681 683.148 689.785 707.027 720.877 734.230 743.272 749.546 755.659 760.878 775.120 792.720 806.149 826.252 847.474 865.592 878.318 894.679 917.319 938.486 953.155 970.742 1001.706 1015.477 1033.537 1051.720 1069.486 1080.172 1094.149 1102.927 1116.390 1132.171 1152.922 1191.179 1229.654 1310.432 1357.305 1372.843 1392.406 1427.229 1437.170 1448.361 1465.522 1483.714 1519.373 1530.076 1541.218 1549.691 1564.997 1578.433 1586.336 1601.804 1622.025 1642.523 1791.615 1826.747 1844.025 1877.013 1892.899 1875.340 1853.035 1829.242 1821.913 1826.127 1834.352 1847.179 1851.539 1866.031 1880.092 1878.278 1850.109 1848.354 1811.032 1800.865 1788.242 1744.897 1648.804 1624.822 1604.097 1592.819 1584.827 1573.225 1564.047 1569.730 1575.989 1590.375
1620.187 1619.163 1616.728 1613.916 1609.568 1607.416 1606.639 1603.312 1598.070 1594.386 1594.084 1587.823 1581.613 1574.560 1568.539 1565.321 1562.474 1563.799 1564.621 1562.990 1561.582 1559.452 1556.885 1552.268 1547.063 1543.942 1539.759 1536.986 1532.876 1528.957 1525.037 1520.966 1516.463 1510.596 1510.801 1506.298 1499.096 1497.557 1496.631 1495.451 1492.745 1489.608 1485.956 1482.492 1479.922 1477.230 1474.649 1472.552 1470.986 1466.323 1459.247 1457.017 1454.828 1453.086 1450.734 1447.443 1443.974 1440.801 1437.072 1434.198 1432.873 1430.188 1428.815 1429.094 1427.793 1427.813 1429.411 1429.193 1421.520 1412.010 1406.190 1402.690 1397.076 1389.152 1382.739 1374.701 1366.308 1357.286 1345.927 1343.232 1339.608 1334.036 1325.633 1324.917 1314.987 1312.572 1306.612 1300.938 1295.019 1289.501 1282.719 1273.975 1264.325 1256.064 1246.204 1232.054 1221.645 1214.228 1204.459 1191.476 1175.648 1161.146 1149.945 1138.051 1127.405 1119.094 1107.306 1099.098 1083.271 1076.062 1069.926 1062.537 1055.248 1050.004 1046.583 1040.313 1035.014 1031.848 1030.224 1028.069 1024.681 1023.688 1022.274 1021.077 1013.107 1001.081 992.053 985.146 977.033 972.518 970.963 963.989 958.899 949.815 943.627 938.984 937.808 934.499 929.747 923.815 919.067 911.176 904.719 903.673 901.807 902.095 901.172 899.281 898.661 901.820 901.211 894.589 886.824 878.532 875.402 870.439 864.351 863.625 861.064 853.474 845.102 840.622 834.730 830.454 828.145 830.379 830.025 827.880 827.198 822.100 814.661 810.735 810.105 806.476 799.276 793.942 786.608 775.098 761.811 757.591 753.766 746.532 739.412 730.043 720.940 720.187 718.950 718.049 718.098 717.893 716.689 713.510 708.760 701.994 698.298 697.650 696.350 695.462 692.137 688.979 686.449 684.105 681.077 678.788 673.855 670.051 668.202 656.853 656.937 660.221 653.619 652.347 650.456 647.080 638.247 631.686 626.535 621.913 619.392 617.520 617.630 617.760 618.238 619.753 620.492 617.706 615.831 612.712 611.644 611.795 610.556 608.409 602.666 598.605 594.990 591.485 588.269 584.755 581.973 577.835 575.636 574.232 573.304 568.863 563.370 558.441 550.620 540.480 535.532 527.802 519.056 519.945 537.436 549.356 561.384 574.287 587.352 600.449 615.864 629.103 644.122 661.050 663.707 667.479 670.671 678.014 687.609 696.416 704.368 715.766 732.318 741.978 747.556 756.089 767.953 780.979 798.254 816.751 841.829 864.220 877.625 897.154 913.436 931.297 947.879 962.473 998.347 1014.480 1026.254 1047.258 1061.366 1081.964 1100.081 1108.412 1122.774 1180.381 1163.993 1184.072 1216.994 1268.857 1325.518 1363.382 1388.588 1407.245 1433.998 1458.347 1466.990 1475.053 1493.177 1536.692 1547.947 1555.949 1568.002 1582.094 1595.115 1603.974 1614.833 1634.146 1659.324 1795.535 1823.279 1853.177 1876.852 1887.778 1867.115 1851.846 1840.889 1843.732 1843.457 1856.670 1862.829 1872.207 1882.686 1890.713 1869.344 1846.896 1820.259 1799.601 1775.228 1753.105 1724.268 1650.808 1641.533 1615.408 1609.917 1599.266 1567.426 1578.629 1588.814 1596.922 1606.160
1610.916 1609.385 1607.233 1604.484 1601.168 1598.239 1597.036 1594.368 1590.608 1585.869 1584.967 1580.251 1573.252 1568.531 1561.298 1556.656 1554.602 1554.536 1554.781 1552.897 1551.819 1549.376 1547.505 1544.158 1539.728 1537.177 1534.409 1531.623 1529.239 1526.402 1522.737 1519.618 1515.100 1511.387 1502.854 1500.035 1494.343 1493.966 1493.156 1491.848 1489.689 1487.217 1484.196 1480.715 1478.217 1476.120 1474.597 1472.473 1468.424 1464.499 1460.746 1455.978 1452.555 1450.757 1449.275 1445.656 1442.583 1439.430 1437.063 1434.812 1429.197 1425.843 1426.254 1426.600 1426.620 1426.744 1428.072 1425.621 1416.404 1406.809 1400.539 1397.305 1391.099 1382.731 1375.462 1368.324 1360.125 1354.908 1344.759 1334.523 1329.733 1324.535 1320.536 1316.283 1312.971 1304.416 1300.906 1294.574 1289.326 1284.891 1278.842 1268.248 1257.805 1253.461 1241.769 1227.338 1219.098 1208.435 1199.150 1188.429 1175.006 1163.000 1146.307 1133.100 1121.324 1109.881 1103.316 1095.785 1087.566 1073.062 1068.068 1062.347 1055.710 1050.057 1045.893 1040.668 1037.095 1033.469 1031.320 1026.104 1023.989 1024.162 1023.079 1020.260 1012.505 1000.516 990.120 982.026 973.451 971.409 966.329 962.603 956.175 949.063 941.490 936.442 931.050 930.769 928.126 921.711 917.008 912.061 910.216 907.894 905.173 903.959 900.678 895.617 894.294 893.788 893.337 890.995 889.379 885.081 878.926 873.359 868.148 864.052 860.885 855.291 846.612 840.533 833.711 829.309 827.375 826.756 826.669 827.865 824.561 819.373 812.792 809.282 808.048 803.288 800.410 795.085 786.996 775.140 766.580 761.159 757.998 751.473 739.137 730.069 726.094 722.521 720.460 719.008 717.949 717.392 716.918 715.165 708.013 702.276 691.266 687.458 688.980 685.383 689.294 684.636 681.194 677.260 677.740 674.503 672.399 670.811 667.749 656.091 664.617 661.382 653.723 652.949 651.375 648.423 641.128 634.716 631.701 626.980 621.340 618.331 618.271 618.728 618.941 621.037 620.006 616.645 613.850 612.008 612.291 610.011 608.410 608.046 602.880 598.172 595.890 590.612 588.416 585.639 583.211 579.881 577.680 575.937 574.878 569.145 561.456 555.457 546.996 537.315 529.291 521.059 519.676 521.168 538.475 549.739 562.828 576.936 588.959 603.303 618.494 633.122 645.952 660.440 665.104 670.008 672.095 679.783 688.508 700.549 710.075 722.225 733.931 738.552 749.371 763.576 792.506 805.072 809.148 820.269 861.082 875.589 888.769 910.068 928.368 940.884 956.219 983.241 1010.380 1021.419 1040.852 1058.665 1077.776 1093.927 1112.995 1125.436 1138.097 1196.287 1207.536 1229.803 1266.269 1313.261 1329.190 1355.354 1403.652 1423.822 1443.510 1466.502 1489.578 1498.955 1521.740 1547.034 1566.868 1580.924 1587.302 1596.141 1609.986 1630.509 1629.991 1648.170 1780.674 1799.700 1819.316 1849.069 1872.717 1898.371 1875.509 1864.566 1858.385 1859.252 1860.264 1879.332 1881.949 1893.371 1901.629 1888.747 1868.304 1850.719 1833.388 1801.633 1759.811 1716.996 1687.753 1685.782 1633.888 1646.347 1638.615 1611.192 1590.612 1608.538 1613.531 1618.224 1622.703
1602.319 1600.318 1597.935 1595.901 1592.741 1590.837 1589.245 1585.643 1583.429 1578.746 1575.641 1573.524 1567.563 1562.239 1557.532 1553.550 1549.506 1548.161 1546.498 1544.103 1543.430 1540.860 1539.417 1536.387 1533.027 1531.515 1529.195 1527.633 1525.325 1523.137 1520.793 1517.462 1512.761 1508.858 1503.091 1494.238 1492.408 1491.177 1489.945 1488.687 1486.823 1484.098 1481.342 1478.788 1476.270 1473.600 1472.593 1470.277 1467.029 1462.837 1458.784 1455.520 1453.619 1452.029 1451.135 1447.398 1443.162 1439.694 1436.984 1434.194 1431.220 1426.621 1423.182 1424.268 1425.572 1424.267 1424.726 1421.079 1411.450 1403.185 1398.266 1390.776 1384.653 1376.668 1369.711 1362.324 1357.038 1349.999 1343.318 1334.584 1322.397 1317.488 1309.302 1306.024 1307.744 1301.051 1293.277 1288.042 1282.924 1278.321 1271.963 1261.695 1254.542 1244.910 1235.592 1223.461 1213.759 1205.179 1194.717 1185.333 1169.543 1156.062 1138.508 1127.271 1115.906 1102.359 1095.850 1090.576 1079.257 1068.569 1061.945 1058.032 1052.801 1047.082 1044.403 1041.805 1038.762 1035.393 1030.428 1024.761 1023.105 1022.438 1022.539 1016.365 1006.666 995.659 984.677 977.310 973.328 969.884 966.372 960.691 955.280 946.617 939.847 932.156 926.133 925.712 923.461 918.798 914.800 911.733 909.612 905.369 904.570 903.849 901.186 892.931 889.973 889.906 889.859 888.807 885.750 883.087 879.748 875.884 873.014 867.637 861.097 854.286 847.567 841.373 835.806 832.031 829.005 827.534 826.786 826.407 822.048 820.483 814.296 810.186 807.189 802.024 798.290 794.231 785.857 778.233 773.841 765.688 760.564 748.235 740.776 734.932 728.831 725.222 722.231 721.495 716.697 715.380 712.352 712.298 703.957 698.016 697.170 696.092 690.111 685.419 678.966 681.519 679.874 677.560 673.530 671.600 669.876 660.952 658.678 661.415 665.922 662.820 655.357 653.280 651.260 647.647 642.420 636.193 632.467 628.973 623.076 621.230 620.922 621.400 622.995 622.355 620.209 617.577 614.575 611.890 610.790 611.051 610.103 606.799 601.051 597.919 594.318 590.031 587.314 585.799 584.850 582.157 577.876 577.093 574.878 568.802 557.545 549.076 542.459 532.508 524.780 527.348 523.601 520.327 536.081 548.115 558.480 572.035 587.923 603.410 621.212 635.019 644.299 650.069 655.660 663.715 670.312 678.397 687.557 698.879 711.321 722.246 732.174 745.625 763.416 790.117 803.409 815.602 826.696 836.387 872.718 886.839 901.259 918.324 933.797 947.668 975.488 998.683 1014.719 1037.345 1059.279 1069.759 1092.805 1109.166 1126.111 1143.280 1179.506 1212.349 1247.041 1259.542 1293.870 1337.105 1355.817 1368.006 1409.860 1424.017 1449.149 1467.477 1486.563 1505.014 1521.393 1555.572 1586.551 1597.907 1608.177 1616.819 1630.359 1660.929 1647.980 1658.654 1789.925 1814.288 1840.286 1851.275 1884.774 1902.942 1887.945 1885.369 1886.636 1875.835 1880.034 1895.161 1901.770 1902.524 1888.468 1872.741 1853.573 1834.498 1814.755 1783.422 1735.901 1713.206 1711.231 1697.271 1658.344 1676.677 1668.086 1604.008 1621.378 1632.343 1636.160 1634.892 1633.386
1594.442 1592.324 1589.254 1587.188 1584.936 1582.617 1581.253 1578.033 1575.384 1572.604 1569.046 1565.371 1561.668 1556.456 1553.196 1550.188 1546.801 1544.512 1542.165 1539.323 1536.351 1532.875 1531.603 1530.052 1527.164 1525.655 1524.685 1524.009 1521.197 1520.130 1517.810 1515.536 1511.651 1506.541 1499.808 1491.956 1489.144 1489.669 1490.639 1489.470 1485.525 1481.204 1478.526 1476.746 1474.309 1471.953 1469.512 1467.549 1465.031 1461.943 1458.083 1455.860 1453.604 1453.484 1451.511 1446.871 1441.600 1437.094 1434.422 1431.262 1428.295 1425.380 1422.067 1425.895 1424.289 1422.494 1420.188 1412.677 1403.893 1397.773 1394.757 1389.385 1380.496 1371.761 1364.044 1357.167 1350.547 1342.252 1337.918 1331.592 1320.836 1308.721 1303.877 1298.413 1298.771 1295.248 1288.674 1281.646 1275.998 1272.517 1264.649 1254.750 1251.123 1243.614 1231.957 1220.210 1210.210 1201.845 1192.857 1181.408 1168.420 1152.929 1134.954 1122.171 1108.977 1098.231 1091.431 1083.481 1071.494 1061.372 1057.632 1052.244 1048.471 1045.123 1042.941 1041.066 1036.556 1032.061 1026.505 1022.994 1022.000 1020.876 1015.409 1007.336 996.235 987.249 980.712 974.595 971.372 967.989 963.754 957.641 951.003 944.125 935.171 928.341 925.751 920.701 918.613 914.555 910.410 908.436 906.868 904.399 904.553 903.896 899.445 896.214 889.455 884.569 885.334 884.922 883.819 882.531 880.114 877.125 873.905 869.730 863.141 857.646 848.827 842.655 836.571 832.966 830.841 829.311 828.097 827.358 825.427 821.123 816.602 813.475 809.515 803.050 797.626 789.589 785.687 779.716 773.878 768.099 755.381 748.441 742.969 736.012 732.035 725.937 724.970 724.966 720.940 715.842 708.313 704.455 708.727 708.659 706.201 701.223 693.827 686.719 679.894 674.990 674.246 671.562 671.660 669.934 669.703 670.712 669.717 665.682 664.465 660.392 656.842 652.813 651.159 649.116 644.248 638.171 633.337 630.054 630.419 626.568 624.783 624.644 623.915 621.596 620.428 618.335 615.164 612.410 612.732 612.362 611.374 607.621 601.233 597.179 595.247 591.191 587.949 584.987 582.876 576.382 573.276 568.447 565.915 562.296 552.990 544.067 536.151 528.942 526.573 534.686 525.374 521.897 539.073 550.000 560.578 571.221 586.316 604.036 616.574 626.970 628.385 639.159 646.056 655.745 666.063 675.862 683.707 693.830 712.332 726.971 739.529 754.115 778.887 791.795 808.071 827.309 838.447 853.831 880.510 892.865 908.300 921.812 936.221 953.800 983.302 1000.213 1023.720 1049.599 1067.153 1085.499 1101.550 1116.316 1136.358 1151.469 1183.419 1215.934 1269.115 1299.401 1343.820 1361.399 1372.924 1404.991 1431.208 1439.297 1456.388 1468.600 1483.214 1497.235 1515.201 1549.196 1575.076 1623.202 1634.810 1641.411 1660.088 1726.706 1686.372 1775.983 1803.775 1827.118 1847.681 1864.749 1885.897 1915.185 1903.710 1905.138 1891.091 1892.747 1901.444 1913.455 1909.163 1893.941 1878.174 1862.107 1845.640 1825.929 1806.913 1768.841 1737.891 1737.711 1723.179 1681.277 1688.150 1695.772 1686.710 1618.026 1637.021 1648.147 1653.290 1648.061 1648.858
1587.355 1585.246 1582.309 1580.048 1578.351 1576.250 1574.010 1572.065 1569.105 1566.960 1564.126 1560.393 1557.169 1554.335 1551.518 1549.983 1547.427 1544.428 1541.165 1536.544 1532.225 1526.888 1525.381 1523.007 1521.899 1521.393 1520.650 1520.299 1518.554 1516.032 1514.700 1512.721 1506.187 1501.085 1495.255 1485.392 1483.628 1486.595 1486.955 1487.605 1484.024 1478.497 1475.304 1473.990 1472.013 1469.760 1467.201 1465.483 1462.394 1459.912 1458.376 1456.316 1454.812 1452.623 1450.657 1445.832 1440.141 1434.806 1432.028 1428.964 1425.901 1422.868 1420.026 1421.119 1420.069 1420.922 1414.185 1405.503 1398.877 1394.434 1390.607 1384.135 1376.411 1368.964 1362.582 1357.132 1347.447 1337.469 1329.308 1325.631 1320.955 1311.398 1298.809 1289.880 1286.108 1283.908 1283.374 1276.648 1268.711 1263.475 1257.917 1251.329 1243.555 1236.876 1227.963 1219.724 1208.716 1192.739 1179.993 1171.328 1160.029 1145.933 1127.868 1114.709 1099.818 1091.822 1083.420 1073.448 1062.022 1053.851 1049.057 1045.619 1045.752 1043.614 1040.712 1037.209 1033.187 1028.499 1025.734 1021.578 1020.974 1016.337 1008.284 1000.206 993.012 983.716 979.223 973.602 967.722 962.655 956.979 953.031 947.786 941.193 932.054 928.192 922.489 919.070 913.768 910.132 907.890 907.332 905.147 904.272 904.045 901.025 898.938 889.863 889.574 882.185 882.234 881.191 879.701 878.655 875.902 873.883 872.478 869.438 864.807 858.757 851.674 843.621 836.936 834.907 833.282 830.785 830.465 828.712 826.537 822.842 818.271 815.381 809.812 803.645 797.218 788.749 781.437 775.412 775.562 768.229 760.172 752.234 745.567 738.639 731.274 732.302 729.474 725.651 722.711 718.335 707.272 709.027 710.255 709.645 708.168 703.262 696.202 691.195 687.000 683.458 680.162 676.495 674.342 673.538 672.862 672.854 670.234 665.217 662.879 662.624 659.966 653.659 651.214 649.393 644.134 639.326 637.287 634.759 633.339 627.896 625.276 625.903 622.291 621.736 618.625 616.868 616.140 615.282 616.215 615.785 611.536 607.746 602.039 598.708 595.374 591.053 588.755 582.588 579.387 573.321 570.135 563.297 560.498 557.217 544.947 536.971 531.991 527.038 530.119 538.452 527.745 522.632 538.723 551.969 563.436 573.339 584.807 597.202 602.875 611.697 621.584 627.862 638.062 650.048 660.576 673.073 685.244 699.781 715.502 731.796 750.639 768.929 783.538 797.660 813.440 831.317 854.337 875.190 887.323 899.187 918.107 931.465 941.800 964.219 987.656 1006.430 1040.481 1060.265 1076.061 1095.923 1111.751 1130.098 1147.087 1172.912 1193.539 1235.583 1295.343 1331.232 1356.567 1370.166 1404.954 1441.090 1453.400 1457.318 1465.642 1479.137 1495.270 1503.299 1510.561 1543.519 1563.146 1615.897 1643.116 1667.180 1702.320 1829.089 1791.261 1789.745 1811.117 1833.241 1853.097 1872.102 1911.644 1924.612 1921.997 1911.872 1906.906 1909.155 1917.359 1919.066 1903.721 1888.691 1868.634 1850.703 1833.566 1814.530 1794.705 1769.089 1770.847 1732.808 1699.779 1703.994 1707.334 1711.090 1694.197 1653.127 1661.251 1659.776 1662.814 1664.012 1658.658
1580.157 1578.391 1575.743 1574.343 1572.103 1569.981 1568.627 1566.340 1564.146 1561.731 1559.744 1557.226 1555.360 1555.400 1554.446 1553.020 1550.034 1546.956 1542.511 1536.863 1528.981 1522.958 1520.103 1518.342 1517.590 1517.413 1517.470 1517.120 1516.167 1514.097 1509.516 1509.217 1501.470 1496.305 1486.313 1479.508 1474.686 1477.812 1479.384 1481.883 1479.994 1475.182 1469.347 1469.734 1468.152 1466.913 1464.902 1463.517 1461.811 1459.245 1457.511 1456.573 1455.526 1453.430 1449.121 1444.501 1439.230 1433.929 1430.723 1427.658 1423.090 1419.997 1418.081 1417.021 1417.308 1418.733 1411.224 1396.555 1391.753 1389.051 1388.787 1380.268 1370.383 1364.869 1359.429 1353.249 1345.193 1338.685 1331.833 1324.666 1314.308 1310.934 1303.701 1293.222 1279.435 1270.902 1269.649 1269.147 1263.593 1258.351 1250.636 1245.347 1237.194 1235.444 1224.811 1211.635 1202.686 1188.562 1175.506 1160.729 1151.134 1137.939 1119.181 1105.831 1094.315 1084.700 1076.565 1062.860 1054.520 1047.456 1042.911 1042.433 1042.073 1039.460 1037.133 1033.590 1029.171 1027.099 1023.651 1021.382 1019.531 1010.849 1002.533 996.704 992.070 985.236 978.678 969.834 965.621 960.578 953.319 948.947 943.794 938.797 934.250 926.116 920.997 915.993 910.873 908.472 905.828 904.742 904.318 903.601 900.864 897.177 894.697 887.678 884.065 882.232 879.923 879.613 877.898 876.519 874.649 871.999 868.414 865.835 862.439 856.681 846.672 843.914 837.597 836.329 834.385 833.225 831.608 830.246 826.413 823.483 818.755 814.429 806.625 801.022 795.169 787.559 778.276 772.185 772.258 767.720 759.486 748.980 742.297 740.781 737.509 735.662 730.218 726.673 726.085 712.879 713.642 710.980 711.359 711.198 708.748 704.094 700.508 696.765 691.936 688.894 684.845 683.529 679.593 675.387 674.542 673.172 668.569 665.239 663.191 663.651 662.648 657.370 652.069 648.852 645.138 644.676 641.776 637.089 635.223 631.306 627.910 625.169 622.718 621.009 618.329 616.386 616.204 618.745 617.734 615.713 611.912 606.726 601.214 597.001 595.327 592.117 589.664 580.150 575.802 569.884 564.240 558.504 555.264 550.895 543.120 534.533 529.381 532.811 540.613 542.811 531.703 524.028 534.886 552.538 561.669 569.900 578.685 588.011 594.036 602.787 611.451 624.322 639.157 649.986 661.746 673.761 684.745 701.518 716.427 733.090 755.054 769.843 784.666 799.990 816.951 832.823 854.675 877.991 888.488 905.709 929.826 940.133 955.280 970.198 985.674 1027.869 1044.804 1070.185 1093.895 1112.570 1132.922 1152.682 1165.876 1187.015 1212.739 1265.923 1307.279 1342.979 1362.524 1388.490 1432.562 1449.369 1463.349 1470.995 1478.237 1490.042 1505.976 1518.348 1533.060 1545.592 1562.807 1610.923 1638.797 1676.716 1793.066 1838.316 1814.805 1814.253 1817.672 1856.330 1864.849 1919.301 1931.299 1937.605 1939.300 1927.614 1925.180 1930.000 1937.103 1922.535 1904.214 1886.566 1867.933 1849.172 1833.031 1817.667 1799.569 1787.185 1765.558 1727.959 1721.714 1726.920 1726.141 1726.032 1722.934 1675.494 1676.784 1673.563 1677.779 1675.768 1672.858
1575.664 1573.227 1571.014 1568.606 1565.715 1564.357 1563.693 1561.520 1560.147 1557.956 1556.716 1555.871 1556.017 1557.195 1555.721 1555.428 1554.117 1550.666 1545.673 1538.994 1527.036 1517.938 1516.186 1514.822 1514.695 1513.963 1514.679 1514.934 1514.562 1512.313 1508.106 1499.947 1497.479 1490.171 1481.250 1473.101 1464.546 1466.759 1468.497 1470.965 1471.641 1469.709 1462.324 1460.594 1463.833 1463.080 1460.323 1458.161 1458.796 1457.286 1456.505 1458.147 1458.811 1456.733 1453.310 1447.138 1441.462 1434.778 1430.001 1426.085 1422.324 1418.999 1415.434 1411.807 1412.828 1411.004 1404.870 1394.954 1387.015 1384.775 1383.776 1374.242 1365.953 1360.485 1354.536 1348.373 1341.216 1335.252 1328.589 1322.057 1315.154 1309.315 1298.072 1285.259 1275.816 1266.640 1258.072 1256.804 1255.242 1252.028 1244.553 1232.407 1229.910 1227.912 1223.037 1217.034 1204.368 1193.423 1175.800 1155.681 1137.722 1128.772 1110.359 1099.725 1091.990 1080.880 1068.562 1057.164 1051.056 1045.408 1042.759 1041.371 1039.636 1036.505 1032.352 1029.431 1026.276 1022.772 1022.129 1019.693 1013.213 1007.633 1000.395 992.575 988.968 983.487 975.520 966.909 961.003 956.465 951.605 947.580 941.130 936.215 929.817 923.458 920.062 914.601 911.019 907.492 905.548 903.903 903.241 902.363 900.348 897.537 890.436 883.820 880.392 879.762 878.299 876.753 875.909 874.574 873.697 871.899 863.667 858.593 854.601 851.523 845.068 839.699 839.973 841.485 839.716 837.465 832.715 829.756 825.736 822.323 815.802 810.798 804.821 799.083 793.621 784.289 777.286 772.464 772.275 768.979 761.492 752.231 748.551 744.506 741.329 737.290 733.698 732.632 725.399 713.531 719.616 714.831 713.496 712.097 707.859 705.191 700.688 698.660 695.916 690.821 687.180 685.603 679.323 675.937 677.197 675.371 671.421 665.898 664.541 664.722 663.140 658.575 652.475 650.881 651.791 647.166 644.022 638.909 637.279 634.365 629.153 624.861 622.048 620.464 619.764 616.577 616.712 618.017 619.043 616.152 613.482 607.398 601.688 597.899 596.913 593.504 589.792 582.217 574.521 569.134 562.101 558.975 555.025 548.684 542.146 532.683 534.135 541.005 547.257 537.205 528.546 525.069 536.690 554.141 560.396 570.234 571.834 583.634 594.042 607.952 621.189 637.121 648.658 657.664 666.615 674.973 687.261 696.844 708.967 722.165 739.992 754.644 780.766 797.581 813.114 835.610 871.863 885.741 899.029 915.742 930.357 945.086 961.372 974.457 995.950 1022.371 1049.833 1067.113 1083.800 1119.908 1142.431 1156.030 1182.689 1196.805 1239.162 1281.742 1320.976 1344.445 1362.719 1402.123 1434.222 1455.082 1471.710 1482.047 1490.403 1505.190 1516.350 1529.542 1549.240 1560.291 1582.628 1613.897 1645.085 1712.660 1797.402 1835.860 1854.963 1871.094 1845.639 1877.112 1898.896 1923.213 1943.567 1957.621 1951.826 1944.728 1944.841 1953.174 1940.907 1922.621 1903.074 1886.572 1870.105 1854.732 1838.662 1828.460 1812.238 1802.352 1780.206 1761.987 1742.851 1744.579 1750.708 1715.994 1692.989 1700.985 1695.003 1696.456 1697.230 1690.075 1684.881
1574.775 1569.216 1566.089 1563.600 1563.014 1562.009 1559.572 1556.828 1556.050 1554.285 1554.906 1554.896 1554.063 1555.450 1556.155 1556.501 1555.054 1552.072 1547.358 1539.220 1526.968 1514.607 1513.110 1512.109 1511.848 1512.118 1512.597 1514.788 1514.960 1512.743 1505.514 1496.212 1488.402 1484.057 1475.746 1466.615 1460.983 1459.487 1459.640 1463.031 1463.531 1460.461 1454.259 1453.046 1453.852 1457.023 1455.286 1451.726 1451.943 1452.745 1452.971 1458.340 1460.667 1460.594 1457.891 1453.273 1446.660 1437.692 1431.328 1425.975 1422.469 1418.885 1415.691 1409.395 1407.179 1401.902 1396.431 1390.861 1384.881 1381.509 1375.005 1367.980 1361.924 1356.291 1351.005 1344.743 1338.548 1332.359 1326.242 1320.044 1313.508 1307.375 1300.137 1291.339 1281.358 1269.281 1257.070 1243.630 1245.783 1239.141 1240.799 1231.901 1219.741 1215.991 1213.490 1208.769 1204.055 1185.648 1163.602 1145.072 1134.557 1115.768 1098.536 1089.171 1083.499 1070.970 1058.419 1051.961 1046.017 1040.590 1039.814 1039.121 1035.862 1033.249 1030.080 1022.038 1022.438 1018.975 1012.403 1013.799 1008.951 1005.469 998.313 990.642 985.634 980.198 974.537 966.125 959.342 956.072 951.884 946.851 942.047 936.813 930.937 923.910 920.520 916.997 913.048 911.120 907.988 903.536 902.753 901.762 899.295 895.313 894.636 891.793 881.598 880.824 879.448 877.631 876.380 872.494 873.037 870.092 869.194 865.887 862.243 857.978 853.560 848.225 844.372 842.363 840.468 836.722 833.082 831.053 822.868 817.610 813.790 806.732 802.353 796.152 791.163 781.802 775.491 773.594 772.830 770.277 762.358 755.806 750.278 745.476 742.856 741.383 735.284 728.736 725.196 718.637 723.533 717.232 715.259 712.288 708.875 704.618 700.628 699.724 697.588 692.627 687.834 687.233 681.194 678.019 678.839 678.089 674.757 669.021 666.231 665.571 663.620 660.303 653.862 652.949 651.642 648.812 645.122 640.403 637.641 634.422 630.087 626.184 625.726 622.848 621.945 619.373 617.166 616.563 611.562 609.136 612.929 607.060 602.160 598.901 598.578 593.044 585.002 580.889 571.281 566.774 561.489 557.571 553.251 547.956 538.840 533.546 538.569 549.534 544.935 533.079 529.019 528.311 533.914 545.466 558.467 569.559 581.843 591.293 604.411 617.994 633.417 647.253 655.993 660.990 671.586 688.833 699.221 713.676 726.182 735.476 744.160 754.136 772.936 794.936 813.397 830.475 846.769 870.618 905.824 908.118 928.054 944.847 950.134 977.530 995.142 1039.560 1059.671 1083.225 1100.219 1114.443 1135.093 1172.823 1189.629 1220.087 1271.928 1300.412 1332.193 1348.005 1370.819 1410.746 1437.032 1462.710 1478.928 1490.221 1504.006 1520.009 1534.495 1570.949 1621.581 1603.443 1604.995 1628.251 1661.038 1760.084 1795.569 1825.040 1855.359 1905.054 1912.605 1903.065 1872.617 1902.843 1952.725 1975.612 1973.918 1964.609 1966.582 1956.894 1940.521 1923.606 1907.924 1892.521 1878.490 1864.025 1851.861 1839.310 1825.453 1812.090 1792.678 1780.043 1769.093 1759.191 1741.875 1695.510 1714.753 1715.797 1711.583 1716.193 1719.896 1709.965 1693.844
1571.261 1568.892 1564.967 1560.910 1557.969 1557.475 1556.146 1554.088 1553.024 1551.970 1552.324 1553.378 1552.766 1555.234 1555.883 1556.106 1554.512 1551.482 1546.470 1536.691 1523.446 1511.868 1510.572 1509.349 1509.457 1509.301 1509.114 1511.929 1512.728 1508.432 1500.831 1494.518 1484.407 1473.915 1469.929 1462.556 1455.677 1453.955 1454.764 1458.555 1461.735 1454.668 1449.593 1449.332 1449.259 1447.050 1448.168 1446.310 1446.455 1445.770 1448.825 1454.604 1459.476 1461.431 1461.861 1459.009 1451.887 1444.250 1435.420 1428.986 1424.347 1420.158 1418.514 1412.784 1406.876 1395.300 1389.499 1384.245 1380.121 1376.457 1370.003 1363.166 1357.151 1351.004 1346.261 1341.649 1335.133 1328.773 1322.281 1315.166 1307.002 1302.010 1297.270 1288.192 1282.022 1272.807 1262.533 1249.730 1237.455 1227.287 1231.454 1226.348 1215.402 1208.644 1204.139 1200.023 1201.448 1177.726 1154.451 1132.919 1120.434 1107.901 1091.604 1076.140 1066.926 1059.921 1050.256 1044.452 1041.423 1035.937 1036.373 1034.966 1033.985 1031.084 1026.662 1019.907 1011.897 1011.345 1008.988 1005.221 1004.405 1000.229 994.578 989.348 982.529 976.563 972.272 964.903 958.684 954.047 949.649 945.375 941.534 937.205 932.546 926.213 922.507 916.401 915.379 911.728 907.758 903.791 902.643 903.668 900.829 899.611 898.266 891.168 886.020 884.358 879.025 879.352 875.677 873.800 872.693 873.934 874.005 872.713 865.938 860.540 855.422 850.078 845.620 843.000 841.480 837.809 833.250 831.338 822.724 819.115 812.652 804.375 799.987 793.212 787.269 782.354 777.962 775.166 773.354 769.770 762.855 757.052 752.188 747.525 744.316 739.109 729.355 733.957 727.068 728.974 725.883 720.489 716.562 712.869 709.341 705.522 703.789 701.609 698.303 693.037 688.572 685.688 682.946 680.752 680.550 679.178 675.222 670.778 666.876 665.746 662.748 659.068 656.646 653.683 651.426 648.568 645.339 641.644 638.573 634.722 631.140 629.881 626.895 625.677 624.034 621.523 618.698 610.077 604.660 603.168 604.565 607.524 602.626 597.842 600.917 589.691 580.314 575.380 570.486 562.307 556.540 551.741 543.840 540.259 534.641 539.468 546.272 552.257 544.326 535.531 530.706 529.155 541.682 553.505 562.984 574.753 586.749 597.543 611.007 628.490 641.410 649.566 657.433 667.967 683.969 698.281 711.780 721.132 728.780 737.433 748.751 764.456 783.561 800.583 827.194 843.998 858.828 871.606 883.187 898.467 912.166 939.989 967.064 983.479 997.603 1036.464 1066.110 1087.341 1121.758 1140.874 1171.088 1183.476 1212.337 1247.656 1280.400 1305.581 1330.670 1351.086 1384.459 1416.847 1441.927 1467.405 1485.536 1499.907 1521.031 1545.708 1598.120 1623.934 1626.718 1619.967 1622.887 1642.654 1750.366 1777.617 1791.880 1830.368 1860.051 1902.411 1922.965 1923.680 1905.793 1932.333 1961.288 1985.529 1986.849 1991.335 1974.358 1958.315 1942.994 1928.323 1913.708 1901.058 1888.449 1874.531 1863.532 1851.355 1840.685 1827.959 1816.992 1802.619 1791.997 1760.865 1737.657 1718.293 1730.541 1730.677 1732.099 1737.442 1733.842 1724.768 1716.902
1582.429 1576.193 1568.487 1562.271 1557.326 1555.969 1554.814 1553.760 1552.322 1551.163 1550.518 1549.814 1550.817 1554.050 1555.293 1555.832 1554.816 1551.465 1546.014 1534.726 1521.309 1510.799 1508.263 1507.964 1507.058 1506.635 1505.978 1504.609 1505.896 1500.602 1492.955 1484.337 1478.188 1472.615 1461.813 1456.268 1452.081 1446.338 1450.224 1454.385 1455.140 1447.138 1447.175 1446.645 1445.089 1442.330 1439.672 1440.086 1441.311 1442.165 1444.022 1450.060 1455.340 1459.741 1462.185 1460.955 1455.202 1449.087 1440.446 1433.137 1426.911 1423.352 1419.287 1415.300 1411.739 1402.105 1392.018 1378.951 1375.789 1374.030 1365.175 1359.202 1354.241 1346.548 1341.349 1336.440 1330.726 1324.110 1318.287 1311.740 1305.273 1299.702 1290.139 1282.943 1273.983 1267.740 1256.911 1249.229 1240.080 1228.472 1218.846 1216.584 1210.337 1206.409 1201.311 1199.536 1190.940 1174.401 1158.613 1135.962 1114.767 1098.048 1085.974 1069.776 1056.377 1047.250 1045.732 1041.482 1036.473 1030.330 1030.230 1029.501 1029.067 1025.256 1020.824 1016.233 1009.073 1005.330 1004.417 1001.471 997.255 994.035 988.219 985.229 978.341 972.806 967.875 962.647 956.970 953.891 950.085 945.863 943.187 938.886 936.002 927.183 922.532 915.120 913.547 911.783 909.581 905.706 904.715 902.668 901.320 900.529 894.451 892.200 890.987 886.586 882.839 876.423 874.641 874.577 873.241 872.125 866.734 862.331 857.925 854.368 852.014 847.179 845.468 844.527 841.351 837.832 834.207 831.948 826.468 814.603 810.495 803.368 796.178 790.034 784.825 780.736 775.592 772.826 768.974 767.049 762.771 757.214 750.192 746.393 744.161 737.474 736.549 734.518 732.612 729.031 726.453 724.769 719.213 715.678 710.385 707.281 705.493 704.673 700.655 695.809 690.395 688.887 684.897 684.079 683.553 680.427 676.243 671.548 666.773 663.478 660.942 662.146 659.904 652.608 651.696 646.985 643.977 641.964 638.859 633.705 631.416 631.849 630.834 628.936 623.617 616.911 611.323 602.829 598.983 599.397 597.118 600.559 605.401 599.156 593.343 584.939 578.630 568.964 560.921 551.942 549.123 544.447 538.393 541.217 545.724 547.221 554.688 556.603 549.472 539.442 531.839 529.468 536.118 550.462 561.203 574.365 588.967 603.095 617.946 637.473 647.400 657.483 664.012 676.781 696.045 708.143 718.527 725.133 733.212 743.808 757.913 773.677 788.984 812.276 833.214 849.594 865.526 884.089 902.789 920.225 936.931 954.207 972.677 989.106 1010.227 1037.955 1066.151 1106.630 1139.186 1168.942 1186.214 1210.883 1232.104 1267.320 1290.918 1311.882 1330.806 1353.616 1392.718 1420.620 1454.236 1475.304 1495.333 1513.708 1528.786 1564.637 1593.815 1613.123 1628.172 1645.651 1641.110 1652.332 1740.641 1759.653 1783.577 1806.291 1850.861 1882.255 1910.521 1956.327 1956.754 1921.937 1952.553 1966.205 1984.567 1998.534 1979.256 1963.594 1947.668 1933.477 1920.274 1907.388 1894.998 1883.458 1872.947 1863.475 1850.748 1836.778 1816.946 1799.151 1778.883 1759.755 1735.064 1731.798 1745.365 1754.575 1747.221 1751.387 1747.454 1742.733 1736.614
1581.072 1575.068 1567.760 1560.210 1555.887 1555.086 1554.090 1552.923 1551.006 1551.333 1550.052 1549.100 1548.937 1552.011 1553.919 1556.013 1555.367 1550.790 1546.510 1532.076 1520.941 1509.172 1506.582 1506.066 1505.294 1505.147 1502.427 1501.802 1497.365 1491.921 1485.577 1478.948 1471.782 1466.989 1460.780 1454.838 1447.918 1444.560 1444.605 1448.771 1447.031 1445.730 1443.929 1445.236 1442.994 1439.508 1437.207 1437.784 1439.002 1439.979 1441.010 1447.167 1451.514 1455.275 1456.867 1456.725 1455.750 1450.505 1444.102 1435.195 1429.564 1427.743 1421.104 1416.627 1413.548 1405.675 1396.208 1388.570 1378.994 1367.887 1359.823 1355.816 1349.831 1343.046 1339.188 1332.282 1325.138 1319.002 1312.212 1307.631 1302.889 1295.032 1288.422 1282.000 1274.158 1262.830 1255.691 1239.453 1237.891 1233.951 1227.231 1219.619 1210.360 1207.483 1203.655 1201.653 1196.232 1179.646 1159.561 1138.695 1121.414 1105.113 1088.183 1073.623 1054.325 1044.336 1038.443 1038.644 1031.642 1027.140 1026.142 1024.475 1023.694 1019.046 1014.245 1008.931 1004.673 1002.689 999.953 997.657 993.369 990.782 986.251 983.149 975.226 972.154 967.606 961.072 956.864 953.369 950.168 945.990 941.513 938.798 932.211 926.553 920.246 916.192 914.124 912.571 910.957 907.446 906.381 900.850 900.237 899.340 897.652 897.140 894.237 886.838 880.862 875.830 875.392 876.208 874.533 868.187 864.142 860.780 855.625 851.219 847.634 844.511 843.571 840.736 840.297 835.980 833.717 829.129 824.095 815.371 808.577 797.534 786.174 780.980 776.264 773.068 770.240 767.251 760.755 756.114 753.667 750.354 743.405 740.146 737.050 739.877 740.345 737.066 731.802 728.507 728.409 728.235 723.157 716.053 710.599 708.276 707.392 706.315 701.700 698.433 694.828 691.213 686.461 685.565 685.204 682.533 677.368 671.645 668.169 663.552 664.776 664.291 661.741 658.885 651.570 646.253 643.572 639.944 639.070 634.527 632.089 631.887 631.384 622.083 617.319 612.703 609.373 600.769 597.140 594.986 591.884 594.566 601.406 601.596 582.651 574.033 571.376 562.938 550.702 546.090 544.392 540.949 543.802 549.027 553.773 556.980 560.819 560.714 552.336 545.125 533.907 533.293 535.143 550.045 561.134 576.794 591.931 607.889 623.165 635.330 655.227 664.910 673.436 681.970 700.714 708.308 718.812 729.052 737.485 751.946 767.542 780.980 800.662 810.490 837.728 852.484 872.546 892.986 909.155 924.017 943.571 966.931 980.637 1007.025 1030.252 1046.450 1099.542 1118.762 1151.462 1182.210 1203.451 1231.071 1254.392 1284.371 1307.073 1325.750 1344.388 1371.974 1398.637 1425.984 1459.564 1481.123 1501.248 1519.394 1537.836 1570.759 1586.822 1605.296 1624.514 1646.530 1655.151 1668.167 1735.935 1756.373 1781.110 1803.401 1832.166 1870.031 1906.000 1969.996 1974.628 1958.328 1944.448 1956.704 1987.299 2004.772 1987.507 1971.311 1955.738 1942.199 1928.269 1914.747 1904.085 1895.090 1880.117 1865.577 1854.817 1820.690 1802.066 1784.448 1769.599 1753.080 1748.872 1748.566 1762.041 1765.921 1763.164 1765.989 1760.282 1754.453 1750.893
1586.295 1580.952 1574.858 1566.944 1559.142 1555.566 1553.285 1552.259 1551.343 1549.648 1549.572 1548.784 1547.722 1549.969 1553.154 1555.885 1554.344 1553.368 1545.328 1530.092 1518.535 1508.045 1505.473 1504.203 1502.656 1503.883 1502.046 1494.365 1487.707 1481.074 1475.411 1469.403 1461.914 1455.635 1454.054 1446.511 1443.198 1441.393 1440.346 1442.475 1438.881 1438.453 1441.589 1444.235 1442.058 1437.998 1433.279 1435.489 1436.575 1437.432 1442.413 1448.187 1451.450 1450.543 1450.401 1449.444 1447.743 1449.137 1445.795 1438.281 1431.068 1428.163 1425.780 1419.210 1413.113 1410.506 1401.782 1392.098 1383.766 1377.486 1372.580 1370.020 1361.211 1353.423 1343.872 1334.597 1328.434 1323.239 1316.937 1309.977 1303.071 1291.369 1285.137 1275.420 1268.934 1258.929 1248.144 1250.847 1245.155 1239.125 1232.789 1224.208 1215.526 1208.878 1204.865 1197.533 1191.444 1180.654 1152.044 1134.374 1118.145 1100.180 1082.861 1066.604 1054.149 1043.834 1035.188 1032.784 1028.314 1025.092 1023.241 1021.798 1020.492 1015.326 1010.130 1005.572 1002.802 1000.805 997.193 995.333 991.927 987.424 983.886 981.138 976.821 970.883 965.728 958.901 954.858 951.495 950.624 945.431 940.058 934.857 926.567 924.688 921.331 916.464 914.897 915.190 913.053 909.932 909.115 903.908 907.317 904.860 902.260 900.562 892.818 887.012 880.646 875.735 876.557 876.147 871.283 864.620 861.597 859.078 855.654 850.266 845.123 843.149 841.840 838.030 837.292 831.729 831.466 830.984 813.028 804.548 799.890 797.817 800.014 792.641 786.819 789.091 786.349 780.109 771.961 766.129 762.226 758.502 754.972 749.645 744.755 744.250 742.218 740.480 735.623 730.661 729.125 729.866 725.213 716.045 710.355 709.938 708.999 707.862 701.658 697.468 697.147 692.871 688.162 687.135 687.728 683.882 678.391 671.988 668.712 667.836 668.315 665.391 661.891 658.403 651.772 645.596 640.836 635.294 633.652 633.079 630.635 630.777 628.205 619.548 611.746 606.734 602.348 595.992 593.518 590.423 588.821 591.957 594.349 586.939 578.192 570.695 566.093 553.240 549.212 548.610 548.613 549.293 552.737 557.801 562.615 566.243 564.740 560.205 553.752 542.571 538.141 535.578 531.969 550.151 563.561 577.845 593.657 609.919 626.999 639.354 652.402 667.856 682.067 695.911 699.831 709.668 725.155 738.686 754.316 761.167 774.757 791.114 804.658 818.364 838.874 856.531 873.969 889.053 907.709 921.970 958.145 973.807 999.101 1028.918 1057.129 1086.600 1106.452 1131.476 1162.824 1190.759 1219.537 1245.981 1272.725 1294.258 1315.120 1338.613 1364.829 1394.853 1419.456 1446.262 1463.894 1480.507 1502.815 1520.833 1545.302 1562.208 1590.156 1607.638 1629.223 1646.924 1666.189 1690.657 1746.206 1762.283 1779.951 1801.302 1817.466 1852.811 1881.137 1912.313 1957.783 1954.010 1937.004 1953.626 1975.028 2005.436 1993.504 1981.355 1970.407 1952.161 1938.437 1926.774 1916.938 1906.658 1870.234 1848.171 1832.279 1812.899 1800.578 1787.541 1772.474 1768.492 1757.530 1761.092 1772.877 1778.596 1780.870 1779.948 1771.624 1760.869 1763.083
1588.955 1584.724 1579.479 1571.988 1561.796 1555.655 1552.536 1551.143 1550.497 1549.302 1548.559 1548.175 1547.758 1548.807 1552.026 1553.756 1552.792 1552.734 1541.552 1527.178 1515.386 1506.715 1503.182 1500.870 1501.200 1502.684 1496.941 1488.251 1477.260 1471.315 1464.800 1460.193 1455.281 1447.590 1443.611 1440.020 1438.338 1439.058 1434.947 1435.764 1433.816 1435.382 1438.798 1441.591 1442.004 1436.386 1431.061 1433.577 1434.864 1438.145 1443.341 1449.774 1449.807 1448.685 1445.857 1443.693 1441.317 1443.248 1442.558 1437.541 1429.270 1424.807 1421.919 1418.198 1408.279 1405.530 1401.661 1392.871 1385.403 1378.686 1377.074 1378.788 1368.189 1358.188 1347.487 1338.885 1332.437 1326.859 1321.675 1313.680 1305.541 1297.985 1286.918 1278.500 1270.322 1264.150 1259.918 1253.762 1247.893 1241.345 1233.915 1226.794 1218.955 1214.301 1206.040 1197.467 1189.678 1173.192 1150.724 1134.518 1115.156 1097.840 1082.839 1063.036 1052.025 1039.934 1033.473 1031.008 1028.444 1025.705 1019.981 1015.277 1016.262 1013.732 1008.591 1004.260 1001.498 999.180 995.085 992.699 989.225 985.901 983.414 980.399 977.063 970.752 962.480 954.757 951.227 948.802 948.232 947.997 941.922 932.695 925.006 922.943 919.043 917.905 916.516 918.839 916.451 912.565 910.306 913.681 912.027 905.445 904.544 899.563 894.459 886.203 878.744 876.982 876.389 879.020 869.876 864.264 862.752 857.654 853.359 849.435 844.324 838.626 837.626 831.576 832.189 829.871 829.117 817.542 818.046 818.358 816.882 814.792 808.398 806.284 799.175 795.922 790.917 785.839 780.412 774.637 765.489 760.239 756.633 752.329 748.760 747.606 744.910 741.530 735.647 731.155 729.765 728.946 723.208 715.145 712.425 710.421 710.746 707.161 701.146 695.808 696.809 694.282 690.136 687.765 687.007 684.710 678.961 673.732 669.247 668.285 669.766 665.872 662.330 659.025 653.103 645.197 636.745 633.610 631.141 628.473 626.265 625.448 626.066 619.644 612.795 603.381 597.460 593.238 589.788 582.216 581.821 586.823 584.041 579.728 569.535 560.220 555.657 555.763 558.467 560.799 559.196 562.583 563.020 570.284 567.430 565.776 558.005 555.496 550.278 542.619 538.751 535.885 533.312 550.324 565.134 579.480 595.595 612.425 628.414 640.429 652.906 666.381 681.098 694.493 707.746 717.239 730.348 747.852 760.968 771.533 783.644 797.413 813.703 825.792 845.150 873.833 885.715 899.510 913.452 940.365 959.430 983.449 1020.279 1035.176 1065.458 1088.398 1105.674 1141.525 1169.441 1205.137 1232.208 1257.139 1277.595 1303.190 1323.886 1350.798 1384.392 1414.562 1440.847 1456.674 1476.122 1493.407 1509.119 1525.132 1552.657 1587.076 1602.620 1615.800 1635.899 1653.095 1679.834 1737.707 1758.037 1774.021 1792.103 1812.311 1857.210 1847.722 1859.144 1877.104 1894.325 1923.355 1938.364 1955.023 1987.562 2020.914 2011.149 1993.725 1974.229 1961.278 1951.044 1938.259 1927.449 1909.111 1860.754 1844.841 1832.666 1819.270 1807.782 1793.281 1788.660 1782.256 1774.133 1770.685 1781.344 1789.682 1792.781 1789.826 1778.649 1770.879 1773.998
1592.476 1588.271 1582.756 1577.004 1569.782 1560.896 1552.243 1550.177 1549.805 1548.146 1547.911 1546.148 1545.744 1546.879 1550.378 1551.325 1552.844 1550.835 1536.844 1524.376 1512.456 1507.436 1504.769 1500.126 1495.667 1497.404 1489.583 1478.396 1471.784 1464.660 1458.618 1453.493 1447.194 1443.324 1440.506 1437.605 1435.727 1434.678 1434.566 1428.919 1431.109 1432.385 1434.935 1438.358 1439.016 1435.065 1430.407 1429.216 1432.290 1438.586 1443.781 1446.265 1447.747 1446.101 1441.543 1437.747 1433.082 1432.354 1431.183 1428.720 1425.497 1418.844 1414.709 1408.838 1403.737 1400.066 1396.574 1390.042 1387.452 1380.294 1377.819 1373.739 1365.107 1354.787 1343.942 1336.824 1333.824 1329.480 1323.062 1313.463 1303.462 1295.077 1287.161 1280.211 1272.671 1264.861 1259.044 1252.406 1246.248 1237.903 1228.726 1222.222 1216.769 1212.171 1204.714 1197.120 1180.413 1161.621 1147.833 1132.705 1115.168 1099.279 1082.789 1061.421 1048.942 1040.830 1033.529 1029.306 1028.263 1024.813 1021.290 1016.928 1014.375 1010.671 1011.414 1006.795 1000.708 996.704 994.022 991.026 988.619 985.078 981.648 978.663 975.247 969.990 963.618 953.719 948.748 946.864 946.828 945.157 941.278 930.106 924.688 920.271 918.364 918.043 919.702 916.726 916.030 914.048 918.251 915.663 910.257 908.852 904.067 898.810 891.414 884.379 881.061 880.569 883.245 873.246 866.093 862.282 861.104 857.094 853.037 850.407 845.456 832.828 825.574 824.028 824.469 822.241 821.487 823.211 833.335 832.008 827.285 823.481 817.280 807.942 802.837 798.446 794.211 791.641 784.836 778.259 771.200 763.739 760.944 756.206 752.005 747.188 744.957 739.775 735.149 730.409 728.998 726.157 719.315 714.034 712.263 710.769 708.293 703.826 696.510 693.629 695.072 692.561 689.919 687.281 684.861 681.252 676.548 672.945 669.877 671.646 669.278 664.628 659.610 655.797 648.856 643.344 634.970 631.028 628.135 625.013 623.159 623.953 620.584 617.758 610.224 602.484 596.328 592.055 584.990 583.352 577.820 575.027 572.526 571.271 564.475 562.828 565.404 565.301 567.095 568.921 569.421 573.366 572.849 571.043 565.092 560.597 557.155 552.193 546.468 544.204 536.078 534.577 536.900 553.471 569.894 582.126 597.595 613.169 627.869 639.600 651.210 664.108 678.690 691.785 705.805 720.960 734.184 749.281 763.757 777.078 789.648 802.367 820.067 835.071 865.807 880.347 895.353 910.247 923.294 948.759 968.574 988.568 1015.360 1032.702 1048.656 1075.260 1089.308 1131.714 1181.079 1222.673 1247.402 1267.047 1286.759 1308.212 1331.702 1361.889 1391.539 1414.262 1443.374 1467.354 1488.718 1509.711 1537.578 1556.031 1562.270 1588.469 1605.973 1627.071 1643.331 1662.254 1693.574 1752.217 1771.029 1782.385 1797.459 1815.744 1841.625 1863.225 1881.451 1893.059 1902.962 1917.691 1934.631 1977.369 2002.815 2033.646 1993.205 1973.259 1957.781 1945.864 1929.101 1914.069 1903.301 1878.748 1864.408 1851.211 1838.582 1826.314 1813.060 1807.273 1799.088 1791.747 1783.451 1780.958 1789.243 1797.647 1803.434 1801.403 1789.843 1782.477 1785.323
1593.102 1591.105 1587.864 1583.217 1576.829 1567.981 1557.949 1549.624 1548.822 1548.383 1546.586 1546.798 1544.993 1545.405 1548.575 1549.051 1551.358 1547.953 1532.954 1521.901 1510.769 1507.502 1503.153 1499.097 1494.142 1487.635 1482.871 1476.474 1467.944 1461.221 1454.466 1448.860 1444.812 1440.604 1437.164 1434.210 1432.481 1433.108 1428.986 1426.511 1428.367 1428.739 1431.124 1434.794 1434.349 1432.619 1429.875 1426.528 1428.671 1434.875 1443.179 1442.018 1441.059 1439.813 1437.120 1434.178 1431.116 1424.906 1422.668 1420.434 1415.543 1411.679 1408.107 1402.989 1399.836 1395.448 1392.333 1389.854 1386.022 1382.022 1378.371 1371.392 1364.447 1353.940 1345.635 1337.723 1334.182 1328.094 1320.485 1311.596 1304.575 1296.735 1288.421 1280.001 1271.651 1263.232 1257.363 1249.685 1240.963 1232.867 1225.328 1218.706 1212.953 1205.729 1197.985 1186.703 1172.554 1154.715 1142.020 1125.624 1109.433 1092.956 1077.892 1060.950 1048.593 1038.820 1031.529 1027.572 1026.646 1025.072 1022.594 1018.316 1016.110 1011.821 1003.933 997.234 991.024 988.410 984.621 982.624 979.828 980.025 972.360 971.552 968.871 966.622 962.168 953.173 947.018 944.933 944.818 948.010 942.998 930.802 924.063 918.916 918.141 918.271 918.020 917.221 918.596 916.973 917.028 916.685 913.524 908.867 906.099 895.599 890.686 887.451 886.555 887.240 880.822 874.224 866.310 860.929 862.137 857.272 851.665 849.343 838.891 827.774 824.356 825.276 828.142 828.579 829.819 830.846 831.599 830.366 827.327 821.342 815.254 807.977 801.607 798.265 795.358 791.463 788.164 782.151 776.138 767.459 763.960 759.401 753.502 747.675 741.993 737.893 732.180 730.567 728.379 723.349 717.221 713.552 709.910 707.477 705.708 701.956 695.417 692.186 691.428 689.626 688.333 684.495 682.239 680.049 676.220 673.388 671.671 670.856 667.957 663.601 658.949 653.317 647.072 643.652 635.108 629.438 624.291 622.001 619.284 615.993 611.981 608.599 603.986 597.917 588.608 585.175 585.641 589.510 586.154 581.128 574.187 571.442 573.811 573.722 572.525 570.280 577.713 582.310 579.603 570.108 567.063 568.383 561.826 557.042 552.614 548.573 545.495 543.394 538.429 536.764 543.412 557.289 572.624 584.761 596.670 608.451 620.743 632.299 645.268 660.032 676.465 691.890 704.456 714.820 727.888 746.465 763.080 779.750 793.080 807.004 822.859 851.125 873.319 891.507 911.058 921.992 938.129 961.169 979.910 1012.865 1018.008 1049.867 1063.138 1080.348 1113.352 1161.532 1190.740 1224.866 1247.305 1269.211 1289.500 1308.329 1339.740 1370.789 1407.831 1427.336 1459.105 1474.301 1496.542 1537.017 1559.830 1582.551 1595.489 1614.425 1615.603 1631.892 1650.472 1678.091 1734.920 1755.678 1779.349 1800.524 1805.845 1818.834 1835.660 1861.442 1891.071 1914.930 1931.101 1947.034 1959.448 1965.689 2005.643 2033.252 2006.479 1980.822 1958.339 1941.789 1925.781 1909.828 1895.856 1882.090 1869.406 1856.963 1842.721 1832.666 1824.622 1816.271 1807.914 1799.220 1792.462 1794.773 1799.230 1809.867 1815.494 1812.999 1801.619 1792.217 1796.662
1595.394 1593.012 1590.605 1587.191 1583.430 1574.595 1564.439 1554.404 1548.265 1547.570 1546.448 1545.507 1544.471 1545.157 1546.262 1547.378 1549.340 1541.660 1528.833 1517.354 1512.551 1510.963 1507.000 1503.636 1496.951 1490.784 1482.815 1474.209 1466.874 1457.206 1451.763 1446.233 1442.321 1437.561 1434.069 1431.335 1429.200 1429.293 1425.092 1422.140 1424.067 1424.920 1427.244 1431.695 1431.511 1429.702 1428.075 1426.569 1425.334 1425.939 1432.668 1436.900 1434.578 1433.479 1431.584 1429.205 1425.784 1422.826 1418.502 1412.544 1407.297 1403.591 1401.679 1397.991 1395.391 1390.373 1389.175 1389.428 1386.653 1382.226 1379.107 1372.203 1363.555 1354.506 1344.444 1339.471 1333.280 1327.413 1319.305 1311.755 1302.327 1291.686 1285.654 1277.405 1267.281 1260.215 1254.316 1246.292 1237.939 1229.638 1222.704 1216.299 1210.126 1202.646 1188.687 1178.976 1167.651 1149.793 1133.854 1117.843 1101.900 1087.342 1072.759 1059.274 1050.546 1042.592 1031.827 1026.317 1027.432 1025.820 1024.579 1022.365 1016.486 1012.602 1010.458 1004.622 1005.000 1004.982 999.524 990.217 984.436 982.522 975.531 972.980 959.296 961.449 957.906 951.727 946.749 943.743 944.545 945.479 943.671 931.503 921.528 920.043 918.562 918.437 918.236 919.938 920.884 919.530 916.118 915.092 912.107 911.490 903.705 894.099 891.983 889.587 888.986 888.842 884.693 874.543 865.556 861.850 861.439 853.727 846.819 844.425 829.788 830.121 829.116 828.956 830.066 829.643 829.375 830.902 830.515 827.098 826.228 821.151 814.869 805.957 801.597 799.786 796.309 793.026 789.132 785.350 778.642 768.592 760.255 754.738 749.190 746.386 739.439 735.276 733.301 731.713 726.854 724.026 717.292 713.386 710.339 708.055 704.627 699.543 692.692 689.905 688.284 687.128 685.900 685.846 684.404 681.391 679.027 675.953 672.164 669.188 664.400 661.546 656.500 650.839 649.507 646.176 635.635 628.563 624.062 619.112 614.889 610.603 604.742 599.442 596.222 590.928 593.775 592.989 596.291 596.203 597.557 592.951 587.176 584.529 581.579 581.614 583.417 585.490 586.428 584.594 571.485 562.483 562.081 561.114 558.939 555.853 549.688 547.209 545.531 540.384 537.078 542.784 552.425 563.322 574.757 586.445 598.364 610.584 621.336 633.234 646.675 660.444 672.939 686.667 698.691 711.841 725.792 747.976 764.065 779.256 796.385 811.060 832.258 854.301 871.232 897.887 916.983 934.703 950.550 971.163 989.023 1026.949 1049.174 1068.807 1087.589 1097.246 1132.333 1170.944 1193.500 1216.699 1243.056 1260.905 1283.310 1303.036 1338.472 1383.324 1409.416 1444.685 1463.169 1485.800 1503.043 1524.497 1549.466 1569.242 1593.489 1617.666 1630.567 1643.084 1662.963 1710.677 1740.316 1761.687 1783.912 1804.782 1879.900 1857.001 1858.310 1878.509 1906.405 1918.169 1933.561 1950.220 1975.860 1993.024 2019.828 2033.547 2015.716 1994.330 1977.054 1953.266 1933.563 1918.630 1903.283 1889.673 1877.682 1863.266 1853.908 1843.748 1834.196 1824.447 1814.391 1805.948 1805.323 1808.779 1810.173 1823.595 1827.966 1824.298 1813.289 1804.842 1807.968
1596.922 1592.991 1591.420 1590.941 1588.443 1582.098 1578.781 1565.051 1555.398 1547.774 1546.149 1545.510 1544.656 1544.848 1544.476 1546.875 1546.288 1536.773 1525.283 1515.073 1513.126 1511.038 1508.856 1506.958 1503.081 1497.031 1488.531 1480.285 1472.256 1463.008 1453.271 1443.899 1439.081 1436.091 1431.436 1428.008 1425.625 1424.728 1421.687 1419.240 1419.397 1419.555 1423.025 1427.261 1428.821 1428.290 1426.604 1425.772 1423.996 1419.770 1422.495 1425.078 1427.622 1428.517 1426.890 1423.991 1420.188 1417.627 1413.088 1407.978 1403.942 1400.731 1397.658 1393.440 1389.687 1386.960 1388.228 1388.243 1385.087 1382.617 1374.517 1369.079 1360.749 1351.789 1344.843 1339.532 1332.120 1326.144 1318.756 1310.143 1298.743 1289.784 1280.955 1273.489 1263.000 1252.416 1247.933 1240.843 1233.778 1226.261 1219.771 1214.676 1207.780 1193.258 1177.873 1170.436 1161.145 1143.924 1126.405 1112.271 1097.279 1083.047 1069.988 1058.319 1048.517 1038.757 1031.882 1028.569 1028.783 1026.640 1027.489 1022.778 1022.040 1015.657 1010.855 1006.632 1003.172 1002.358 996.674 988.619 985.241 982.743 978.225 969.641 958.267 950.855 956.527 951.011 948.683 942.721 945.715 943.448 942.048 930.159 920.736 919.774 919.124 918.588 918.314 921.108 919.465 919.798 916.625 912.870 911.549 909.663 901.347 895.786 884.256 880.098 876.917 873.709 872.094 862.643 859.328 854.073 859.130 846.339 840.641 836.669 832.904 834.697 828.082 828.932 831.426 829.875 829.154 828.947 825.371 823.951 821.757 815.590 811.528 804.392 800.568 800.341 796.822 794.230 790.557 785.729 779.618 771.092 761.133 755.270 748.984 743.230 740.806 735.543 734.573 732.913 726.824 724.789 716.829 714.400 712.542 707.978 702.184 697.549 692.226 690.124 688.063 687.804 688.639 689.293 686.897 684.003 681.188 675.431 668.736 664.697 660.251 658.580 654.796 650.789 648.372 643.222 636.058 627.796 622.624 616.904 610.432 605.194 602.276 597.719 599.101 599.759 601.331 605.400 607.948 606.929 608.136 602.013 613.630 600.428 597.685 592.419 594.216 593.887 592.665 581.491 570.155 561.393 557.682 556.671 548.527 547.189 545.955 543.725 542.895 539.635 539.809 547.599 553.995 563.168 572.216 581.318 595.939 611.423 626.472 638.826 649.952 658.749 673.386 688.423 703.143 716.628 730.658 748.579 762.963 782.081 799.983 815.808 830.821 848.807 884.478 903.636 924.547 947.016 965.859 981.816 1010.731 1036.004 1063.330 1092.828 1119.224 1138.000 1164.688 1193.560 1206.654 1230.035 1243.454 1258.301 1280.158 1304.858 1343.765 1396.831 1427.385 1449.925 1468.295 1485.620 1504.069 1527.039 1545.524 1564.179 1582.440 1602.930 1623.514 1653.173 1710.646 1722.998 1743.757 1764.909 1785.354 1864.964 1906.565 1869.518 1878.231 1908.313 1926.149 1939.590 1945.954 1959.199 2016.112 2010.466 2045.500 2061.248 2044.993 2008.001 1987.815 1961.303 1934.569 1922.056 1909.308 1895.382 1882.702 1873.487 1863.680 1849.857 1840.999 1830.693 1823.875 1813.660 1816.763 1823.600 1823.133 1835.663 1841.898 1833.855 1823.836 1817.305 1819.291
1596.472 1592.164 1590.763 1590.934 1589.164 1585.524 1581.564 1573.897 1563.184 1553.376 1546.674 1545.230 1543.921 1543.437 1543.480 1546.265 1541.748 1530.849 1520.741 1515.893 1513.521 1510.962 1509.031 1508.574 1507.359 1501.836 1493.443 1483.739 1474.331 1465.533 1453.942 1451.740 1447.767 1441.103 1434.660 1427.557 1425.004 1417.718 1418.264 1414.890 1414.909 1414.090 1417.195 1423.457 1425.956 1426.739 1426.141 1425.145 1423.286 1420.764 1419.134 1418.147 1418.516 1420.517 1421.000 1419.742 1414.998 1410.143 1405.474 1402.269 1399.422 1397.961 1393.601 1387.520 1385.560 1385.821 1385.337 1385.588 1383.044 1377.783 1369.304 1363.470 1356.284 1349.953 1343.241 1336.900 1329.630 1322.892 1315.502 1308.448 1299.915 1291.685 1283.385 1274.553 1266.405 1256.590 1247.038 1238.510 1228.972 1220.860 1218.693 1213.689 1203.065 1191.262 1177.276 1164.756 1154.422 1139.352 1119.778 1106.117 1093.800 1079.329 1064.756 1058.575 1051.793 1042.075 1034.174 1029.750 1029.409 1027.628 1024.071 1020.055 1015.781 1013.390 1005.623 1005.294 1000.700 994.875 986.970 978.059 976.523 972.908 969.455 965.751 953.829 946.763 947.830 947.303 949.067 941.313 944.555 941.193 941.024 927.466 920.645 920.212 919.497 919.452 918.171 917.953 918.100 917.569 915.375 913.759 912.162 907.019 896.269 887.553 886.143 883.389 883.610 883.067 879.313 873.882 867.096 853.060 845.078 841.552 836.668 835.321 834.667 832.232 826.460 825.940 830.501 828.373 827.958 827.932 823.311 820.785 818.834 813.558 809.805 804.700 803.052 801.327 796.879 793.936 789.839 783.916 778.462 770.195 761.055 754.196 748.550 743.150 739.922 737.800 733.965 730.577 724.453 721.731 717.923 715.703 711.611 708.978 703.408 695.578 693.318 691.096 690.641 691.939 693.614 692.121 688.211 684.673 680.025 673.417 667.394 664.073 659.345 657.922 654.956 651.732 646.587 641.608 636.551 630.857 623.523 614.106 607.734 608.512 608.004 606.033 606.150 604.425 605.207 607.086 612.253 617.577 620.293 614.734 608.727 608.808 613.212 605.273 601.964 589.286 581.097 572.206 567.354 563.572 556.868 549.748 549.987 546.575 546.987 543.435 541.107 540.766 541.834 549.241 558.761 563.860 569.583 582.506 596.042 612.106 627.234 640.107 652.597 665.956 679.446 690.779 701.535 715.927 732.570 746.754 762.548 779.193 796.284 811.094 825.293 849.823 893.688 917.089 933.877 952.172 971.630 994.785 1022.815 1039.872 1060.318 1100.089 1133.521 1153.292 1189.375 1213.479 1227.742 1245.698 1259.515 1276.139 1289.826 1314.846 1365.980 1404.020 1420.801 1449.048 1470.423 1492.013 1505.831 1523.003 1542.553 1561.928 1581.343 1599.115 1623.066 1659.381 1725.566 1744.138 1752.295 1769.270 1791.871 1869.999 1897.184 1907.208 1889.166 1917.688 1935.292 1948.327 1981.166 2017.451 2033.552 2044.228 2062.232 2059.736 2040.890 2023.254 2004.539 1960.409 1942.546 1929.006 1915.007 1905.565 1895.019 1882.846 1881.327 1864.847 1849.934 1852.113 1844.557 1873.200 1851.054 1839.757 1837.476 1843.614 1855.273 1846.800 1834.595 1829.496 1830.187
1596.504 1592.418 1589.082 1587.576 1586.214 1583.921 1580.675 1576.718 1569.567 1561.115 1552.369 1545.996 1543.832 1538.535 1540.824 1541.699 1535.851 1525.050 1517.310 1514.982 1513.447 1511.234 1508.196 1507.640 1506.455 1502.640 1497.147 1488.232 1476.713 1465.000 1465.253 1460.549 1457.559 1450.161 1442.171 1433.215 1424.467 1419.990 1413.697 1411.884 1410.952 1409.737 1412.439 1418.097 1423.181 1424.187 1424.084 1424.138 1423.206 1419.686 1417.481 1415.499 1416.420 1415.073 1413.731 1414.046 1410.219 1403.935 1400.621 1398.132 1397.284 1394.463 1389.357 1385.564 1385.087 1384.498 1384.612 1382.799 1376.802 1369.812 1363.214 1358.100 1351.371 1344.362 1340.137 1332.718 1326.425 1318.987 1309.755 1300.896 1293.304 1285.849 1278.134 1270.781 1262.886 1256.006 1247.148 1238.944 1230.243 1221.995 1213.942 1205.695 1193.889 1183.023 1172.593 1160.887 1149.496 1133.787 1113.060 1100.098 1087.243 1074.092 1066.034 1059.844 1051.433 1043.357 1036.359 1032.052 1031.584 1030.063 1024.995 1020.337 1017.590 1011.808 1005.191 1001.348 996.700 992.756 988.843 983.263 979.153 976.009 972.128 968.214 963.828 954.225 946.402 939.196 944.113 938.318 931.412 932.863 936.767 926.503 921.631 920.037 920.335 918.753 916.984 917.232 918.224 922.700 917.496 915.210 900.561 895.549 899.665 897.856 895.364 893.700 887.631 888.658 882.871 876.535 862.174 854.041 849.996 844.678 841.988 838.518 830.342 829.564 824.870 823.651 826.201 825.781 824.676 824.068 821.229 817.081 813.898 810.548 810.133 807.657 804.855 803.584 798.943 794.798 788.176 783.543 778.612 771.671 762.687 754.692 748.502 742.073 739.197 737.323 733.404 728.511 724.076 720.164 718.844 714.284 709.597 706.774 702.434 696.098 696.257 695.870 695.536 695.224 695.563 693.851 688.357 683.686 678.752 673.538 668.658 664.216 660.368 657.600 655.461 651.613 646.781 638.502 636.331 626.803 621.491 613.604 614.739 617.980 617.373 614.234 611.424 610.163 609.225 612.811 615.902 622.235 622.582 621.992 616.770 615.947 609.022 605.645 602.868 586.669 578.078 571.248 565.018 561.177 557.457 549.403 549.492 548.054 545.303 545.006 543.960 543.135 547.512 555.234 562.020 572.340 572.288 583.608 600.241 613.459 627.743 640.663 655.142 668.225 684.592 699.663 711.593 725.551 739.049 749.698 763.261 777.766 793.278 806.498 829.403 857.506 898.687 926.241 944.979 964.220 981.480 1016.142 1030.310 1045.602 1090.828 1108.907 1151.862 1175.058 1207.671 1230.404 1245.376 1256.416 1274.779 1296.757 1314.463 1329.744 1373.003 1398.290 1422.796 1443.192 1465.565 1481.830 1500.428 1521.810 1537.168 1564.767 1582.617 1600.955 1630.445 1705.285 1729.290 1746.293 1766.852 1780.742 1853.820 1877.213 1902.206 1925.001 1934.540 1931.472 1943.964 1980.458 2004.269 2026.107 2047.250 2076.277 2076.477 2057.139 2041.333 2024.517 1976.430 1964.101 1956.583 1946.901 1942.459 1942.859 1925.878 1909.275 1906.578 1910.545 1908.254 1912.115 1905.815 1906.049 1893.584 1875.229 1851.072 1852.413 1867.680 1856.989 1848.083 1842.821 1839.215
1597.778 1593.948 1590.998 1588.603 1585.544 1581.644 1575.376 1574.178 1570.231 1565.185 1558.373 1550.981 1542.998 1540.124 1537.589 1536.482 1532.029 1522.311 1515.332 1513.890 1511.973 1509.612 1507.469 1505.371 1502.190 1500.181 1495.844 1488.088 1479.761 1479.670 1476.728 1471.969 1468.675 1460.722 1449.413 1438.277 1427.603 1418.172 1413.801 1410.428 1407.895 1407.788 1408.859 1415.200 1420.890 1424.071 1423.773 1422.842 1422.404 1419.597 1417.266 1413.475 1413.059 1413.652 1411.880 1407.305 1401.140 1398.487 1395.802 1396.258 1394.642 1390.429 1386.053 1385.157 1385.335 1384.951 1384.444 1382.943 1376.555 1365.496 1355.272 1351.273 1342.974 1338.129 1329.797 1324.752 1321.188 1314.458 1306.505 1299.154 1291.916 1283.263 1276.678 1271.062 1262.954 1254.937 1247.192 1237.604 1228.647 1220.225 1213.172 1203.478 1190.031 1177.190 1167.393 1153.808 1143.765 1129.150 1111.142 1098.030 1086.694 1075.521 1068.358 1059.389 1048.499 1042.712 1036.934 1033.898 1031.232 1027.937 1026.777 1021.461 1016.615 1010.339 1005.568 1000.835 998.697 993.310 987.582 982.051 978.444 975.635 972.151 969.438 966.268 960.223 953.594 950.840 937.300 934.514 936.321 932.160 927.474 924.394 922.276 923.418 919.213 917.553 918.150 915.533 913.083 917.518 918.768 910.226 911.255 912.871 910.111 902.056 897.038 897.945 893.734 885.912 881.843 873.073 862.002 855.989 851.896 845.425 839.244 833.879 829.704 827.837 824.094 820.864 822.182 823.750 823.469 819.458 818.696 814.912 812.105 811.159 811.760 810.678 806.338 802.806 797.773 793.360 787.782 781.388 770.627 765.057 756.759 751.753 746.106 739.147 737.158 736.510 730.890 726.803 723.113 719.679 717.520 715.018 710.637 705.417 702.068 700.479 700.833 700.663 699.044 697.282 695.795 693.475 688.089 683.889 677.646 671.628 669.003 664.697 660.967 656.280 653.946 652.750 646.243 639.777 633.012 625.982 614.367 615.762 619.111 621.951 622.158 617.204 612.891 614.752 611.359 618.249 622.766 624.785 625.141 627.114 623.398 617.276 606.953 608.315 595.689 587.550 577.976 569.583 562.794 554.541 551.650 555.458 555.923 562.702 548.764 545.010 545.109 553.972 562.489 567.884 571.489 573.162 579.275 582.667 598.183 613.677 627.461 641.715 657.265 671.981 686.973 703.910 722.197 733.758 747.471 758.221 770.637 785.611 802.766 816.020 855.398 868.459 903.112 932.273 952.024 974.479 997.994 1018.936 1035.132 1070.368 1097.640 1128.273 1173.598 1202.274 1226.421 1245.375 1264.472 1277.592 1307.086 1327.181 1343.911 1352.916 1389.699 1401.548 1421.700 1446.464 1463.223 1478.868 1500.222 1519.521 1547.078 1572.377 1589.432 1614.697 1653.923 1703.804 1729.522 1748.407 1767.518 1789.229 1871.674 1896.625 1918.365 1940.796 1952.430 1965.029 1965.388 1975.249 2022.064 2050.660 2071.640 2085.946 2081.292 2064.961 2038.774 1998.038 2011.587 2017.902 2004.086 1982.527 1979.213 1964.539 1953.839 1927.949 1932.899 1943.230 1932.658 1929.582 1923.385 1923.028 1907.579 1896.270 1871.797 1864.319 1878.275 1866.103 1861.964 1855.008 1849.347
1599.698 1594.977 1591.018 1587.887 1584.256 1580.677 1577.010 1572.890 1568.552 1563.302 1558.306 1553.106 1549.575 1544.697 1540.911 1533.735 1524.119 1517.790 1514.521 1513.385 1511.604 1508.920 1508.905 1508.602 1504.021 1499.266 1493.287 1491.197 1488.066 1486.841 1485.509 1484.127 1478.298 1467.926 1455.178 1442.500 1430.436 1418.652 1413.653 1412.083 1408.799 1404.057 1407.635 1412.605 1418.483 1420.894 1421.626 1421.849 1421.942 1418.568 1415.720 1411.740 1407.182 1410.196 1407.297 1401.671 1396.036 1391.240 1389.404 1392.763 1391.405 1388.113 1384.498 1382.664 1382.483 1383.091 1383.294 1382.227 1374.440 1366.038 1357.230 1348.468 1339.471 1329.269 1321.480 1313.503 1314.979 1309.442 1302.886 1294.997 1287.782 1280.973 1272.758 1265.107 1260.000 1250.607 1241.586 1232.870 1225.981 1217.670 1208.601 1195.442 1185.815 1175.750 1163.729 1149.717 1141.962 1124.784 1112.342 1102.891 1092.828 1082.056 1073.417 1063.461 1049.718 1042.039 1037.971 1035.256 1032.414 1030.090 1027.526 1023.810 1018.004 1013.069 1006.478 997.981 994.678 990.284 985.705 981.390 977.893 974.753 971.818 968.025 964.603 959.074 955.316 951.117 946.101 941.289 937.297 935.280 933.150 923.411 929.139 917.769 917.865 916.020 912.568 913.658 915.083 909.996 913.293 912.652 919.675 918.287 907.315 904.337 897.509 899.205 894.054 885.379 879.136 871.464 863.985 860.167 851.357 844.071 838.582 833.175 825.872 824.658 823.021 818.670 817.836 819.528 821.429 818.308 815.568 813.672 815.421 814.669 814.052 812.196 808.489 799.293 793.599 790.120 786.709 775.832 768.462 761.874 752.861 747.839 742.853 737.716 736.389 732.399 727.047 726.778 723.291 719.933 716.784 713.376 711.388 707.060 704.659 705.156 704.627 702.424 700.517 696.911 694.013 691.297 687.381 684.843 678.620 672.440 668.980 663.762 658.436 657.295 654.880 652.716 647.464 640.464 632.818 622.983 614.708 623.381 626.837 629.488 624.732 621.013 618.133 619.121 622.925 625.067 627.117 628.571 628.194 628.681 623.814 615.232 609.673 605.311 593.229 583.691 577.392 568.593 558.262 553.897 555.255 561.639 571.167 578.809 589.418 588.316 565.413 568.040 578.923 583.461 583.263 582.634 585.027 590.118 598.448 615.560 628.879 643.876 658.827 673.055 688.077 700.995 716.062 727.057 741.149 755.399 769.904 781.847 803.298 831.224 842.418 881.451 918.960 932.911 955.179 976.469 1009.019 1031.579 1047.215 1088.604 1106.062 1154.233 1192.977 1213.667 1229.491 1253.111 1283.168 1311.348 1336.524 1353.236 1359.657 1397.664 1424.082 1417.871 1430.098 1448.165 1464.911 1481.502 1500.150 1525.716 1544.865 1566.975 1600.205 1643.224 1720.943 1728.762 1737.932 1750.036 1777.900 1835.306 1882.682 1900.685 1919.886 1941.942 1958.979 1982.068 2006.320 1997.493 2019.973 2048.517 2079.260 2093.942 2081.322 2051.236 2025.534 2046.478 2047.869 2034.478 2017.630 2011.881 2006.515 2005.626 1992.834 1972.646 1973.381 1965.445 1959.123 1948.891 1946.783 1936.826 1920.978 1901.744 1888.434 1877.249 1887.805 1880.449 1876.101 1868.587 1864.597
1600.732 1596.055 1592.436 1590.141 1586.545 1582.137 1577.476 1573.094 1569.076 1565.292 1561.698 1559.019 1556.161 1552.551 1547.501 1539.451 1530.988 1519.592 1510.998 1512.749 1509.721 1508.367 1510.004 1510.588 1508.408 1504.497 1499.451 1495.562 1492.638 1490.524 1486.585 1487.420 1473.965 1462.748 1450.853 1439.144 1427.396 1419.632 1414.655 1410.990 1407.499 1399.556 1407.922 1412.489 1416.687 1418.553 1418.842 1418.995 1419.073 1416.304 1413.123 1409.295 1404.389 1397.943 1396.442 1393.258 1388.632 1386.611 1388.650 1388.701 1387.515 1383.308 1381.797 1381.367 1379.342 1379.601 1378.917 1376.433 1368.635 1360.736 1352.189 1342.247 1334.377 1327.415 1321.259 1312.246 1303.178 1303.382 1297.372 1290.186 1282.977 1277.625 1271.209 1264.161 1254.178 1245.383 1238.469 1228.638 1219.006 1213.865 1205.562 1191.642 1180.503 1169.047 1155.868 1141.422 1133.983 1124.072 1113.254 1105.020 1094.785 1086.464 1075.816 1063.068 1058.207 1049.448 1043.197 1038.638 1033.968 1031.860 1028.239 1024.421 1015.247 1009.181 1001.629 993.752 991.767 990.119 988.383 981.458 976.906 973.113 969.583 964.991 962.358 957.881 955.666 948.522 943.813 941.803 940.391 937.889 937.318 925.398 926.783 917.506 916.329 910.604 910.945 912.955 914.128 914.818 916.067 918.453 916.812 920.933 916.269 908.597 900.112 901.761 894.406 883.438 873.720 868.917 866.030 855.392 849.731 847.145 843.483 834.047 826.848 825.154 823.381 820.398 817.432 815.904 815.741 815.873 815.179 812.681 814.878 814.481 816.091 809.526 800.217 795.070 787.969 780.711 774.120 766.287 757.796 754.314 749.036 744.742 740.075 735.680 733.877 730.985 729.263 728.256 727.510 722.777 719.190 713.955 713.185 711.872 708.143 707.639 706.377 701.276 696.511 696.087 692.983 691.464 687.627 684.129 680.313 673.102 666.655 663.405 659.429 657.481 654.346 650.523 647.263 638.028 629.998 617.774 623.143 632.739 634.534 633.971 630.181 629.488 623.258 624.436 626.383 630.428 632.891 631.881 632.244 631.406 622.034 616.066 611.460 605.931 594.043 584.058 573.696 563.216 560.200 558.923 581.264 587.089 601.645 610.519 616.643 614.867 620.541 614.286 593.282 599.950 597.561 595.206 595.787 600.059 602.718 615.951 629.457 644.375 656.597 668.540 682.039 695.459 708.157 720.588 730.658 746.224 759.510 779.039 805.425 821.900 857.284 902.057 927.875 946.803 964.291 978.408 994.609 1017.516 1053.490 1097.835 1137.281 1177.677 1200.037 1217.427 1236.229 1267.598 1299.607 1340.567 1355.560 1379.010 1399.765 1425.911 1441.091 1442.755 1448.874 1453.839 1467.006 1482.516 1496.727 1523.051 1541.040 1571.142 1611.725 1675.856 1754.282 1789.299 1789.204 1812.528 1828.772 1861.135 1872.669 1905.189 1923.356 1942.460 1970.590 1995.716 2021.483 2032.647 2058.278 2077.533 2082.928 2096.127 2082.216 2064.214 2057.114 2086.703 2074.267 2055.733 2039.510 2029.749 2043.021 2043.597 2025.470 1994.835 1994.167 1979.084 1980.661 1968.785 1974.062 1960.534 1939.446 1926.645 1907.552 1898.246 1897.072 1895.781 1890.350 1882.769 1880.919
1600.008 1597.023 1595.140 1593.284 1589.300 1584.331 1579.815 1574.651 1571.077 1567.373 1564.356 1562.624 1560.655 1558.804 1554.626 1547.335 1538.967 1528.187 1518.989 1508.140 1505.349 1507.323 1508.781 1510.067 1510.205 1507.945 1504.469 1501.379 1496.174 1484.292 1477.192 1477.431 1464.604 1455.033 1443.750 1435.030 1425.825 1418.976 1415.342 1410.225 1405.052 1397.222 1407.083 1411.437 1414.112 1415.197 1415.753 1416.235 1416.576 1413.851 1410.617 1407.144 1402.758 1396.324 1390.401 1386.262 1383.532 1382.196 1384.533 1384.208 1381.572 1371.534 1374.890 1375.053 1374.633 1374.762 1371.787 1366.972 1359.259 1352.408 1344.275 1334.377 1328.911 1322.399 1316.263 1308.235 1295.974 1289.976 1291.028 1284.942 1277.858 1271.705 1267.286 1260.608 1254.671 1245.842 1238.406 1228.006 1217.669 1207.153 1196.242 1182.721 1169.204 1160.216 1146.237 1135.336 1129.072 1122.532 1113.622 1105.785 1096.145 1088.594 1078.075 1074.435 1065.070 1056.343 1049.359 1045.778 1039.325 1034.856 1027.998 1020.491 1009.945 1003.683 998.995 993.189 991.912 988.565 985.177 978.836 975.254 970.744 965.477 962.675 960.418 957.858 952.274 949.374 947.753 946.830 943.615 939.501 937.393 925.827 923.948 915.285 911.299 909.751 910.600 914.067 912.556 914.510 915.333 915.432 916.043 920.279 918.604 912.859 902.486 900.699 891.700 882.459 874.416 868.141 864.037 850.177 848.361 847.142 845.152 839.550 830.526 826.251 822.520 819.360 817.088 815.034 812.893 811.785 811.559 812.333 814.019 813.784 813.703 803.458 801.006 795.347 785.833 776.207 768.141 759.590 755.732 752.526 746.536 742.367 739.254 737.177 734.265 732.782 730.354 729.822 728.891 727.007 721.836 716.232 713.652 712.039 710.075 705.775 693.909 686.570 683.226 684.181 684.590 685.537 679.924 678.168 676.619 673.512 669.216 664.773 660.398 655.798 653.905 647.474 638.976 633.960 624.902 622.671 630.178 640.230 641.030 641.262 638.220 637.395 631.609 632.501 631.033 634.748 639.638 637.265 634.718 629.173 617.618 617.290 612.907 603.259 587.784 578.242 564.502 566.098 572.357 588.274 593.007 611.198 616.133 624.623 633.195 641.291 649.591 650.645 653.265 628.662 611.529 606.298 605.494 611.417 611.887 615.632 628.580 639.855 655.042 668.416 678.636 690.892 706.088 722.291 736.067 752.274 766.759 788.377 811.025 828.635 867.036 900.574 932.131 960.268 980.734 995.343 1022.043 1034.854 1051.929 1106.884 1139.060 1175.378 1202.272 1222.863 1244.167 1266.868 1307.764 1361.269 1383.186 1411.432 1432.397 1448.528 1467.155 1467.200 1466.228 1463.923 1477.173 1489.514 1499.401 1525.405 1560.664 1589.862 1634.766 1717.045 1748.285 1780.616 1798.054 1849.311 1843.956 1852.634 1873.510 1910.703 1932.614 1957.551 1982.990 1998.857 2028.781 2051.930 2071.353 2091.183 2107.190 2124.379 2120.949 2107.138 2103.574 2114.251 2098.278 2080.324 2061.901 2057.191 2074.069 2065.317 2048.492 2022.514 2020.436 2003.769 1994.361 1990.049 1990.830 1989.317 1992.910 1972.994 1947.625 1922.159 1913.485 1910.318 1905.025 1902.422 1900.363
1600.565 1598.954 1596.986 1594.549 1590.929 1586.856 1583.340 1580.185 1575.912 1571.609 1567.465 1564.295 1564.368 1563.492 1560.140 1557.473 1554.143 1541.700 1529.719 1517.764 1506.734 1501.179 1501.392 1504.681 1508.209 1507.921 1506.268 1502.987 1488.790 1475.263 1466.127 1463.690 1455.876 1447.621 1438.939 1428.043 1420.844 1415.820 1413.885 1409.791 1402.280 1395.193 1400.098 1407.934 1410.993 1412.005 1412.087 1413.825 1413.685 1411.140 1407.875 1403.841 1398.954 1392.598 1388.971 1385.672 1382.689 1378.907 1382.038 1383.367 1375.067 1365.775 1366.889 1366.592 1365.573 1366.573 1363.117 1356.374 1350.716 1345.879 1336.920 1328.906 1322.180 1315.906 1310.760 1301.586 1293.992 1283.911 1286.754 1280.250 1274.089 1268.428 1262.102 1256.982 1247.746 1238.643 1232.414 1219.076 1213.156 1198.202 1186.648 1172.070 1160.675 1150.251 1143.786 1135.284 1126.158 1119.865 1110.670 1102.034 1094.840 1087.533 1081.901 1077.939 1068.852 1061.302 1055.079 1050.361 1046.073 1041.135 1037.778 1025.207 1006.476 996.332 994.550 989.075 985.887 984.862 980.817 976.930 972.648 967.239 961.371 958.149 957.540 954.053 951.231 949.245 951.699 951.252 948.230 939.151 930.345 926.323 920.310 910.540 909.212 909.183 909.390 911.006 910.985 912.308 913.457 914.860 916.549 916.827 916.201 913.305 904.787 896.959 885.786 872.162 867.542 864.854 859.421 848.036 848.791 848.219 845.465 842.095 833.399 828.547 827.525 817.522 812.316 811.932 812.160 812.545 811.680 811.558 812.763 813.064 810.849 803.518 793.722 788.365 780.088 772.274 765.830 757.542 751.663 751.526 748.369 745.033 742.797 737.934 736.135 735.244 733.945 730.594 729.917 728.001 723.942 718.030 714.438 711.281 707.727 700.961 688.852 683.223 682.043 680.206 674.990 675.356 673.790 672.125 670.623 667.708 664.493 665.860 660.769 651.389 641.538 640.301 632.912 625.487 623.601 626.415 636.147 643.249 648.299 648.250 645.719 642.797 639.111 638.718 637.601 641.075 641.085 637.997 636.447 624.556 618.254 616.457 614.927 600.637 585.372 575.158 570.387 571.937 584.887 601.249 610.663 621.201 628.848 639.253 644.373 650.555 659.878 667.294 671.272 674.982 667.075 617.587 613.243 617.668 620.916 626.003 632.823 644.697 657.275 666.970 681.107 695.363 709.234 723.835 739.835 755.229 770.682 793.437 815.161 837.299 866.437 905.984 942.580 972.701 997.769 1028.360 1033.785 1048.322 1080.574 1107.169 1160.676 1202.418 1219.565 1232.796 1252.821 1285.258 1332.920 1373.541 1418.414 1438.914 1460.679 1473.307 1475.634 1480.255 1480.164 1483.426 1480.315 1491.924 1514.974 1535.812 1582.678 1612.842 1649.296 1718.623 1735.596 1761.007 1788.009 1827.379 1865.900 1871.342 1879.798 1892.954 1919.051 1941.233 1975.739 2005.847 2033.498 2063.903 2088.076 2102.558 2125.355 2144.596 2141.637 2146.031 2132.234 2132.661 2116.220 2092.090 2081.745 2094.147 2096.198 2076.645 2059.142 2043.113 2056.228 2051.360 2036.213 2013.047 2004.957 2009.602 2007.506 1990.037 1970.854 1953.511 1933.787 1928.402 1921.264 1919.591 1927.156
1606.889 1605.084 1602.022 1599.498 1596.021 1592.314 1589.255 1584.423 1580.252 1575.406 1571.069 1566.457 1565.118 1565.007 1563.021 1562.537 1557.397 1549.154 1539.328 1528.012 1518.089 1508.350 1501.091 1497.866 1497.522 1501.890 1504.005 1495.511 1484.562 1472.177 1461.279 1454.214 1446.251 1439.199 1431.303 1421.686 1417.515 1413.227 1410.180 1406.886 1402.024 1392.901 1391.667 1400.591 1404.939 1405.758 1407.870 1410.094 1409.645 1407.320 1403.714 1399.155 1392.255 1387.786 1384.347 1383.315 1379.636 1377.339 1381.201 1379.352 1364.922 1357.286 1361.062 1359.840 1358.716 1356.183 1352.859 1346.757 1342.240 1337.182 1328.421 1322.516 1315.413 1308.432 1302.748 1294.896 1289.523 1280.331 1274.665 1274.393 1268.207 1264.701 1257.376 1252.693 1244.663 1238.925 1225.927 1215.094 1206.871 1193.461 1180.608 1166.882 1159.645 1152.946 1144.846 1139.313 1133.175 1125.961 1118.006 1103.658 1096.314 1091.331 1087.095 1078.417 1071.982 1067.559 1060.060 1058.185 1055.489 1060.458 1049.592 1037.103 1014.473 997.949 988.268 985.341 981.937 981.233 978.531 974.780 966.777 961.337 956.019 954.610 952.409 950.246 949.450 947.503 947.346 952.067 948.115 936.938 922.365 921.870 915.422 910.729 909.330 908.892 909.054 909.209 909.710 910.458 912.217 912.838 912.285 914.070 912.782 911.011 903.217 894.480 880.109 867.870 859.174 854.801 853.657 847.105 844.279 844.683 843.414 843.257 838.279 834.673 831.155 818.775 817.721 815.386 811.692 811.775 816.445 815.052 812.606 811.791 804.570 799.295 791.679 784.440 775.822 769.610 766.233 756.733 750.352 748.853 747.918 746.226 742.482 738.275 735.419 734.825 734.966 732.250 729.800 730.109 719.730 710.604 703.850 703.971 697.299 692.696 680.895 678.910 678.519 675.170 671.645 667.395 665.957 663.744 661.076 656.967 654.770 652.747 651.110 643.316 638.179 631.225 628.264 633.044 631.130 630.220 640.515 646.830 653.194 652.437 651.397 647.445 643.064 642.559 643.863 643.104 639.781 637.090 631.193 621.819 619.258 617.297 601.277 590.132 579.278 573.460 574.530 586.400 600.342 614.280 623.553 631.606 639.197 651.337 653.996 663.675 673.325 679.773 684.673 691.251 693.594 648.448 622.833 624.405 628.091 634.153 640.942 646.885 658.726 670.145 683.360 698.975 713.126 722.003 734.714 751.338 769.943 789.170 816.855 845.374 884.180 920.086 950.332 993.419 1013.983 1042.627 1070.923 1055.853 1098.029 1135.535 1189.317 1220.410 1235.385 1246.955 1269.972 1308.598 1355.818 1407.496 1431.285 1464.190 1469.516 1480.302 1486.258 1492.329 1495.523 1496.563 1492.686 1515.700 1529.227 1564.515 1604.359 1645.220 1708.546 1735.548 1745.665 1761.417 1784.179 1829.304 1854.018 1886.926 1893.594 1902.617 1931.584 1954.268 1972.931 2000.977 2047.464 2066.048 2091.113 2116.642 2135.649 2153.768 2166.872 2168.978 2161.560 2150.163 2129.401 2106.117 2103.509 2111.826 2117.614 2093.041 2072.882 2060.921 2072.188 2067.413 2053.877 2044.533 2020.306 2026.572 2018.781 2007.415 1993.452 1977.424 1961.186 1951.186 1943.864 1936.444 1955.094
1615.587 1614.918 1610.836 1607.179 1604.672 1599.688 1596.398 1591.392 1584.546 1579.538 1573.601 1568.099 1564.682 1562.458 1563.086 1561.887 1554.991 1546.684 1537.971 1529.311 1520.708 1513.656 1506.862 1498.740 1497.648 1497.284 1497.853 1485.607 1476.494 1467.030 1456.304 1447.383 1439.563 1431.758 1424.479 1418.305 1413.890 1410.300 1409.193 1405.460 1400.415 1392.911 1383.602 1392.956 1392.855 1394.113 1399.669 1405.722 1404.276 1402.335 1399.025 1392.797 1385.378 1381.124 1378.304 1379.083 1376.186 1371.905 1372.854 1364.414 1356.761 1350.068 1353.873 1352.990 1352.014 1347.488 1343.677 1337.780 1334.812 1329.236 1320.239 1318.123 1310.441 1304.095 1296.538 1289.272 1283.697 1275.028 1264.746 1260.851 1259.961 1256.506 1253.315 1242.191 1238.940 1229.636 1224.127 1214.360 1198.717 1186.596 1173.203 1161.783 1156.095 1153.022 1148.581 1143.438 1138.781 1132.682 1128.626 1126.551 1110.946 1102.181 1093.262 1084.198 1074.335 1065.939 1061.891 1054.348 1046.137 1043.296 1033.897 1026.399 1015.209 1003.721 989.634 980.993 978.839 975.838 973.340 969.055 963.900 956.847 951.261 949.843 947.961 947.234 948.480 945.734 941.278 945.732 937.765 927.032 919.420 916.024 914.453 910.508 908.870 908.809 908.842 909.041 909.334 909.736 910.235 910.511 910.737 910.291 909.580 908.351 898.108 890.245 889.101 871.115 864.105 861.859 853.670 853.183 847.564 845.163 844.074 842.663 841.490 837.469 831.089 819.757 821.011 812.036 811.526 811.526 813.094 813.950 815.309 809.418 802.306 797.411 790.169 781.552 774.759 769.522 765.143 756.388 749.675 746.781 745.265 745.120 742.706 740.932 735.486 733.408 731.145 730.245 726.070 720.552 714.370 704.594 697.099 693.865 687.980 684.647 678.430 676.214 674.171 668.511 664.513 660.024 654.852 655.531 651.685 648.385 643.882 642.919 639.226 639.789 635.604 640.262 643.267 647.894 639.910 633.426 643.096 652.868 655.836 650.830 646.431 645.038 645.005 644.311 645.170 646.015 638.838 635.860 627.293 621.387 621.003 608.630 595.247 583.549 576.942 575.502 585.793 605.939 619.260 627.874 633.867 643.092 654.528 664.120 670.017 676.992 684.222 687.236 692.249 704.570 708.547 707.326 632.935 630.957 632.405 641.833 648.484 655.320 663.815 675.039 686.114 700.949 716.691 733.241 747.554 756.363 775.822 800.405 831.542 877.121 903.831 931.174 969.098 1004.613 1044.276 1076.489 1086.562 1099.203 1111.988 1178.130 1214.568 1234.570 1253.368 1265.167 1289.191 1344.135 1376.581 1427.835 1456.265 1472.681 1481.401 1489.028 1501.225 1512.990 1519.444 1521.670 1520.966 1527.162 1541.929 1583.027 1622.063 1690.350 1733.882 1757.231 1781.212 1779.154 1788.513 1814.108 1853.111 1884.153 1895.596 1926.849 1955.033 1969.140 1982.859 2007.512 2030.145 2056.948 2098.593 2123.406 2147.511 2157.545 2169.880 2183.982 2195.338 2171.230 2147.601 2145.686 2120.608 2124.207 2125.350 2105.471 2083.918 2080.083 2089.314 2077.821 2064.109 2047.234 2032.825 2041.941 2031.726 2017.363 2003.543 1994.274 1979.464 1977.621 1967.041 1956.688 1962.112
